!!!!SEGMENT: pl-cz--iii-692--001-010-pc1_volckmer-augustin--miserere-aria-sacrificium-deo-post-correcturam-pc1.krn
!!!cenid: 17xx:1157b
!!!COM: Volckmer, Augustin
!!!COM-rismID: pe30020656
!!!CDT: 1755-~1820
!!!CNT:
!!!OPR: Miserere
!!!OTL: Aria - Sacrificium Deo [post-correcturam]
!!!OMV: 010
!!!PDT:
!!!AGN: Sacred
!!!SMS-siglum: PL-CZ
!!!SMS-shelfmark: III-692
!!!SMS-shelfwork: 001-010 M
!!!SMS-variant:
!!!SMS-altvar:
!!!NIFC-rismSourceID: 300001392
!!!NIFC-rismChildID: 300001392
!!!NIFC-islandoraID: pl-cz:40420
!!!URL-pdf-islandora: https://repozytorium.nifc.pl/islandora/object/pl-cz%3A40420/datastream/PDF/view
!!!URL-scan: https://polish.musicsources.pl/pl/lokalizacje/galeria/rekopisy/6989/1 @EN{Scan on Polish Music Sources Website} @PL{Skany w portalu Dziedzictwo Muzyki Polskiej w otwartym dostępie}
!!!IIIF:
!!!ONB-nifc: UWAGA: części Miserere: 1. Miserere, 2. Recitativo – Amplius lava me, 3. Aria – Quoniam,
!!!AIN: 1 alto 1 bass 2 cor 2 oboe 1 organ 1 soprn 1 tenor 1 viola 2 violn
!!!key: E-
**kern	**dynam	**kern	**dynam	**kern	**dynam	**kern	**dynam	**kern	**kern	**kern	**kern	**text	**text	**kern	**dynam	**kern	**dynam	**kern	**dynam	**kern	**dynam
*	*	*group4	*	*group4	*	*group4	*	*group3	*group3	*group3	*group3	*	*	*group2	*	*group2	*	*group1	*	*group1	*
*part12	*	*part11	*	*part10	*	*part9	*	*part8	*part7	*part6	*part5	*	*	*part4	*	*part3	*	*part2	*	*part1	*
*staff12	*	*staff11	*	*staff10	*	*staff9	*	*staff8	*staff7	*staff6	*staff5	*	*	*staff4	*	*staff3	*	*staff2	*	*staff1	*
*I"Organo.	*	*I"Viola obl=	*	*I"Violino Secondo.	*	*I"Violino Primo	*	*I"Basſo	*I"Tenore	*I"Alto.	*I"Canto	*	*	*I"Cornu Secondo in Dis	*	*I"Cornu Primo. in Dis	*	*I"Oboa Seconda	*	*I"Oboa Prima .	*
*I'org	*	*I'vla obl	*	*I'vl 2	*	*I'vl 1	*	*I'B	*I'T	*I'A	*I'S	*	*	*I'cor 2	*	*I'cor 1	*	*I'ob 2	*	*I'ob 1	*
*Iorgan	*	*Iviola	*	*Ivioln	*	*Ivioln	*	*Ibass	*Itenor	*Ialto	*Isoprn	*	*	*Icor	*	*Icor	*	*Ioboe	*	*Ioboe	*
*ICklav	*	*ICstr	*	*ICstr	*	*ICstr	*	*ICvox	*ICvox	*ICvox	*ICvox	*	*	*ICbras	*	*ICbras	*	*ICww	*	*ICww	*
*IGcont	*	*	*	*	*	*	*	*IGcoro	*IGcoro	*IGcoro	*IGcoro	*	*	*	*	*	*	*	*	*	*
*>[A,B,A]	*>[A,B,A]	*>[A,B,A]	*>[A,B,A]	*>[A,B,A]	*>[A,B,A]	*>[A,B,A]	*>[A,B,A]	*>[A,B,A]	*>[A,B,A]	*>[A,B,A]	*>[A,B,A]	*>[A,B,A]	*>[A,B,A]	*>[A,B,A]	*>[A,B,A]	*>[A,B,A]	*>[A,B,A]	*>[A,B,A]	*>[A,B,A]	*>[A,B,A]	*>[A,B,A]
*>A	*>A	*>A	*>A	*>A	*>A	*>A	*>A	*>A	*>A	*>A	*>A	*>A	*>A	*>A	*>A	*>A	*>A	*>A	*>A	*>A	*>A
*clefF4	*	*clefC3	*	*clefG2	*	*clefG2	*	*clefF4	*clefC4	*clefC3	*clefC1	*	*	*clefG2	*	*clefG2	*	*clefG2	*	*clefG2	*
*	*	*	*	*	*	*	*	*	*	*	*	*	*	*ITrd5c9	*	*ITrd5c9	*	*	*	*	*
*k[e-a-b-]	*	*k[e-b-a-]	*	*k[b-e-a-]	*	*k[b-e-a-]	*	*k[b-e-a-]	*k[b-e-a-]	*k[b-e-a-]	*k[a-b-e-]	*	*	*k[b-e-a-]	*	*k[b-e-a-]	*	*k[b-e-a-]	*	*k[b-e-a-]	*
*E-:	*	*E-:	*	*E-:	*	*E-:	*	*E-:	*E-:	*E-:	*E-:	*	*	*E-:	*	*E-:	*	*E-:	*	*E-:	*
*M2/2	*	*M2/2	*	*M2/2	*	*M2/2	*	*M2/2	*M2/2	*M2/2	*M2/2	*	*	*M2/2	*	*M2/2	*	*M2/2	*	*M2/2	*
*met(c|)	*	*met(c|)	*	*met(c|)	*	*met(c|)	*	*met(c|)	*met(c|)	*met(c|)	*met(c|)	*	*	*met(c|)	*	*met(c|)	*	*met(c|)	*	*met(c|)	*
!	!	!LO:TX:a:t=Dolce	!	!	!	!LO:TX:a:t=Dolce	!	!	!	!	!	!	!	!LO:TX:a:rj:t=in Dis	!	!	!	!	!	!	!
!LO:TX:a:t=adagioſsime	!	!LO:TX:a:rj:t=Adagiſſimo	!	!	!	!LO:TX:a:t=adagiſſimo.	!	!LO:TX:a:t=Recitat et Aria Tacet&colon;	!LO:TX:a:t=Recitat. et Aria Tacet	!LO:TX:a:i:t=Recitat&colon; et Aria Tacet	!LO:TX:a:t=Adagiosiſsime	!	!	!LO:TX:b:rj:t=Aria	!	!LO:TX:b:rj:t=Aria	!	!LO:TX:b:rj:t=Aria	!	!LO:TX:b:rj:t=Aria	!
!LO:TX:t=P:problem:kolejność znaków E- A- BB- 	!	!	!	!LO:TX:a:t=adagisſimo	!	!LO:TX:b:rj:t=Aria	!	!LO:TX:b:t=No 4.:color=grey	!LO:TX:b:t=No 4.:color=grey	!LO:TX:a:t=NO 4.:color=grey	!LO:TX:t=No 4.:color=grey	!	!	!LO:TX:a:t=adagiosiſsime	!	!LO:TX:a:t=adagiſsimo	!LO:DY:rj	!LO:TX:a:t=adagioſsime	!LO:DY:rj	!LO:TX:a:t=Adagioſsime	!
!LO:TX:a:rj:t=No 4.:color=grey	!	!	!	!LO:TX:a:t=4.:color=grey	!	!LO:TX:a:rj:t=No 4.:color=grey	!	!	!	!	!	!	!	!	!	!	!	!	!	!	!
4r	.	8E-/L	.	4r	.	(8G/L	.	4ryy	4ryy	4ryy	4r	.	.	4r	p	4r	p	8e-/L	p	8g/L	p
.	.	8F/J	.	.	.	8B-/J)	.	.	.	.	.	.	.	.	.	.	.	8f/J	.	8a-/J	.
=1	=1	=1	=1	=1	=1	=1	=1	=1	=1	=1	=1	=1	=1	=1	=1	=1	=1	=1	=1	=1	=1
!	!	!	!	!	!	!	!	!	!	!	!	!	!	!	!	!	!	!	!	!LO:TX:a:t=Dolce	!
4.E-\	p	4.G/	.	1r	.	4.B-/	.	1ryy	1ryy	1ryy	00r	.	.	4.E-/	.	4.e-\	.	4.g/	.	4.b-/	.
8E-\	.	16E-/LL	.	.	.	(16G/LL	.	.	.	.	.	.	.	8E-/	.	8e-\	.	16e-/LL	.	16g/LL	.
.	.	16F/JJ	.	.	.	16A-/JJ)	.	.	.	.	.	.	.	.	.	.	.	16f/JJ	.	16a-/JJ	.
4E-\	.	4G/	.	.	.	4B-/	.	.	.	.	.	.	.	4E-/	.	4e-\	.	4g/	.	4b-/	.
4E-\	.	4G/	.	.	.	4B-/	.	.	.	.	.	.	.	4E-/	.	4e-\	.	4g/	.	4b-/	.
=2	=2	=2	=2	=2	=2	=2	=2	=2	=2	=2	=2	=2	=2	=2	=2	=2	=2	=2	=2	=2	=2
*	*	*	*	*	*	*	*	*	*	*	*	*	*	*	*	*2\right	*	*	*	*	*
4A-\	.	4.E-/	.	4.A-/	.	4.c/	.	1ryy	1ryy	1ryy	.	.	.	2E-/	.	2e-\	.	4.a-/	.	4.cc\	.
4r	.	.	.	.	.	.	.	.	.	.	.	.	.	.	.	.	.	.	.	.	.
.	.	8E-/	.	8B-/	.	8d/	.	.	.	.	.	.	.	.	.	.	.	8b-/	.	8dd\	.
.	.	.	.	8qqd/	.	8qqf/	.	.	.	.	.	.	.	.	.	.	.	8qqdd/	.	8qqff/	.
4r	.	4E-/	.	4c/	.	(4e-/	.	.	.	.	.	.	.	2r	.	2r	.	4cc\	.	4ee-\	.
4A-\	.	4E-/	.	8B-/L	.	8d/L	.	.	.	.	.	.	.	.	.	.	.	8b-\L	.	8dd\L	.
.	.	.	.	8A-/J	.	8c/J)	.	.	.	.	.	.	.	.	.	.	.	8a-\J	.	8cc\J	.
=3	=3	=3	=3	=3	=3	=3	=3	=3	=3	=3	=3	=3	=3	=3	=3	=3	=3	=3	=3	=3	=3
*	*	*	*	*^	*	*^	*	*	*	*	*	*	*	*	*	*	*	*	*	*	*
4A-\	.	4E-/	.	4A-/	2rAyy	.	4c/	2rAyy	.	1ryy	1ryy	1ryy	.	.	.	4E-/	.	4e-\	.	4a-/	.	4cc\	.
4E-\	.	4e-\	.	4G/	.	.	4B-/	.	.	.	.	.	.	.	.	4E-/	.	4e-\	.	4g/	.	4b-\	.
!	!	!	!	!LO:TX:b:t=corni Solo	!	!	!LO:TX:b:t=Corni Soli	!	!	!	!	!	!	!	!	!	!	!LO:TX:b:t=Soli	!	!	!	!	!
2r	.	2r	.	2r	8r	.	2rdd	8r	.	.	.	.	.	.	.	8r	.	8r	.	2r	.	2r	.
*	*	*	*	*	*cue	*	*	*cue	*	*	*	*	*	*	*	*	*	*	*	*	*	*	*
!	!	!	!	!	!	!	!	!	!	!	!	!	!	!	!	!LO:TX:a:t=Solo	!	!	!	!	!	!	!
.	.	.	.	.	8g\L	.	.	8b-\L	.	.	.	.	.	.	.	8g\L	f	8b-\L	.	.	.	.	.
.	.	.	.	.	8g\	.	.	8b-\	.	.	.	.	.	.	.	8g\	.	8b-\	.	.	.	.	.
.	.	.	.	.	8g\J	.	.	8b-\J	.	.	.	.	.	.	.	8g\J	.	8b-\J	.	.	.	.	.
=4	=4	=4	=4	=4	=4	=4	=4	=4	=4	=4	=4	=4	=4	=4	=4	=4	=4	=4	=4	=4	=4	=4	=4
*2\right	*	*	*	*	*	*	*	*	*	*	*	*	*	*	*	*	*	*	*	*	*	*	*
!	!	!	!	!	!	!	!LO:TX:a:t=1	!	!	!	!	!	!	!	!	!	!	!	!	!LO:TX:a:t=1	!	!LO:TX:a:t=1	!
2E-\	p	2B-/	p	1r	4.g\	.	1r	4.b-\	.	1ryy	1ryy	1ryy	.	.	.	4.g\	.	4.b-\	f	1r	.	1r	.
.	.	.	.	.	8e-\	.	.	8g\	.	.	.	.	.	.	.	8e-\	.	8g\	.	.	.	.	.
4r	.	4B-/	.	.	8g\L	.	.	8b-\L	.	.	.	.	.	.	.	8g\L	.	8b-\L	.	.	.	.	.
.	.	.	.	.	8f\	.	.	8a-\	.	.	.	.	.	.	.	8f\	.	8a-\	.	.	.	.	.
4BB-/	.	4A-/	.	.	8e-\	.	.	8g\	.	.	.	.	.	.	.	8e-\	.	8g\	.	.	.	.	.
.	.	.	.	.	8B-\J	.	.	8f\J	.	.	.	.	.	.	.	8B-\J	.	8f\J	.	.	.	.	.
=5	=5	=5	=5	=5	=5	=5	=5	=5	=5	=5	=5	=5	=5	=5	=5	=5	=5	=5	=5	=5	=5	=5	=5
2BB-/	.	2A-/	.	1r	2B-\	.	2rdd	2f/	.	1ryy	1ryy	1ryy	00r	.	.	2B-/	.	2f\	.	2r	.	2r	.
4E-\	.	4B-/	.	.	4G\	.	4rdd	4e-/	.	.	.	.	.	.	.	4G/	.	4e-\	.	4r	.	4r	.
*	*	*	*	*	*Xcue	*	*	*Xcue	*	*	*	*	*	*	*	*	*	*	*	*	*	*	*
!	!	!	!LO:DY:rj	!	!	!	!LO:TX:a:t=Dolce	!	!	!	!	!	!	!	!	!	!	!	!	!	!	!	!
4r	.	8E-/L	f	.	4r	.	8G/L	4ryy	.	.	.	.	.	.	.	4r	.	4r	.	8e-/L	p	8g/L	.
.	.	8F/J	.	.	.	.	8A-/J	.	.	.	.	.	.	.	.	.	.	.	.	8f/J	.	8a-/J	.
*	*	*	*	*v	*v	*	*	*	*	*	*	*	*	*	*	*	*	*	*	*	*	*	*
*	*	*	*	*	*	*v	*v	*	*	*	*	*	*	*	*	*	*	*	*	*	*	*
=6	=6	=6	=6	=6	=6	=6	=6	=6	=6	=6	=6	=6	=6	=6	=6	=6	=6	=6	=6	=6	=6
!	!	!	!	!	!	!	!	!	!	!	!	!	!	!	!LO:DY:rj	!	!LO:DY:rj	!LO:TX:b:t=Dolce	!	!	!
4.E-\	f	4.G/	.	1r	.	4.B-/	.	1ryy	1ryy	1ryy	.	.	.	4.E-/	p	4.e-\	p	4.gt/	p	4.b-/	p
8E-\	.	16E-/LL	.	.	.	16G/LL	.	.	.	.	.	.	.	8E-/	.	8e-\	.	16e-/LL	.	(16g/LL	.
.	.	16F/JJ	.	.	.	16A-/JJ	.	.	.	.	.	.	.	.	.	.	.	16f/JJ	.	16a-/JJ)	.
4E-\	.	4G/	.	.	.	4B-/	.	.	.	.	.	.	.	4E-/	.	4e-\	.	4g/	.	4b-/	.
4E-\	.	4G/	.	.	.	4B-/	.	.	.	.	.	.	.	4E-/	.	4e-\	.	4g/	.	4b-/	.
=7	=7	=7	=7	=7	=7	=7	=7	=7	=7	=7	=7	=7	=7	=7	=7	=7	=7	=7	=7	=7	=7
4A-\	.	4.E-/	.	4.A-/	.	4.c/	.	1ryy	1ryy	1ryy	.	.	.	2E-/	.	2e-\	.	4.a-/	.	4.cc\	.
4r	.	.	.	.	.	.	.	.	.	.	.	.	.	.	.	.	.	.	.	.	.
.	.	8E-/	.	8B-/	.	8d/	.	.	.	.	.	.	.	.	.	.	.	8b-\/	.	8dd\	.
!	!	!	!	!	!	!LO:LB:g=original	!	!	!	!	!	!	!	!	!	!	!	!	!	!	!
.	.	.	.	8qqd/	.	8qqf/	.	.	.	.	.	.	.	.	.	.	.	8qqdd/	.	8qqff/	.
4r	.	4E-/	.	4c/	.	4e-/	.	.	.	.	.	.	.	2r	.	2r	.	4cc\	.	4ee-\	.
4A-\	.	4E-/	.	8B-/L	.	8d/L	.	.	.	.	.	.	.	.	.	.	.	8b-\L	.	8dd\L	.
.	.	.	.	8A-/J	.	8c/J	.	.	.	.	.	.	.	.	.	.	.	8a-\J	.	8cc\J	.
=8	=8	=8	=8	=8	=8	=8	=8	=8	=8	=8	=8	=8	=8	=8	=8	=8	=8	=8	=8	=8	=8
*	*	*	*	*^	*	*^	*	*	*	*	*	*	*	*	*	*	*	*	*	*	*
!	!	!	!	!	!	!	!	!	!	!	!	!	!	!	!	!LO:TX:t=P:problem:niewidoczny początek taktu	!	!	!	!	!	!	!
4A-\	.	4E-/	.	4A-/	2rAyy	.	4c/	2rAyy	.	1ryy	1ryy	1ryy	.	.	.	4ryy	.	4e-\	.	4a-/	.	4cc\	.
4E-\	.	4e-\	.	4G/	.	.	4B-/	.	.	.	.	.	.	.	.	4E-/	.	4b-\	.	4g/	.	4b-\	.
!	!	!	!	!LO:TX:b:t=corni	!	!	!LO:TX:b:t=Corni	!	!	!	!	!	!	!	!	!LO:LB:g=original	!	!	!	!	!	!	!
2r	.	2r	.	2r	8r	.	2rdd	8r	.	.	.	.	.	.	.	8r	.	8r	.	2r	.	2r	.
*	*	*	*	*	*cue	*	*	*cue	*	*	*	*	*	*	*	*	*	*	*	*	*	*	*
!	!	!	!	!	!	!	!	!	!	!	!	!	!	!	!	!LO:TX:a:t=Solo	!	!	!	!	!	!	!
.	.	.	.	.	8g\L	.	.	8b-\L	.	.	.	.	.	.	.	8g\L	.	8b-\L	.	.	.	.	.
.	.	.	.	.	8g\	.	.	8b-\	.	.	.	.	.	.	.	8g\	.	8b-\	.	.	.	.	.
.	.	.	.	.	8g\J	.	.	8b-\J	.	.	.	.	.	.	.	8g\J	.	8b-\J	.	.	.	.	.
=9	=9	=9	=9	=9	=9	=9	=9	=9	=9	=9	=9	=9	=9	=9	=9	=9	=9	=9	=9	=9	=9	=9	=9
2BB-/	p	2B-/	p	2r	4.f\	.	2r	4.a-\	.	1ryy	1ryy	1ryy	00r	.	.	4.f\	.	4.a-\	.	2r	.	2r	.
.	.	.	.	.	8d\	.	.	8f\	.	.	.	.	.	.	.	8B-/	.	8f\	.	.	.	.	.
4E-\	f	4B-/	.	4r	8f\L	.	4r	(>8a-\L	.	.	.	.	.	.	.	8f\L	.	8a-\L	.	4r	.	4r	.
.	.	.	.	.	8e-\	.	.	8g\)	.	.	.	.	.	.	.	8e-\	.	8g\	.	.	.	.	.
4G\	.	4B-/	.	8r	8g\	.	8r	8b-\	.	.	.	.	.	.	.	8g\	.	8b-\	.	8r	.	8r	.
!	!	!	!	!	!	!	!	!	!LO:DY:a:t=f&colon;	!	!	!	!	!	!	!	!	!	!	!LO:LB:g=original	!	!LO:LB:g=original	!
.	.	.	.	8e-/	8e-\J	.	8g/	8g\J	f	.	.	.	.	.	.	8e-\J	.	8g\J	.	8ee-\	.	8gg\	f
*	*	*	*	*	*Xcue	*	*	*Xcue	*	*	*	*	*	*	*	*	*	*	*	*	*	*	*
*	*	*	*	*v	*v	*	*	*	*	*	*	*	*	*	*	*	*	*	*	*	*	*	*
*	*	*	*	*	*	*v	*v	*	*	*	*	*	*	*	*	*	*	*	*	*	*	*
!	!	!LO:LB:g=original	!	!	!	!	!	!	!	!	!	!	!	!	!	!	!	!	!	!	!
=10	=10	=10	=10	=10	=10	=10	=10	=10	=10	=10	=10	=10	=10	=10	=10	=10	=10	=10	=10	=10	=10
.	.	.	.	.	.	8qqa-/	.	.	.	.	.	.	.	.	.	.	.	.	.	.	.
4B-\	.	4B-/	f	4e-/	.	4g/	.	1ryy	1ryy	1ryy	.	.	.	4e-\	.	4g\	.	4ee-\	.	4gg\	.
4BB-/	.	4B-/	.	4d/	.	4f/	.	.	.	.	.	.	.	4B-/	.	4f\	.	4dd\	.	4ff\	.
!	!	!	!	!LO:LB:g=original	!	!	!	!	!	!	!	!	!	!	!	!LO:LB:g=original	!	!	!	!	!
2r	.	2r	.	4r	.	4r	.	.	.	.	.	.	.	2r	.	2r	.	4r	.	4r	.
.	.	.	.	8d/L	.	8f/L	.	.	.	.	.	.	.	.	.	.	.	8dd\L	.	8ff\L	.
.	.	.	.	8e-/J	.	8g/J	.	.	.	.	.	.	.	.	.	.	.	8ee-\J	.	8gg\J	.
!LO:LB:g=original	!	!	!	!	!	!	!	!	!	!	!	!	!	!	!	!	!	!	!	!	!
=11	=11	=11	=11	=11	=11	=11	=11	=11	=11	=11	=11	=11	=11	=11	=11	=11	=11	=11	=11	=11	=11
8BB-/L	f	8d\L	f	8f/L	f	8a-/L	.	1ryy	1ryy	1ryy	.	.	.	1B-	f	1f	f	8ff\L	.	8aa-\L	.
8BB-/	.	8d\	.	8f/	.	8a-/J	.	.	.	.	.	.	.	.	.	.	.	8ff\J	.	8aa-\J	.
8BB-/	p	8d\	p	8f/	p	8r	.	.	.	.	.	.	.	.	p	.	p	4r	.	4r	.
!	!	!	!	!	!	!	!LO:DY:a:t=p&colon;	!	!	!	!	!	!	!	!	!	!	!	!	!	!
8BB-/J	.	8d\J	.	8f/J	.	8f/	p	.	.	.	.	.	.	.	.	.	.	.	.	.	.
8D/L	.	8B-\L	.	8f/L	.	8r	.	.	.	.	.	.	.	.	.	.	.	2r	.	2r	.
8D/	.	8B-\	.	8f/	.	8ff\	.	.	.	.	.	.	.	.	.	.	.	.	.	.	.
8BB-/	.	8d\	.	8f/	.	8r	.	.	.	.	.	.	.	.	.	.	.	.	.	.	.
8BB-/J	.	8d\J	.	8f/J	.	8a-/	.	.	.	.	.	.	.	.	.	.	.	.	.	.	.
=12	=12	=12	=12	=12	=12	=12	=12	=12	=12	=12	=12	=12	=12	=12	=12	=12	=12	=12	=12	=12	=12
*tremolo	*	*	*	*	*	*	*	*	*	*	*	*	*	*	*	*	*	*	*	*	*
!	!	!	!	!	!	!	!LO:DY:a:t=f&colon;	!	!	!	!	!	!	!	!	!	!	!	!	!	!
8BB-/L	f	8e-\L	f	8g/L	f	8b-\L	f	1ryy	1ryy	1ryy	.	.	.	1e-	f	1g	f	8gg\L	.	8bb-\L	.
8BB-/	.	8e-\	.	8g/	.	8b-\J	.	.	.	.	.	.	.	.	.	.	.	8gg\J	.	8bb-\J	.
8BB-/	p	8e-\	p	8g/	p	8r	.	.	.	.	.	.	.	.	.	.	.	4r	.	4r	.
!	!	!	!	!	!	!	!LO:DY:a:t=p&colon;	!	!	!	!	!	!	!	!	!	!	!	!	!	!
8BB-/J	.	8e-\J	.	8g/J	.	8g/	p	.	.	.	.	.	.	.	p	.	p	.	.	.	.
*	*	*2\right	*	*	*	*	*	*	*	*	*	*	*	*	*	*	*	*	*	*	*
*	*	*tremolo	*	*tremolo	*	*	*	*	*	*	*	*	*	*	*	*	*	*	*	*	*
8BB-/L	.	8e-\L	.	8g/L	.	8r	.	.	.	.	.	.	.	.	.	.	.	2r	.	2r	.
8BB-/	.	8e-\	.	8g/	.	8gg\	.	.	.	.	.	.	.	.	.	.	.	.	.	.	.
8BB-/	.	8e-\	.	8g/	.	8r	.	.	.	.	.	.	.	.	.	.	.	.	.	.	.
!	!	!	!	!	!	!	!LO:DY:a:t=f&colon;	!	!	!	!	!	!	!	!	!	!	!	!	!	!
8BB-/J	.	8e-\J	.	8g/J	.	8b-\	f	.	.	.	.	.	.	.	.	.	.	.	.	.	.
*	*	*Xtremolo	*	*Xtremolo	*	*	*	*	*	*	*	*	*	*	*	*	*	*	*	*	*
=13	=13	=13	=13	=13	=13	=13	=13	=13	=13	=13	=13	=13	=13	=13	=13	=13	=13	=13	=13	=13	=13
8BB-/L	f	8d\L	f	8f/L	f	8a-/L	.	1ryy	1ryy	1ryy	00r	.	.	1B-	f	1f	f	8ff\L	.	8aa-\L	.
8BB-/	.	8d\	.	8f/	.	8a-/J	.	.	.	.	.	.	.	.	.	.	.	8ff\J	.	8aa-\J	.
8BB-/	.	8d\	p	8f/	p	8r	.	.	.	.	.	.	.	.	.	.	.	4r	.	4r	.
!	!	!	!	!	!	!	!LO:DY:a:t=p&colon;	!	!	!	!	!	!	!	!	!	!	!	!	!	!
8BB-/J	p	8d\J	.	8f/J	.	8f/	p	.	.	.	.	.	.	.	p	.	p	.	.	.	.
*Xtremolo	*	*	*	*tremolo	*	*	*	*	*	*	*	*	*	*	*	*	*	*	*	*	*
8D/L	.	8B-\L	.	8f/L	.	8r	.	.	.	.	.	.	.	.	.	.	.	2r	.	2r	.
8D/	.	8B-\	.	8f/	.	8ff\	.	.	.	.	.	.	.	.	.	.	.	.	.	.	.
8BB-/	.	8d\	.	8f/	.	8r	.	.	.	.	.	.	.	.	.	.	.	.	.	.	.
!	!	!	!	!	!	!	!LO:DY:a:t=f&colon;	!	!	!	!	!	!	!	!	!	!	!	!	!	!
8BB-/J	.	8d\J	.	8f/J	.	8a-/	f	.	.	.	.	.	.	.	.	.	.	.	.	.	.
=14	=14	=14	=14	=14	=14	=14	=14	=14	=14	=14	=14	=14	=14	=14	=14	=14	=14	=14	=14	=14	=14
*tremolo	*	*tremolo	*	*	*	*	*	*	*	*	*	*	*	*	*	*	*	*	*	*	*
8BB-/L	f	8e-\L	f	8g/L	f	8b-/L	.	1ryy	1ryy	1ryy	.	.	.	1e-	f	1g	f	8gg\L	.	8bb-\L	.
8BB-/	.	8e-\	.	8g/	.	8b-/J	.	.	.	.	.	.	.	.	.	.	.	8gg\J	.	8bb-\J	.
8BB-/	.	8e-\	.	8g/	.	8r	.	.	.	.	.	.	.	.	.	.	.	4r	.	4r	.
!	!	!	!	!	!	!	!LO:DY:a:t=p&colon;	!	!	!	!	!	!	!	!	!	!	!	!	!	!
8BB-/J	p	8e-\J	p	8g/J	p	8g/	p	.	.	.	.	.	.	.	p	.	p	.	.	.	.
8BB-/L	.	8e-\L	.	8g/L	.	8r	.	.	.	.	.	.	.	.	.	.	.	2r	.	2r	.
8BB-/	.	8e-\	.	8g/	.	8gg\	.	.	.	.	.	.	.	.	.	.	.	.	.	.	.
8BB-/	.	8e-\	.	8g/	.	8r	.	.	.	.	.	.	.	.	.	.	.	.	.	.	.
!	!	!	!	!	!	!LO:LB:g=original	!	!	!	!	!	!	!	!	!	!	!	!	!	!	!
!	!	!	!	!	!	!LO:TX:b:i:t=Dolce	!	!	!	!	!	!	!	!	!	!	!	!	!	!	!
8BB-/J	.	8e-\J	.	8g/J	.	8b-\	.	.	.	.	.	.	.	.	.	.	.	.	.	.	.
*Xtremolo	*	*Xtremolo	*	*Xtremolo	*	*	*	*	*	*	*	*	*	*	*	*	*	*	*	*	*
=15	=15	=15	=15	=15	=15	=15	=15	=15	=15	=15	=15	=15	=15	=15	=15	=15	=15	=15	=15	=15	=15
!	!	!LO:TX:a:t=Dolce	!	!	!	!	!LO:DY:a	!	!	!	!	!	!	!	!	!	!	!	!	!LO:TX:b:t=Dolce	!
4E-\	f	4e-\	.	8a-/L	f	(8cc\L	f	1ryy	1ryy	1ryy	.	.	.	4E-/	.	4e-\	f	8aa-\L	.	8ccc\L	f
.	.	.	.	8g/J	.	8b-\J)	.	.	.	.	.	.	.	.	.	.	.	8gg\J	.	8bb-\J	.
!	!	!	!	!	!LO:DY:rj	!	!LO:DY:a:t=p&colon;	!	!	!	!	!	!	!	!	!	!	!	!	!	!
4r	.	4r	.	4g/	p	4b-\	p	.	.	.	.	.	.	4r	.	4r	.	4gg\	.	4bb-\	p
!	!	!	!	!	!	!	!LO:DY:a	!	!	!	!	!	!	!	!	!	!	!	!	!	!
4B-\	f	4d\	.	8f/L	f	(8a-/L	f	.	.	.	.	.	.	4e-\	.	4b-\	.	8ff\L	.	8aa-\L	f
.	.	.	.	8e-/J	.	8g/J)	.	.	.	.	.	.	.	.	.	.	.	8ee-\J	.	8gg\J	.
!	!	!	!	!	!	!	!LO:DY:a:t=p&colon;	!	!	!	!	!	!	!	!	!	!	!	!	!	!
4E-\	p	4B-/	.	4e-/	p	4g/	p	.	.	.	.	.	.	4e-\	.	4b-\	.	4ee-\	.	4gg\	p
=16	=16	=16	=16	=16	=16	=16	=16	=16	=16	=16	=16	=16	=16	=16	=16	=16	=16	=16	=16	=16	=16
!	!	!	!	!	!	!	!	!	!	!	!	!	!	!	!LO:DY:rj	!	!	!	!	!	!
4A-\	.	4c/	.	4A-/	.	8g/L	.	1ryy	1ryy	1ryy	.	.	.	4B-/	p	4a-\	p	4a-/	.	8gg\L	.
.	.	.	.	.	.	8f/	.	.	.	.	.	.	.	.	.	.	.	.	.	8ff\	.
4F\	.	8A-/L	.	8c/L	.	8a-/	.	.	.	.	.	.	.	4r	.	4r	.	8cc/L	.	8aa-\	.
.	.	8c/J	.	8A-/J	.	8f/J	.	.	.	.	.	.	.	.	.	.	.	8a-/J	.	8ff\J	.
!	!	!	!	!	!	!	!LO:DY:a:t=f&colon;	!	!	!	!	!	!	!	!	!	!	!	!	!	!
4B-\	f	4B-/	f	4G/	.	4e-/	f	.	.	.	.	.	.	4e-\	.	4g\	.	4g/	.	4ee-\	f
4BB-/	.	4f\	.	4A-/	f	4d/	.	.	.	.	.	.	.	4B-/	f	4f\	f	4f/	.	4dd\	.
=17	=17	=17	=17	=17	=17	=17	=17	=17	=17	=17	=17	=17	=17	=17	=17	=17	=17	=17	=17	=17	=17
*	*	*	*	*	*	*	*	*	*	*	*	*	*	*	*	*	*	*	*	*2\right	*
2BB-/	.	2f\	.	2A-/	.	2d/	.	1ryy	1ryy	1ryy	00r	.	.	2B-/	.	2f\	.	2f/	.	2dd\	.
4E-\	.	4B-/	.	4G/	.	4e-/	.	.	.	.	.	.	.	4G/	.	4e-\	.	4g/	.	4ee-\	.
4r	.	4r	.	8r	p	8r	.	.	.	.	.	.	.	4r	.	4r	.	4r	.	4r	.
!	!	!	!	!	!	!	!LO:DY:a:t=p&colon;	!	!	!	!	!	!	!	!	!	!	!	!	!	!
.	.	.	.	8G/	.	8B-/	p	.	.	.	.	.	.	.	.	.	.	.	.	.	.
=18	=18	=18	=18	=18	=18	=18	=18	=18	=18	=18	=18	=18	=18	=18	=18	=18	=18	=18	=18	=18	=18
!	!	!	!LO:DY:rj	!	!	!	!	!	!	!	!	!	!	!	!LO:DY:rj	!	!LO:DY:rj	!	!	!	!
4E-\	p	8.C/L	p	8.A-/L	.	8.c/L	.	1ryy	1ryy	1ryy	.	.	.	8.E-/L	pp	8.E-/L	pp	2r	.	2r	.
.	.	16C/K	.	16A-/K	.	16c/Jk	.	.	.	.	.	.	.	16E-/Jk	.	16E-/K	.	.	.	.	.
4E-\	.	8.D/	.	8A-/	.	8.d/L	.	.	.	.	.	.	.	8E-/L	.	8E-/	.	.	.	.	.
.	.	.	.	8A-/J	.	.	.	.	.	.	.	.	.	8E-/J	.	8E-/J	.	.	.	.	.
.	.	16D/Jk	.	.	.	16d/Jk	.	.	.	.	.	.	.	.	.	.	.	.	.	.	.
4E-\	.	4E-/	.	4G/	.	4e-/	.	.	.	.	.	.	.	4E-/	.	4E-/	.	4r	.	4r	.
8r	.	4r	.	8r	.	8r	.	.	.	.	.	.	.	8r	.	8r	.	8r	.	8r	.
!	!	!	!	!LO:LB:g=original	!	!	!LO:DY:a:t=f&colon;	!	!	!	!	!	!	!	!	!	!	!	!	!	!
8A-\	.	.	.	8f/	.	8a-/	f	.	.	.	.	.	.	8f\	f	8a-\	f	8ff\	.	8aa-\	f
!	!	!	!	!	!	!	!	!	!	!	!	!	!	!LO:LB:g=original	!	!	!	!	!	!	!
=19	=19	=19	=19	=19	=19	=19	=19	=19	=19	=19	=19	=19	=19	=19	=19	=19	=19	=19	=19	=19	=19
4B-\	.	4b-\	f	8.e-/L	.	8.g/L	.	1ryy	1ryy	1ryy	.	.	.	4e-\	.	4g\	.	8.ee-\L	.	8.gg\L	.
.	.	.	.	16e-/K	.	16b-/K	.	.	.	.	.	.	.	.	.	.	.	16ee-\Jk	.	16bb-\K	.
!	!	!	!	!	!	!	!	!	!	!	!	!	!	!	!	!	!	!LO:LB:g=original	!	!	!
4BB-/	.	4b-\	.	8.B-/	.	8.d/	.	.	.	.	.	.	.	4B-/	.	4f\	.	8.b-\L	.	8.dd\	.
.	.	.	.	16B-/Jk	.	16f/Jk	.	.	.	.	.	.	.	.	.	.	.	16b-\Jk	.	16ff\Jk	.
!	!	!	!	!	!	!	!	!	!	!	!	!	!	!	!	!	!	!	!	!LO:LB:g=original	!
4E-\	.	4b-\	.	4G/	.	4e-/	.	.	.	.	.	.	.	4G/	.	4e-\	.	4g/	.	4ee-\	.
4r	.	4r	.	8r	.	8r	.	.	.	.	.	.	.	4r	.	4r	.	4r	.	4r	.
!	!	!	!	!	!	!	!LO:DY:a:t=p&colon;	!	!	!	!	!	!	!	!	!	!	!	!	!	!
.	.	.	.	8G/	.	8B-/	p	.	.	.	.	.	.	.	.	.	.	.	.	.	.
!	!	!LO:LB:g=original	!	!	!	!	!	!	!	!	!	!	!	!	!	!	!	!	!	!	!
=20	=20	=20	=20	=20	=20	=20	=20	=20	=20	=20	=20	=20	=20	=20	=20	=20	=20	=20	=20	=20	=20
!	!	!	!LO:DY:rj	!	!	!	!	!	!	!	!	!	!	!LO:TX:a:t=P:problem:tt. 21-22 zapisane repetycją dopisaną ołówkiem	!LO:DY:rj	!	!LO:DY:rj	!	!	!	!
4E-\	p	8.C/L	p	8.A-/L	.	8.c/L	.	1ryy	1ryy	1ryy	.	.	.	8.E-/Lyy	ppy	8.E-/L	pp	2r	.	2r	.
.	.	16C/K	.	16A-/K	.	16c/K	.	.	.	.	.	.	.	16E-/Jkyy	.	16E-/K	.	.	.	.	.
4E-\	.	8.D/	.	8A-/	.	8.d/	.	.	.	.	.	.	.	8E-/Lyy	.	8E-/	.	.	.	.	.
.	.	.	.	8A-/J	.	.	.	.	.	.	.	.	.	8E-/Jyy	.	8E-/J	.	.	.	.	.
.	.	16D/Jk	.	.	.	16d/Jk	.	.	.	.	.	.	.	.	.	.	.	.	.	.	.
4E-\	.	4E-/	.	4G/	.	4e-/	.	.	.	.	.	.	.	4E-/yy	.	4E-/	.	4r	.	4r	.
!	!	!	!	!	!	!	!LO:DY:a:t=f&colon;	!	!	!	!	!	!	!	!	!	!	!	!	!	!
8r	.	4r	.	8r	f	8r	f	.	.	.	.	.	.	8ryy	.	8r	.	8r	.	8r	.
8A-\	f	.	.	8f/	.	8a-/	.	.	.	.	.	.	.	8f\yy	fy	8a-\	f	8ff\	.	8aa-\	.
!LO:LB:g=original	!	!	!	!	!	!	!	!	!	!	!	!	!	!	!	!LO:LB:g=original	!	!	!	!	!
=21	=21	=21	=21	=21	=21	=21	=21	=21	=21	=21	=21	=21	=21	=21	=21	=21	=21	=21	=21	=21	=21
4B-\	.	4b-\	f	8.e-/L	.	8.g/L	.	1ryy	1ryy	1ryy	0r	.	.	4e-\yy	.	4g\	.	8.ee-\L	.	8.gg\L	.
.	.	.	.	16e-/K	.	16b-/K	.	.	.	.	.	.	.	.	.	.	.	16ee-\K	.	16bb-\K	.
4BB-/	.	4b-\	.	8.B-/	.	8.d/	.	.	.	.	.	.	.	4B-/yy	.	4f\	.	8.b-\	.	8.dd\	.
.	.	.	.	16B-/Jk	.	16f/Jk	.	.	.	.	.	.	.	.	.	.	.	16b-\Jk	.	16ff\Jk	.
4E-\	.	4b-\	.	4G/	.	4e-/	.	.	.	.	.	.	.	4G/yy	.	4e-\	.	4g/	.	4ee-\	.
4r	.	8r	.	8r	.	8r	.	.	.	.	.	.	.	4ryy	.	4r	.	8r	.	8r	.
.	.	8b-\	.	8G/	.	8e-/	.	.	.	.	.	.	.	.	.	.	.	8g/	.	8ee-\	.
!	!	!	!	!	!	!LO:LB:g=original	!	!	!	!	!	!	!	!	!	!	!	!	!	!	!
=22	=22	=22	=22	=22	=22	=22	=22	=22	=22	=22	=22	=22	=22	=22	=22	=22	=22	=22	=22	=22	=22
4.E-\	.	4.b-\	.	4.G/	.	4.e-/	.	1ryy	1ryy	1ryy	.	.	.	4.G/	.	4.e-\	.	4.g/	.	4.ee-\	.
8E-\	.	8b-\	.	8G/	.	8e-/	.	.	.	.	.	.	.	8G/	.	8e-\	.	8g/	.	8ee-\	.
4E-\	.	4B-/	.	4G/	.	4e-/	.	.	.	.	.	.	.	4G/	.	4e-\	.	4g/	.	4ee-\	.
4E-\	.	4B-/	.	4G/	.	4e-/	.	.	.	.	.	.	.	4G/	.	4e-\	.	4g/	.	4ee-\	.
=23	=23	=23	=23	=23	=23	=23	=23	=23	=23	=23	=23	=23	=23	=23	=23	=23	=23	=23	=23	=23	=23
2E-\	.	2B-/	.	2G/	.	2e-/	.	1ryy	1ryy	1ryy	2r	.	.	2G/	.	2e-\	.	2g/	.	2ee-\	.
!	!	!	!	!:	!LO:DY:b:t=p&colon;	!	!LO:DY:b:t=p&colon;	!	!	!	!	!	!	!	!	!	!	!	!	!	!
2r	.	2r	.	4r	p	4r	p	.	.	.	4r	.	.	2r	.	2r	.	2r	.	2r	.
!	!	!	!	!	!	!LO:TX:a:t=Dolce	!	!	!	!	!	!	!	!	!	!	!	!	!	!	!
.	.	.	.	8e-/L	.	8G/L	.	.	.	.	8g\L	Sa-	In	.	.	.	.	.	.	.	.
.	.	.	.	8f/J	.	8A-/J	.	.	.	.	8a-\J	.	te	.	.	.	.	.	.	.	.
=24	=24	=24	=24	=24	=24	=24	=24	=24	=24	=24	=24	=24	=24	=24	=24	=24	=24	=24	=24	=24	=24
!	!	!	!	!LO:TX:b::t=Dolce	!	!	!	!	!	!	!	!	!	!LO:TX:a:t=2	!	!LO:TX:a:t=2	!	!LO:TX:a:t=2	!	!LO:TX:a:t=2	!
4.E-\	pp	4.e-\	pp	4.g/	.	4.B-/	.	1ryy	1ryy	1ryy	4.b-\	.	Do-	0r	.	0r	.	0r	.	0r	.
8E-\	.	8e-\	.	16e-/LL	.	16G/LL	.	.	.	.	16g\LL	.	-mi-	.	.	.	.	.	.	.	.
.	.	.	.	16f/JJ	.	16A-/JJ	.	.	.	.	16a-\JJ	.	.	.	.	.	.	.	.	.	.
4E-\	.	4e-\	.	4g/	.	4B-/	.	.	.	.	4b-\	.	-ne	.	.	.	.	.	.	.	.
4E-\	.	4e-\	.	4g/	.	4B-/	.	.	.	.	4b-\	-cri-	Spe-	.	.	.	.	.	.	.	.
=25	=25	=25	=25	=25	=25	=25	=25	=25	=25	=25	=25	=25	=25	=25	=25	=25	=25	=25	=25	=25	=25
4A-\	.	2e-\	.	4.a-/	.	4.c/	.	1ryy	1ryy	1ryy	4.cc\	-fi-	-ra-	.	.	.	.	.	.	.	.
4r	.	.	.	.	.	.	.	.	.	.	.	.	.	.	.	.	.	.	.	.	.
.	.	.	.	8b-\	.	8d/	.	.	.	.	8dd\	.	.	.	.	.	.	.	.	.	.
.	.	.	.	.	.	8qqf/	.	.	.	.	8qqff/	.	.	.	.	.	.	.	.	.	.
4r	.	4e-\	.	4cc\	.	4e-/	.	.	.	.	4ee-\	-ci-	-vi	.	.	.	.	.	.	.	.
4A-\	.	4e-\	.	8b-\L	.	8d/L	.	.	.	.	8dd\L	-um	Spe-	.	.	.	.	.	.	.	.
.	.	.	.	8a-\J	.	8c/J	.	.	.	.	8cc\J	.	.	.	.	.	.	.	.	.	.
=26	=26	=26	=26	=26	=26	=26	=26	=26	=26	=26	=26	=26	=26	=26	=26	=26	=26	=26	=26	=26	=26
*	*	*	*	*^	*	*^	*	*	*	*	*	*	*	*	*	*	*	*	*	*	*
4E-\	.	4e-\	.	4a-/	2rAyy	.	4c/	2rAyy	.	1ryy	1ryy	1ryy	4cc\	De-	-ra-	2r	.	2r	.	2r	.	2r	.
4E-\	.	4e-\	.	4g/	.	.	4B-/	.	.	.	.	.	4b-\	-o	-vi	.	.	.	.	.	.	.	.
!	!	!	!	!LO:TX:a:t=Corni Solo	!	!	!LO:TX:b:t=Corni	!	!	!	!	!	!	!	!	!	!	!	!	!	!	!	!
2r	.	2r	.	2r	8r	.	2r	8rdd	.	.	.	.	2r	.	.	8r	.	8r	.	8r	.	8r	pp
*	*	*	*	*	*cue	*	*	*cue	*	*	*	*	*	*	*	*	*	*	*	*	*	*	*
!	!	!	!	!	!	!	!	!	!	!	!	!	!	!	!	!LO:TX:a:t=Solo	!	!	!	!	!LO:DY:t=pp&colon;	!	!
.	.	.	.	.	8g\L	.	.	8b-\L	.	.	.	.	.	.	.	8g\L	.	8b-\L	.	8gg\L	pp	8bb-\L	.
.	.	.	.	.	8g\	.	.	8b-\	.	.	.	.	.	.	.	8g\	.	8b-\	.	8gg\	.	8bb-\	.
.	.	.	.	.	8g\J	.	.	8b-\J	.	.	.	.	.	.	.	8g\J	.	8b-\J	.	8gg\J	.	8bb-\J	.
!	!	!	!	!	!LO:LB:g=original	!	!	!	!	!	!	!	!	!	!	!	!	!	!	!	!	!	!
=27	=27	=27	=27	=27	=27	=27	=27	=27	=27	=27	=27	=27	=27	=27	=27	=27	=27	=27	=27	=27	=27	=27	=27
!	!	!	!	!	!	!	!LO:TX:a:t=1	!	!	!	!	!	!	!	!	!	!	!	!	!	!	!	!
4E-\	.	2B-/	p	1r	4.g\	.	1r	4.b-\	.	1ryy	1ryy	1ryy	1r	.	.	4.g\	.	4.b-\	.	4.gg\	.	4.bb-\	.
4r	.	.	.	.	.	.	.	.	.	.	.	.	.	.	.	.	.	.	.	.	.	.	.
.	.	.	.	.	8e-\	.	.	8g\	.	.	.	.	.	.	.	8e-\	.	8g\	.	8ee-\	.	8gg\	.
!	!	!	!	!	!	!	!	!	!	!	!	!	!	!	!	!	!	!	!	!LO:TX:t=P:problem:mixed beam	!	!	!
4r	.	4B-/	.	.	8g\L	.	.	8b-\L	.	.	.	.	.	.	.	8g\L	.	8b-\L	.	(8gg\L	.	8bb-\L	.
.	.	.	.	.	8f\	.	.	8a-\	.	.	.	.	.	.	.	8f\	.	8a-\	.	8ff\	.	(8aa-\	.
4BB-/	.	4A-/	.	.	8e-\	.	.	8g\	.	.	.	.	.	.	.	8e-\	.	8g\	.	8ee-\)	.	8gg\	.
.	.	.	.	.	8B-\J	.	.	8f\J	.	.	.	.	.	.	.	8B-\J	.	8f\J	.	8a-/J	.	8ff\J)	.
=28	=28	=28	=28	=28	=28	=28	=28	=28	=28	=28	=28	=28	=28	=28	=28	=28	=28	=28	=28	=28	=28	=28	=28
2BB-/	.	2A-/	.	2rdd	2B-\	.	2rdd	2f/	.	1ryy	1ryy	1ryy	2r	.	.	2B-/	.	2f\	.	2a-/	.	2ff\	.
4E-\	.	4B-/	.	4rdd	4G\	.	4rdd	4e-/	.	.	.	.	4r	.	.	4G/	.	4e-\	.	4g/	.	4ee-\	.
*	*	*	*	*	*Xcue	*	*	*Xcue	*	*	*	*	*	*	*	*	*	*	*	*	*	*	*
!	!	!	!	!	!	!LO:DY:rj	!	!	!	!	!	!	!	!	!	!	!	!	!	!	!	!	!
4r	.	4r	.	8G/L	4ryy	p	8e-/L	4rcyy	.	.	.	.	8g\L	Sa-	in	4r	.	4r	.	4r	.	4r	.
.	.	.	.	8A-/J	.	.	8f/J	.	.	.	.	.	8a-\J	.	te	.	.	.	.	.	.	.	.
*	*	*	*	*v	*v	*	*	*	*	*	*	*	*	*	*	*	*	*	*	*	*	*	*
*	*	*	*	*	*	*v	*v	*	*	*	*	*	*	*	*	*	*	*	*	*	*	*
=29	=29	=29	=29	=29	=29	=29	=29	=29	=29	=29	=29	=29	=29	=29	=29	=29	=29	=29	=29	=29	=29
!	!	!	!	!	!	!	!	!	!	!	!	!	!	!LO:TX:a:t=2	!	!LO:TX:a:t=2	!	!LO:TX:a:t=2	!	!LO:TX:a:t=2	!
4.E-\	.	4.e-\	.	4.B-/	.	4.g/	.	1ryy	1ryy	1ryy	4.b-\	.	Do-	0r	.	0r	.	0r	.	0r	.
!	!	!	!	!LO:N:vis=16	!	!	!	!	!	!	!	!	!	!	!	!	!	!	!	!	!
8E-\	.	8e-\	.	16G/LL	.	16e-/LL	.	.	.	.	16g\LL	.	-mi-	.	.	.	.	.	.	.	.
!	!	!	!	!LO:N:vis=16	!	!	!	!	!	!	!	!	!	!	!	!	!	!	!	!	!
.	.	.	.	16A-/JJ	.	16f/JJ	.	.	.	.	16a-\JJ	.	.	.	.	.	.	.	.	.	.
!	!	!	!	!	!	!	!	!	!	!	!LO:LB:g=original	!	!	!	!	!	!	!	!	!	!
4E-\	.	4e-\	.	4B-/	.	4g/	.	.	.	.	4b-\	.	-ne	.	.	.	.	.	.	.	.
4E-\	.	4e-\	.	4B-/	.	4g/	.	.	.	.	4b-\	-cri-	Spe-	.	.	.	.	.	.	.	.
=30	=30	=30	=30	=30	=30	=30	=30	=30	=30	=30	=30	=30	=30	=30	=30	=30	=30	=30	=30	=30	=30
4A-\	.	2e-\	.	4.c/	.	4.a-/	.	1ryy	1ryy	1ryy	4.cc\	-fi-	-ra-	.	.	.	.	.	.	.	.
4r	.	.	.	.	.	.	.	.	.	.	.	.	.	.	.	.	.	.	.	.	.
.	.	.	.	8d/	.	8b-/	.	.	.	.	8dd\	.	.	.	.	.	.	.	.	.	.
.	.	.	.	8qqf/	.	8qqdd/	.	.	.	.	8qqff/	.	.	.	.	.	.	.	.	.	.
4r	.	4e-\	.	4e-/	.	4cc\	.	.	.	.	4ee-\	-ci-	-vi	.	.	.	.	.	.	.	.
4A-\	.	4e-\	.	8d/L	.	8b-\L	.	.	.	.	8dd\	-um	Spe-	.	.	.	.	.	.	.	.
.	.	.	.	8c/J	.	8a-\J	.	.	.	.	8cc\	.	.	.	.	.	.	.	.	.	.
!	!	!LO:LB:g=original	!	!	!	!LO:LB:g=original	!	!	!	!	!	!	!	!	!	!	!	!	!	!	!
=31	=31	=31	=31	=31	=31	=31	=31	=31	=31	=31	=31	=31	=31	=31	=31	=31	=31	=31	=31	=31	=31
*	*	*	*	*^	*	*^	*	*	*	*	*	*	*	*	*	*	*	*	*	*	*
4A-\	.	4e-\	.	4c/	2rAyy	.	4a-/	2rAyy	.	1ryy	1ryy	1ryy	4cc\	De-	-ra-	2r	.	2r	.	2r	.	2r	.
4E-\	.	4e-\	.	4B-/	.	.	4g/	.	.	.	.	.	4b-\	-o	-vi	.	.	.	.	.	.	.	.
!	!	!	!	!LO:TX:b:t=Corni	!	!	!	!	!	!	!	!	!	!	!	!	!	!LO:TX:b:t=Solo	!	!	!	!	!
2r	.	2r	.	2r	8r	.	2rdd	8r	.	.	.	.	2r	.	.	8r	.	8r	.	8r	.	8r	.
*	*	*	*	*	*cue	*	*	*cue	*	*	*	*	*	*	*	*	*	*	*	*	*	*	*
.	.	.	.	.	8g\L	.	.	8b-\L	.	.	.	.	.	.	.	8g\L	.	8b-\L	.	8gg\L	pp	8bb-\L	pp
.	.	.	.	.	8g\	.	.	8b-\	.	.	.	.	.	.	.	8g\	.	8b-\	.	8gg\	.	8bb-\	.
.	.	.	.	.	8g\J	.	.	8b-\J	.	.	.	.	.	.	.	8g\J	.	8b-\J	.	8gg\J	.	8bb-\J	.
!	!	!	!	!	!	!	!	!	!	!	!	!	!	!	!	!	!	!	!	!LO:LB:g=original	!	!	!
=32	=32	=32	=32	=32	=32	=32	=32	=32	=32	=32	=32	=32	=32	=32	=32	=32	=32	=32	=32	=32	=32	=32	=32
2BB-/	.	2B-/	pp	2r	4.f\	.	2r	4.a-\	.	1ryy	1ryy	1ryy	2r	.	.	4.f\	.	4.a-\	.	4.ff\	.	4.aa-\	.
.	.	.	.	.	8B-\	.	.	8f\	.	.	.	.	.	.	.	8B-/	.	8f\	.	8dd\	.	8gg\	.
!	!	!	!	!	!	!	!	!	!	!	!	!	!	!	!	!	!	!	!	!	!	!LO:LB:g=original	!
4E-\	.	4B-/	.	4r	8f\L	.	4r	8a-\L	.	.	.	.	4r	.	.	8f\L	.	8a-\L	.	8ff\L	.	(8aa-\L	.
.	.	.	.	.	8e-\	.	.	8g\	.	.	.	.	.	.	.	8e-\	.	8g\	.	8ee-\	.	8gg\)	.
4G\	.	4B-/	.	8r	8g\	.	8r	8b-\	.	.	.	.	8r	.	.	8g\	.	8b-\	.	8gg\	.	(8bb-\	.
!	!	!	!	!	!	!LO:DY:a	!	!	!	!	!	!	!	!	!	!	!	!	!	!	!	!	!
.	.	.	.	8e-/	8e-\J	f	8g/	8g\J	.	.	.	.	[8g\L	Spi-	Spe-	8e-\J	.	8g\J	.	8ee-\J	.	8gg\J)	.
*	*	*	*	*	*Xcue	*	*	*Xcue	*	*	*	*	*	*	*	*	*	*	*	*	*	*	*
*	*	*	*	*v	*v	*	*	*	*	*	*	*	*	*	*	*	*	*	*	*	*	*	*
*	*	*	*	*	*	*v	*v	*	*	*	*	*	*	*	*	*	*	*	*	*	*	*
=33	=33	=33	=33	=33	=33	=33	=33	=33	=33	=33	=33	=33	=33	=33	=33	=33	=33	=33	=33	=33	=33
4B-\	.	4B-/	.	4e-/	.	4g/	.	1ryy	1ryy	1ryy	8.g\J]	.	.	4e-\	.	4g\	.	4ee-\	.	4gg\	.
.	.	.	.	.	.	.	.	.	.	.	16g\	-ri-	-ra-	.	.	.	.	.	.	.	.
4BB-/	.	4B-/	.	4d/	.	4f/	.	.	.	.	4f/	-tus	-vi	4B-/	.	4f\	.	4dd\	.	4ff\	.
2r	.	2r	.	2r	.	4r	.	.	.	.	4r	.	.	2r	.	2r	.	2r	.	2r	.
.	.	.	.	.	.	4f/	.	.	.	.	4f/	con-	non	.	.	.	.	.	.	.	.
!LO:LB:g=original	!	!	!	!	!	!	!	!	!	!	!	!	!	!LO:LB:g=original	!	!LO:LB:g=original	!	!	!	!	!
=34	=34	=34	=34	=34	=34	=34	=34	=34	=34	=34	=34	=34	=34	=34	=34	=34	=34	=34	=34	=34	=34
.	.	.	.	.	.	16qqa-/LL	.	.	.	.	16qqa-/LL	.	.	.	.	.	.	.	.	.	.
!	!	!	!	!	!	!	!	!	!	!	!	!	!	!LO:TX:a:t=11	!	!	!	!	!	!	!
.	.	.	.	.	.	16qqcc/JJ	.	.	.	.	16qqcc/JJ	.	.	.	.	.	.	.	.	.	.
4r	.	4r	.	4r	.	4b-\	.	1ryy	1ryy	1ryy	[4b-\	-tri-	non	00r	.	00r	.	00r	.	00r	.
*	*	*	*	*	*	*2\right	*	*	*	*	*2\right	*	*	*	*	*	*	*	*	*	*
4BB-/	.	4f\	.	4d/	.	(2b-\	.	.	.	.	2b-\]	.	.	.	.	.	.	.	.	.	.
4BB-/	.	4f\	.	4d/	.	.	.	.	.	.	.	.	.	.	.	.	.	.	.	.	.
4BB-/	.	4f\	.	4d/	.	4a-\)	.	.	.	.	4a-\	-bu-	Con-	.	.	.	.	.	.	.	.
=35	=35	=35	=35	=35	=35	=35	=35	=35	=35	=35	=35	=35	=35	=35	=35	=35	=35	=35	=35	=35	=35
.	.	.	.	.	.	.	.	.	.	.	16qqb-/	.	.	.	.	.	.	.	.	.	.
!	!	!	!	!	!	!LO:N:vis=8.	!	!	!	!	!	!	!	!	!	!	!	!	!	!	!
!	!	!	!	!	!	!LO:TX:t=t&colon;	!	!	!	!	!	!	!	!	!	!	!	!	!	!	!
4r	.	4r	.	4r	.	8a-\L	.	1ryy	1ryy	1ryy	(8.a-\L	-la-	-fun-	.	.	.	.	.	.	.	.
.	.	.	.	.	.	16g\L	.	.	.	.	.	.	.	.	.	.	.	.	.	.	.
.	.	.	.	.	.	16a-\JJ	.	.	.	.	32g\LL	.	.	.	.	.	.	.	.	.	.
.	.	.	.	.	.	.	.	.	.	.	32a-\JJJ)	.	.	.	.	.	.	.	.	.	.
4BB-/	.	4g\	.	4e-/	.	4g/	.	.	.	.	4g\	-tus	-dar	.	.	.	.	.	.	.	.
4BB-/	.	4g\	.	4e-/	.	4r	.	.	.	.	4r	.	.	.	.	.	.	.	.	.	.
4BB-/	.	4g\	.	4e-/	.	4g/	.	.	.	.	4g\	con-	non	.	.	.	.	.	.	.	.
!	!	!	!	!	!	!	!	!	!	!	!LO:LB:g=original	!	!	!	!	!	!	!	!	!	!
=36	=36	=36	=36	=36	=36	=36	=36	=36	=36	=36	=36	=36	=36	=36	=36	=36	=36	=36	=36	=36	=36
.	.	.	.	.	.	16qqbn/LL	.	.	.	.	16qqbn/LL	.	.	.	.	.	.	.	.	.	.
.	.	.	.	.	.	16qqdd/JJ	.	.	.	.	16qqdd/JJ	.	.	.	.	.	.	.	.	.	.
4r	.	4r	.	4r	.	4cc\	.	1ryy	1ryy	1ryy	[4cc\	-tri-	non	.	.	.	.	.	.	.	.
4C/	.	4g\	.	4e-/	.	(2cc\	.	.	.	.	2cc\]	.	.	.	.	.	.	.	.	.	.
4C/	.	4g\	.	4e-/	.	.	.	.	.	.	.	.	.	.	.	.	.	.	.	.	.
4C/	.	4g\	.	4e-/	.	4b-X\)	.	.	.	.	4b-X\	-bu-	con-	.	.	.	.	.	.	.	.
=37	=37	=37	=37	=37	=37	=37	=37	=37	=37	=37	=37	=37	=37	=37	=37	=37	=37	=37	=37	=37	=37
.	.	.	.	.	.	.	.	.	.	.	16qqcc/	.	.	.	.	.	.	.	.	.	.
!	!	!	!	!	!	!LO:TX:t=t&colon;	!	!	!	!	!	!	!	!	!	!	!	!	!	!	!
4r	.	4r	.	4r	.	8b-\L	.	1ryy	1ryy	1ryy	8b-\L	-la-	-fun-	.	.	.	.	.	.	.	.
.	.	.	.	.	.	16an\L	.	.	.	.	16an\L	.	.	.	.	.	.	.	.	.	.
.	.	.	.	.	.	16b-\JJ	.	.	.	.	16b-\JJ	.	.	.	.	.	.	.	.	.	.
4C/	.	4an\	.	4f/	.	4a\	.	.	.	.	4a\	-tus	-dar	.	.	.	.	.	.	.	.
2C/	.	4a\	.	4f/	.	4r	.	.	.	.	4r	.	.	.	.	.	.	.	.	.	.
.	.	4a\	.	4f/	.	4f/	.	.	.	.	4f/	cor	non	.	.	.	.	.	.	.	.
!	!	!	!	!LO:LB:g=original	!	!	!	!	!	!	!	!	!	!	!	!	!	!	!	!	!
=38	=38	=38	=38	=38	=38	=38	=38	=38	=38	=38	=38	=38	=38	=38	=38	=38	=38	=38	=38	=38	=38
.	.	.	.	.	.	8qqbn/	.	.	.	.	8qqbn/	.	.	.	.	.	.	.	.	.	.
4r	.	4r	.	4r	.	4cc\	.	1ryy	1ryy	1ryy	4cc\	cor	non	00r	.	00r	.	00r	.	00r	.
4AAn/	.	4f\	.	4c/	.	8r	.	.	.	.	8r	.	.	.	.	.	.	.	.	.	.
.	.	.	.	.	.	16a-/LL	.	.	.	.	16a-\LL	con-	con-	.	.	.	.	.	.	.	.
.	.	.	.	.	.	16b-X/JJ	.	.	.	.	16b-X\JJ	.	.	.	.	.	.	.	.	.	.
*	*	*	*	*	*	*Xtuplet	*	*	*	*	*Xtuplet	*	*	*	*	*	*	*	*	*	*
4AA/	.	4f\	.	4c/	.	12cc\L	.	.	.	.	12cc\L	.	.	.	.	.	.	.	.	.	.
.	.	.	.	.	.	12b-\	.	.	.	.	12b-\	.	.	.	.	.	.	.	.	.	.
.	.	.	.	.	.	12a-\J	.	.	.	.	12a-\J	.	.	.	.	.	.	.	.	.	.
4AA/	.	4f\	.	4c/	.	12g/L	.	.	.	.	12g/L	.	.	.	.	.	.	.	.	.	.
.	.	.	.	.	.	12f/	.	.	.	.	12f/	.	.	.	.	.	.	.	.	.	.
.	.	.	.	.	.	12e-/J	.	.	.	.	12e-/J	.	.	.	.	.	.	.	.	.	.
!	!	!	!	!	!	!LO:LB:g=original	!	!	!	!	!	!	!	!	!	!	!	!	!	!	!
=39	=39	=39	=39	=39	=39	=39	=39	=39	=39	=39	=39	=39	=39	=39	=39	=39	=39	=39	=39	=39	=39
4r	.	4r	.	4r	.	8d/	.	1ryy	1ryy	1ryy	8d/	.	.	.	.	.	.	.	.	.	.
.	.	.	.	.	.	4f/	.	.	.	.	4f/	.	.	.	.	.	.	.	.	.	.
4BB-/	.	4f\	.	4d/	.	.	.	.	.	.	.	.	.	.	.	.	.	.	.	.	.
.	.	.	.	.	.	4b-/	.	.	.	.	4b-\	.	.	.	.	.	.	.	.	.	.
4BB-/	.	4f\	.	4d/	.	.	.	.	.	.	.	.	.	.	.	.	.	.	.	.	.
.	.	.	.	.	.	4dd\	.	.	.	.	4dd\	.	.	.	.	.	.	.	.	.	.
4BB-/	.	4f\	.	4d/	.	.	.	.	.	.	.	.	.	.	.	.	.	.	.	.	.
.	.	.	.	.	.	8b-\	.	.	.	.	8b-\	.	.	.	.	.	.	.	.	.	.
=40	=40	=40	=40	=40	=40	=40	=40	=40	=40	=40	=40	=40	=40	=40	=40	=40	=40	=40	=40	=40	=40
.	.	.	.	.	.	8qqbn/	.	.	.	.	8qqbn/	.	.	.	.	.	.	.	.	.	.
4r	.	4r	.	4r	.	4cc\	.	1ryy	1ryy	1ryy	4cc\	.	.	.	.	.	.	.	.	.	.
4AA-/	.	4f\	.	4c/	.	8r	.	.	.	.	8r	.	.	.	.	.	.	.	.	.	.
.	.	.	.	.	.	16a-\LL	.	.	.	.	16a-\LL	.	.	.	.	.	.	.	.	.	.
.	.	.	.	.	.	16b-X\JJ	.	.	.	.	16b-X\JJ	.	.	.	.	.	.	.	.	.	.
4AA-/	.	4f\	.	4c/	.	12cc\L	.	.	.	.	12cc\L	.	.	.	.	.	.	.	.	.	.
.	.	.	.	.	.	12b-\	.	.	.	.	12b-\	.	.	.	.	.	.	.	.	.	.
.	.	.	.	.	.	12a-\J	.	.	.	.	12a-\J	.	.	.	.	.	.	.	.	.	.
4AA-/	.	4f\	.	4c/	.	12g/L	.	.	.	.	12g\L	.	.	.	.	.	.	.	.	.	.
.	.	.	.	.	.	12f/	.	.	.	.	12f\	.	.	.	.	.	.	.	.	.	.
.	.	.	.	.	.	12e-/J	.	.	.	.	12e-\J	.	.	.	.	.	.	.	.	.	.
!	!	!	!	!	!	!	!	!	!	!	!LO:LB:g=original	!	!	!	!	!	!	!	!	!	!
=41	=41	=41	=41	=41	=41	=41	=41	=41	=41	=41	=41	=41	=41	=41	=41	=41	=41	=41	=41	=41	=41
4BB-/	.	2f\	.	4B-/	.	4d/	.	1ryy	1ryy	1ryy	4d/	-tri-	-fun-	.	.	.	.	.	.	.	.
4r	.	.	.	4d/	.	2b-\	.	.	.	.	2b-\	.	-dar	.	.	.	.	.	.	.	.
4r	.	2f\	.	2d/	.	.	.	.	.	.	.	.	.	.	.	.	.	.	.	.	.
4BB-/	.	.	.	.	.	4a-X\	.	.	.	.	4a-X\	.	non	.	.	.	.	.	.	.	.
=42	=42	=42	=42	=42	=42	=42	=42	=42	=42	=42	=42	=42	=42	=42	=42	=42	=42	=42	=42	=42	=42
4E-\	.	2g\	.	2e-/	.	4g/	.	1ryy	1ryy	1ryy	4g\	-tum	Con-	0r	.	0r	.	0r	.	0r	.
4r	.	.	.	.	.	2cc\	.	.	.	.	2cc\	et	-dun-	.	.	.	.	.	.	.	.
4r	.	2g\	.	2en/	.	.	.	.	.	.	.	.	.	.	.	.	.	.	.	.	.
4C/	.	.	.	.	.	4b-\	.	.	.	.	4b-\	hu-	.	.	.	.	.	.	.	.	.
=43	=43	=43	=43	=43	=43	=43	=43	=43	=43	=43	=43	=43	=43	=43	=43	=43	=43	=43	=43	=43	=43
!	!	!LO:SIC:v:s=4an\	!	!	!	!	!	!	!	!	!	!	!	!	!	!	!	!	!	!	!
4F\	.	4a-\	.	4f/	.	4an\	.	1ryy	1ryy	1ryy	4an\	-mi-	-dar	.	.	.	.	.	.	.	.
!	!	!LO:SIC:v:s=4an\	!	!	!	!	!	!	!	!	!	!	!	!	!	!	!	!	!	!	!
4F\	.	4a-\	.	4cc\	.	4ee-\	.	.	.	.	4ee-\	.	in	.	.	.	.	.	.	.	.
!	!	!LO:SIC:v:s=4an\	!	!	!	!	!	!	!	!	!	!	!	!	!	!	!	!	!	!	!
4F\	.	4a-\	.	4cc\	.	4ee-\	.	.	.	.	4ee-\	-li-	ae-	.	.	.	.	.	.	.	.
!	!	!LO:SIC:v:s=4an\	!	!	!	!	!	!	!	!	!	!	!	!	!	!	!	!	!	!	!
4F\	.	4a-\	.	4cc\	.	4ee-\	.	.	.	.	4ee-\	-a-	-ter-	.	.	.	.	.	.	.	.
=44	=44	=44	=44	=44	=44	=44	=44	=44	=44	=44	=44	=44	=44	=44	=44	=44	=44	=44	=44	=44	=44
*	*	*	*	*2\right	*	*	*	*	*	*	*	*	*	*	*	*	*	*	*	*	*
!	!	!LO:SIC:v:s=2an;\	!	!	!	!	!	!	!	!	!	!	!	!	!	!	!	!	!	!	!
2F;\	.	2a-;\	.	2cc;T\	.	2ee-;\	.	1ryy	1ryy	1ryy	2ee-;\	-tum	-num	1r;	.	1r;	.	1r;	.	1r;	.
4r	.	4r	.	4r	.	4r	.	.	.	.	4r	.	.	.	.	.	.	.	.	.	.
!	!	!LO:SIC:v:s=4an\	!	!	!	!	!	!	!	!	!	!	!	!	!	!	!	!	!	!	!
4F\	.	4a-\	.	4cc\	.	4ee-\	.	.	.	.	8ee-\	De-	in	.	.	.	.	.	.	.	.
.	.	.	.	.	.	.	.	.	.	.	8ee-\	-us	ae-	.	.	.	.	.	.	.	.
!	!	!LO:LB:g=original	!	!	!	!	!	!	!	!	!	!	!	!	!	!	!	!	!	!	!
=45	=45	=45	=45	=45	=45	=45	=45	=45	=45	=45	=45	=45	=45	=45	=45	=45	=45	=45	=45	=45	=45
!	!	!	!	!	!	!	!	!	!	!	!	!	!	!LO:TX:a:t=10	!	!	!	!	!	!	!
4B-\	.	4b-\	.	4b-\	.	4dd\	.	1ryy	1ryy	1ryy	4dd\	non	-ter-	00r	.	00r	.	00r	.	00r	.
.	.	.	.	.	.	8qqff/	.	.	.	.	8qqff/	.	.	.	.	.	.	.	.	.	.
*	*	*	*	*	*	*tuplet	*	*	*	*	*	*	*	*	*	*	*	*	*	*	*
!	!	!	!	!LO:TUP:b:problem:klamra łukowa	!	!LO:TUP:a:problem:klamra łukowa	!	!	!	!	!	!	!	!	!	!	!	!	!	!	!
4E-\	.	4g\	.	12g/L	.	12ee-\L	.	.	.	.	12ee-\L	de-	.	.	.	.	.	.	.	.	.
.	.	.	.	12f/	.	12dd\	.	.	.	.	12dd\	.	.	.	.	.	.	.	.	.	.
.	.	.	.	12e-/J	.	12cc\J	.	.	.	.	12cc\J	.	.	.	.	.	.	.	.	.	.
4F\	.	4f\	.	4d/	.	4b-\	.	.	.	.	4b-\	-spi-	.	.	.	.	.	.	.	.	.
!	!	!	!	!	!	!LO:SIC:v:s=4an\	!	!	!	!	!	!	!	!	!	!	!	!	!	!	!
4FF/	.	4f\	.	4c/	.	4a-\	.	.	.	.	4an\	-ci-	.	.	.	.	.	.	.	.	.
=46	=46	=46	=46	=46	=46	=46	=46	=46	=46	=46	=46	=46	=46	=46	=46	=46	=46	=46	=46	=46	=46
!	!	!	!	!	!	!LO:SIC:v:s=16qqan/LL	!	!	!	!	!LO:SIC:v:s=16qqan/LL	!	!	!	!	!	!	!	!	!	!
.	.	.	.	.	.	16qqa-/LL	.	.	.	.	16qqa-/LL	.	.	.	.	.	.	.	.	.	.
.	.	.	.	.	.	16qqcc/JJ	.	.	.	.	16qqcc/JJ	.	.	.	.	.	.	.	.	.	.
2BB-/	.	2f\	.	2d/	.	2b-\	.	1ryy	1ryy	1ryy	2b-\	-es	-num	.	.	.	.	.	.	.	.
2r	.	2r	.	2r	.	4f/	.	.	.	.	4f/	cor	non	.	.	.	.	.	.	.	.
.	.	.	.	.	f	4f/	.	.	.	.	4f/	con-	Con-	.	.	.	.	.	.	.	.
!LO:LB:g=original	!	!	!	!	!	!	!	!	!	!	!	!	!	!	!	!	!	!	!	!	!
=47	=47	=47	=47	=47	=47	=47	=47	=47	=47	=47	=47	=47	=47	=47	=47	=47	=47	=47	=47	=47	=47
!	!	!	!	!	!	!	!LO:DY:a:t=f&colon;	!	!	!	!	!	!	!	!	!	!	!	!	!	!
4r	.	(8c\L	.	(8A-/L	.	4.f/	f	1ryy	1ryy	1ryy	4f/	-tri-	-fun-	.	.	.	.	.	.	.	.
.	.	8e-\)	.	8c/)	.	.	.	.	.	.	.	.	.	.	.	.	.	.	.	.	.
.	.	.	.	.	.	.	.	.	.	.	8qqeen/	.	.	.	.	.	.	.	.	.	.
4F\	.	(8c\	.	(8A-/	.	.	.	.	.	.	4ff\	-tum	-dar	.	.	.	.	.	.	.	.
.	.	8e-\J)	.	8c/J)	.	8a-/	.	.	.	.	.	.	.	.	.	.	.	.	.	.	.
!	!	!	!	!	!	!LO:LB:g=original	!	!	!	!	!	!	!	!	!	!	!	!	!	!	!
*	*	*	*	*	*	*Xtuplet	*	*	*	*	*	*	*	*	*	*	*	*	*	*	*
4A-\	.	(8c\L	f	(8A-/L	.	12cc\L	.	.	.	.	2r	.	.	.	.	.	.	.	.	.	.
.	.	.	.	.	.	12a-\	.	.	.	.	.	.	.	.	.	.	.	.	.	.	.
.	.	8e-\)	.	8c/)	.	.	.	.	.	.	.	.	.	.	.	.	.	.	.	.	.
.	.	.	.	.	.	12cc\J	.	.	.	.	.	.	.	.	.	.	.	.	.	.	.
4F\	.	(8c\	.	(8A-/	.	12ee-\L	.	.	.	.	.	.	.	.	.	.	.	.	.	.	.
.	.	.	.	.	.	12cc\	.	.	.	.	.	.	.	.	.	.	.	.	.	.	.
.	.	8e-\J)	.	8c/J)	.	.	.	.	.	.	.	.	.	.	.	.	.	.	.	.	.
.	.	.	.	.	.	12a-\J	.	.	.	.	.	.	.	.	.	.	.	.	.	.	.
!	!	!	!	!	!	!	!	!	!	!	!LO:LB:g=original	!	!	!	!	!	!	!	!	!	!
=48	=48	=48	=48	=48	=48	=48	=48	=48	=48	=48	=48	=48	=48	=48	=48	=48	=48	=48	=48	=48	=48
.	.	.	.	.	.	16qqa-/LL	.	.	.	.	.	.	.	.	.	.	.	.	.	.	.
.	.	.	.	.	.	16qqcc/JJ	.	.	.	.	.	.	.	.	.	.	.	.	.	.	.
4B-\	.	(8d\L	.	(8B-/L	.	2b-\	.	1ryy	1ryy	1ryy	2r	.	.	.	.	.	.	.	.	.	.
.	.	8f\)	.	8d/)	.	.	.	.	.	.	.	.	.	.	.	.	.	.	.	.	.
4BB-/	.	(8d\	.	(8B-/	.	.	.	.	.	.	.	.	.	.	.	.	.	.	.	.	.
.	.	8f\J)	.	8d/J)	.	.	.	.	.	.	.	.	.	.	.	.	.	.	.	.	.
!	!	!	!	!LO:LB:g=original	!LO:DY:rj	!	!LO:DY:a:t=p&colon;	!	!	!	!	!	!	!	!	!	!	!	!	!	!
2r	.	(8d\L	p	(8B-/L	p	4f/	p	.	.	.	4f/	cor	in	.	.	.	.	.	.	.	.
.	.	8f\)	.	8d/)	.	.	.	.	.	.	.	.	.	.	.	.	.	.	.	.	.
.	.	(8d\	.	(8B-/	.	4f/	.	.	.	.	4f/	con-	ae-	.	.	.	.	.	.	.	.
.	.	8f\J)	.	8d/J)	.	.	.	.	.	.	.	.	.	.	.	.	.	.	.	.	.
=49	=49	=49	=49	=49	=49	=49	=49	=49	=49	=49	=49	=49	=49	=49	=49	=49	=49	=49	=49	=49	=49
!	!	!	!	!	!	!	!LO:DY:a:t=f.	!	!	!	!	!	!	!	!	!	!	!	!	!	!
4r	.	(8c\L	.	(8A-/L	.	4.f/	f	1ryy	1ryy	1ryy	4f/	-tri-	-ter-	00r	.	00r	.	00r	.	00r	.
.	.	8e-\)	.	8c/)	.	.	.	.	.	.	.	.	.	.	.	.	.	.	.	.	.
.	.	.	.	.	.	.	.	.	.	.	8qqeen/	.	.	.	.	.	.	.	.	.	.
4F\	.	(8c\	.	(8A-/	.	.	.	.	.	.	4ff\	-tum	-num	.	.	.	.	.	.	.	.
.	.	8e-\J)	f	8c/J)	.	8a-/	.	.	.	.	.	.	.	.	.	.	.	.	.	.	.
!	!	!	!	!	!LO:DY:rj	!	!	!	!	!	!	!	!	!	!	!	!	!	!	!	!
4A-\	.	(8c\L	.	(8A-/L	f	12cc\L	.	.	.	.	2r	.	.	.	.	.	.	.	.	.	.
.	.	.	.	.	.	12a-\	.	.	.	.	.	.	.	.	.	.	.	.	.	.	.
.	.	8e-\)	.	8c/)	.	.	.	.	.	.	.	.	.	.	.	.	.	.	.	.	.
.	.	.	.	.	.	12cc\J	.	.	.	.	.	.	.	.	.	.	.	.	.	.	.
4F\	.	(8c\	.	(8A-/	.	12ee-\L	.	.	.	.	.	.	.	.	.	.	.	.	.	.	.
.	.	.	.	.	.	12cc\	.	.	.	.	.	.	.	.	.	.	.	.	.	.	.
.	.	8e-\J)	.	8c/J)	.	.	.	.	.	.	.	.	.	.	.	.	.	.	.	.	.
.	.	.	.	.	.	12a-\J	.	.	.	.	.	.	.	.	.	.	.	.	.	.	.
=50	=50	=50	=50	=50	=50	=50	=50	=50	=50	=50	=50	=50	=50	=50	=50	=50	=50	=50	=50	=50	=50
!	!	!	!	!	!LO:DY:rj	!	!LO:DY:a:t=p&colon;	!	!	!	!	!	!	!	!	!	!	!	!	!	!
4B-\	.	4f\	.	4d/	p	4b-\	p	1ryy	1ryy	1ryy	4b-\	et	non	.	.	.	.	.	.	.	.
4r	.	4r	.	4r	.	4a-X\	.	.	.	.	4a-X\	hu-	Con-	.	.	.	.	.	.	.	.
4r	.	4r	.	4r	.	4g/	.	.	.	.	4g\	-mi-	-fun-	.	.	.	.	.	.	.	.
4D\	.	4f\	.	4d/	.	4f#X/	.	.	.	.	4fn/	-li-	.	.	.	.	.	.	.	.	.
=51	=51	=51	=51	=51	=51	=51	=51	=51	=51	=51	=51	=51	=51	=51	=51	=51	=51	=51	=51	=51	=51
2E-\	.	2g\	.	4.e-/	.	4.g/	.	1ryy	1ryy	1ryy	4.g\	-a-	-da-	.	.	.	.	.	.	.	.
.	.	.	.	8d/	.	8bn\	.	.	.	.	8bn\	.	.	.	.	.	.	.	.	.	.
2r	.	2r	.	8c/L	.	8cc\L	.	.	.	.	8cc\L	.	.	.	.	.	.	.	.	.	.
.	.	.	.	8Bn/	.	(8dd\	.	.	.	.	8dd\J	.	.	.	.	.	.	.	.	.	.
.	.	.	.	8c/	.	8ee-\	.	.	.	.	8ee-\L	-tum	-r	.	.	.	.	.	.	.	.
.	.	.	.	8d/J	.	8ffn\J)	.	.	.	.	8ffn\J	.	.	.	.	.	.	.	.	.	.
=52	=52	=52	=52	=52	=52	=52	=52	=52	=52	=52	=52	=52	=52	=52	=52	=52	=52	=52	=52	=52	=52
2r	.	4r	.	4e-/	.	4gg\|	.	1ryy	1ryy	1ryy	4gg\	De-	in	.	.	.	.	.	.	.	.
.	.	4e-\	.	(4g/	.	(4ee-X\	.	.	.	.	4ee-X\	-us	.	.	.	.	.	.	.	.	.
4r	.	4d\	.	4f/	.	4dd\	.	.	.	.	4dd\	non	ae-	.	.	.	.	.	.	.	.
4E-\	.	4c\	.	4e-/)	.	4cc\)	.	.	.	.	4cc\	de-	.	.	.	.	.	.	.	.	.
=53	=53	=53	=53	=53	=53	=53	=53	=53	=53	=53	=53	=53	=53	=53	=53	=53	=53	=53	=53	=53	=53
*tremolo	*	*	*	*	*	*	*	*	*	*	*	*	*	*	*	*	*	*	*	*	*
8F\L	.	4.B-/	.	4.d/	.	4.b-\	.	1ryy	1ryy	1ryy	4.b-\	-spi-	-ter-	0r	.	0r	.	0r	.	0r	.
8F\	.	.	.	.	.	.	.	.	.	.	.	.	.	.	.	.	.	.	.	.	.
8F\	.	.	.	.	.	.	.	.	.	.	.	.	.	.	.	.	.	.	.	.	.
8F\J	.	8e-\	.	8e-/	.	8cc\	.	.	.	.	8cc\	.	.	.	.	.	.	.	.	.	.
!	!	!	!	!	!	!LO:TX:t=tr&colon;	!	!	!	!	!	!	!	!	!	!	!	!	!	!	!
8FF/L	.	4f\	.	2e-T/	.	2cc\	.	.	.	.	2ccT\	-ci-	.	.	.	.	.	.	.	.	.
8FF/	.	.	.	.	.	.	.	.	.	.	.	.	.	.	.	.	.	.	.	.	.
8FF/	.	4f\	.	.	.	.	.	.	.	.	.	.	.	.	.	.	.	.	.	.	.
8FF/J	.	.	.	.	.	.	.	.	.	.	.	.	.	.	.	.	.	.	.	.	.
*Xtremolo	*	*	*	*	*	*	*	*	*	*	*	*	*	*	*	*	*	*	*	*	*
=54	=54	=54	=54	=54	=54	=54	=54	=54	=54	=54	=54	=54	=54	=54	=54	=54	=54	=54	=54	=54	=54
.	.	.	.	.	.	.	.	.	.	.	16qqb-/LL	.	.	.	.	.	.	.	.	.	.
.	.	.	.	.	.	.	.	.	.	.	16qqcc/JJ	.	.	.	.	.	.	.	.	.	.
4BB-/	.	4f\	.	4d/	.	4b-\	.	1ryy	1ryy	1ryy	4b-\	-es	-num	.	.	.	.	.	.	.	.
4FF/	.	4f\	.	4r	.	4r	.	.	.	.	4r	.	.	.	.	.	.	.	.	.	.
!	!	!	!	!	!	!	!LO:DY:a:t=f&colon;	!	!	!	!	!	!	!	!	!	!	!	!	!	!
4BB-/	.	4B-/	.	4r	f	4r	f	.	.	.	2r	.	.	.	.	.	.	.	.	.	.
!	!	!	!	!LO:SIC:v:s=4An/	!	!	!	!	!	!	!	!	!	!	!	!	!	!	!	!	!
4r	.	4r	.	4A-/	.	4f/	.	.	.	.	.	.	.	.	.	.	.	.	.	.	.
!	!	!LO:LB:g=original	!	!	!	!LO:LB:g=original	!	!	!	!	!LO:LB:g=original	!	!	!	!	!	!	!	!	!	!
=55	=55	=55	=55	=55	=55	=55	=55	=55	=55	=55	=55	=55	=55	=55	=55	=55	=55	=55	=55	=55	=55
*	*	*	*	*	*	*	*	*	*	*	*	*	*	*	*	*	*	*2\right	*	*	*
!	!	!	!LO:DY:rj	!LO:SIC:v:s=(8An/L.	!	!	!	!	!	!	!	!	!	!	!	!	!	!	!	!	!
4r	f	(8C/L	f	(8A-/L	.	(8ee-\L	.	1ryy	1ryy	1ryy	00r	.	.	1f	f	1f	f	2cc\	f	2ee-\	f
.	.	8E-/)	.	8c/)	.	8cc\J)	.	.	.	.	.	.	.	.	.	.	.	.	.	.	.
!	!	!	!	!LO:SIC:v:s=(8An/	!	!	!	!	!	!	!	!	!	!	!	!	!	!	!	!	!
4F\	.	(8C/	.	(8A-/	.	8r	.	.	.	.	.	.	.	.	.	.	.	.	.	.	.
!	!	!	!	!	!	!LO:SIC:v:s=16an\LL	!	!	!	!	!	!	!	!	!	!	!	!	!	!	!
.	.	8E-/J)	.	8c/J)	.	16a-\LL	.	.	.	.	.	.	.	.	.	.	.	.	.	.	.
.	.	.	.	.	.	16b-\JJ	.	.	.	.	.	.	.	.	.	.	.	.	.	.	.
!	!	!	!	!LO:SIC:v:s=(8An/L	!	!	!	!	!	!	!	!	!	!	!	!	!	!	!	!	!
4A-\	.	(8C/L	.	(8A-/L	.	8cc\L	.	.	.	.	.	.	.	.	.	.	.	4cc\	.	4ee-\	.
!	!	!	!	!	!	!LO:SIC:v:s=8an\	!	!	!	!	!	!	!	!	!	!	!	!	!	!	!
.	.	8E-/)	.	8c/)	.	8a-\	.	.	.	.	.	.	.	.	.	.	.	.	.	.	.
!	!	!	!	!LO:SIC:v:s=(An/	!	!	!	!	!	!	!	!	!	!	!	!	!	!LO:SIC:v:s=an\	!	!	!
4F\	.	(8C/	.	(8A-/	.	8f\	.	.	.	.	.	.	.	.	.	.	.	4a-\	.	4cc\	.
.	.	8E-/J)	.	8c/J)	.	8e-\J	.	.	.	.	.	.	.	.	.	.	.	.	.	.	.
=56	=56	=56	=56	=56	=56	=56	=56	=56	=56	=56	=56	=56	=56	=56	=56	=56	=56	=56	=56	=56	=56
!	!	!	!	!	!	!LO:TX:t=P:problem:mixed beam	!	!	!	!	!	!	!	!	!	!	!	!	!	!	!
4r	.	(8D/L	.	(8B-X/L	.	8d/L	.	1ryy	1ryy	1ryy	.	.	.	1B-	.	1f	.	2dd\	.	2ff\	.
.	.	8F/)	.	8d/)	.	8ff\J	.	.	.	.	.	.	.	.	.	.	.	.	.	.	.
4BB-/	.	(8D/	.	(8B-/	.	8r	.	.	.	.	.	.	.	.	.	.	.	.	.	.	.
.	.	8F/J)	.	8d/J)	.	(16gg\LL	.	.	.	.	.	.	.	.	.	.	.	.	.	.	.
.	.	.	.	.	.	16ff\JJ)	.	.	.	.	.	.	.	.	.	.	.	.	.	.	.
!	!	!	!	!LO:LB:g=original	!	!	!	!	!	!	!	!	!	!	!	!	!	!	!	!	!
4D/	.	(8D/L	.	(8B-/L	.	8bb-\L	.	.	.	.	.	.	.	.	.	.	.	4b-\	.	4dd\	.
.	.	8F/)	.	8d/)	.	8ff\	.	.	.	.	.	.	.	.	.	.	.	.	.	.	.
4BB-/	.	(8D/	.	(8B-/	.	16ee-\L	.	.	.	.	.	.	.	.	.	.	.	4dd\	.	4ff\	.
.	.	.	.	.	.	(16dd\	.	.	.	.	.	.	.	.	.	.	.	.	.	.	.
.	.	8F/J)	.	8d/J)	p	16cc\)	.	.	.	.	.	.	.	.	.	.	.	.	.	.	.
.	.	.	.	.	.	16b-\JJ	.	.	.	.	.	.	.	.	.	.	.	.	.	.	.
=57	=57	=57	=57	=57	=57	=57	=57	=57	=57	=57	=57	=57	=57	=57	=57	=57	=57	=57	=57	=57	=57
!	!	!	!LO:DY:rj	!LO:SIC:v:s=(8An/L	!	!	!LO:DY:a:t=p&colon;	!	!	!	!	!	!	!	!	!	!	!	!LO:DY:t=p&colon;	!	!
4r	.	(8C/L	p	(8A-/L	.	8ee-\L	p	1ryy	1ryy	1ryy	.	.	.	1f	p	1f	p	2cc\	p	2ee-\	p
.	.	8E-/)	.	8c/)	.	8cc\J	.	.	.	.	.	.	.	.	.	.	.	.	.	.	.
!	!	!	!	!LO:SIC:v:s=(8An/	!	!	!	!	!	!	!	!	!	!	!	!	!	!	!	!	!
4F\	p	(8C/	.	(8A-/	.	8r	.	.	.	.	.	.	.	.	.	.	.	.	.	.	.
!	!	!	!	!	!	!LO:SIC:v:s=(16an\LL	!	!	!	!	!	!	!	!	!	!	!	!	!	!	!
.	.	8E-/J)	.	8c/J)	.	(16a-\LL	.	.	.	.	.	.	.	.	.	.	.	.	.	.	.
.	.	.	.	.	.	16b-\JJ)	.	.	.	.	.	.	.	.	.	.	.	.	.	.	.
!	!	!	!	!LO:SIC:v:s=(8An/L	!	!	!	!	!	!	!	!	!	!	!	!	!	!	!	!	!
4A-\	.	(8C/L	.	(8A-/L	.	8cc\L	.	.	.	.	.	.	.	.	.	.	.	4cc\	.	4ee-\	.
!	!	!	!	!	!	!LO:SIC:v:s=8an\	!	!	!	!	!	!	!	!	!	!	!	!	!	!	!
.	.	8E-/)	.	8c/)	.	8a-\	.	.	.	.	.	.	.	.	.	.	.	.	.	.	.
!	!	!	!	!LO:SIC:v:s=(8An/	!	!	!	!	!	!	!	!	!	!	!	!	!	!LO:SIC:v:s=an\	!	!	!
4F\	.	(8C/	.	(8A-/	.	8f\	.	.	.	.	.	.	.	.	.	.	.	4a-\	.	4cc\	.
.	.	8E-/J)	.	8c/J)	.	8e-\J	.	.	.	.	.	.	.	.	.	.	.	.	.	.	.
=58	=58	=58	=58	=58	=58	=58	=58	=58	=58	=58	=58	=58	=58	=58	=58	=58	=58	=58	=58	=58	=58
!	!	!	!	!	!	!LO:TX:t=P:problem:mixed beam	!	!	!	!	!	!	!	!	!	!	!	!	!	!	!
4r	.	(8D/L	.	(8B-/L	.	8d/L	.	1ryy	1ryy	1ryy	.	.	.	1B-	.	1f	.	2dd\	.	2ff\	.
.	.	8F/)	.	8d/)	.	8ff\J	.	.	.	.	.	.	.	.	.	.	.	.	.	.	.
4BB-/	.	(8D/	.	(8B-/	.	8r	.	.	.	.	.	.	.	.	.	.	.	.	.	.	.
.	.	8F/J)	.	8d/J)	.	16gg\LL	.	.	.	.	.	.	.	.	.	.	.	.	.	.	.
.	.	.	.	.	.	16ff\JJ	.	.	.	.	.	.	.	.	.	.	.	.	.	.	.
!	!	!LO:TX:t=P:problem:mixed beam	!	!	!	!	!	!	!	!	!	!	!	!	!	!	!	!	!	!	!
4D/	.	(8D/L	.	(8B-/L	.	8bb-\L	.	.	.	.	.	.	.	.	.	.	.	4b-\	.	4dd\	.
.	.	8F/)	.	8d/)	.	8ff\	.	.	.	.	.	.	.	.	.	.	.	.	.	.	.
4BB-/	.	(8d\	.	(8B-/	.	16ee-\L	.	.	.	.	.	.	.	.	.	.	.	4dd\	.	4ff\	.
.	.	.	.	.	.	(16dd\	.	.	.	.	.	.	.	.	.	.	.	.	.	.	.
.	.	8f\J)	.	8d/J)	.	16cc\	.	.	.	.	.	.	.	.	.	.	.	.	.	.	.
.	.	.	.	.	.	16b-\JJ)	.	.	.	.	.	.	.	.	.	.	.	.	.	.	.
=59	=59	=59	=59	=59	=59	=59	=59	=59	=59	=59	=59	=59	=59	=59	=59	=59	=59	=59	=59	=59	=59
!	!	!LO:TX:a:t=Dolce	!	!LO:TX:b:i:t=Dolce	!LO:DY:rj	!LO:TX:a:t=Dolce	!LO:DY:a:rj	!	!	!	!	!	!	!	!	!	!	!	!	!	!
4BB-/	f	8e-\L	f	4B-/	f	(8g/L	f	1ryy	1ryy	1ryy	00r	.	.	4e-\	f	4g\	f	(8ee-\L	f	(8gg\L	f
.	.	8d\J	.	.	.	8f/J)	.	.	.	.	.	.	.	.	.	.	.	8dd\J)	.	8ff\J)	.
!	!	!	!	!	!	!	!	!	!	!	!	!	!	!	!	!	!	!	!	!LO:TX:b:i:t=Dolce	!
4r	.	4d\	.	4B-/	.	4f/	.	.	.	.	.	.	.	4B-/	.	4f\	.	4dd\	.	4ff\	.
4F\	.	8c\L	.	4B-/	.	(8e-/L	.	.	.	.	.	.	.	4B-/	.	4f\	.	8cc\L	.	8ee-\L	.
.	.	8B-\J	.	.	.	8d/J)	.	.	.	.	.	.	.	.	.	.	.	8b-\J	.	8dd\J	.
4BB-/	.	4B-\	.	4B-/	.	4d/	.	.	.	.	.	.	.	4B-/	.	4f\	.	4b-\	.	4dd\	.
!LO:LB:g=original	!	!	!	!	!	!	!	!	!	!	!	!	!	!	!	!	!	!	!	!	!
=60	=60	=60	=60	=60	=60	=60	=60	=60	=60	=60	=60	=60	=60	=60	=60	=60	=60	=60	=60	=60	=60
4E-\	.	4E-/	.	4G/	.	(8d/L	.	1ryy	1ryy	1ryy	.	.	.	2E-/	.	2e-\	.	4e-/	.	(8dd\L	.
.	.	.	.	.	.	8c/)	.	.	.	.	.	.	.	.	.	.	.	.	.	8cc\)	.
4C/	.	8G/L	.	4g/	.	(8e-/	.	.	.	.	.	.	.	.	.	.	.	8g/L	.	(8ee-\	.
.	.	8E-/J	.	.	.	8c/J)	.	.	.	.	.	.	.	.	.	.	.	8e-/J	.	8cc\J)	.
4F\	.	4D/	.	4f/	.	4B-/	.	.	.	.	.	.	.	4f\	.	4f\	.	4d/	.	4b-\	.
!	!	!	!	!	!	!LO:SIC:v:s=4An/	!	!	!	!	!	!	!	!	!	!	!	!	!	!LO:SIC:v:s=an\	!
4FF/	.	4C/	.	4f/	.	4A-/	.	.	.	.	.	.	.	4f\	.	4f\	.	4c/	.	4a-\	.
!	!	!	!	!	!	!LO:LB:g=original	!	!	!	!	!	!	!	!	!	!	!	!	!	!	!
=61	=61	=61	=61	=61	=61	=61	=61	=61	=61	=61	=61	=61	=61	=61	=61	=61	=61	=61	=61	=61	=61
!	!	!	!	!	!LO:DY:rj	!	!LO:DY:a:t=p&colon;	!	!	!	!	!	!	!	!	!	!	!	!	!	!
4BB-/	.	(8e-\L	p	4B-/	p	(8g/L	p	1ryy	1ryy	1ryy	.	.	.	2B-/	.	2f\	.	(8ee-\L	p	(8gg\L	p
.	.	8d\J)	.	.	.	8f/J	.	.	.	.	.	.	.	.	.	.	.	8dd\J)	.	8ff\J)	.
4r	.	4d\	.	4B-/	.	4f/)	.	.	.	.	.	.	.	.	.	.	.	4dd\	.	4ff\	.
4F\	.	(8c\L	.	4B-/	.	(8e-/L	.	.	.	.	.	.	.	4B-/	.	4f\	.	(8cc\L	.	(8ee-\L	.
.	.	8B-\J)	.	.	.	8d/J	.	.	.	.	.	.	.	.	.	.	.	8b-\J)	.	8dd\J)	.
4BB-/	.	4B-\	.	4B-/	.	4d/)	.	.	.	.	.	.	.	4B-/	.	4f\	.	4b-\	.	4dd\	.
=62	=62	=62	=62	=62	=62	=62	=62	=62	=62	=62	=62	=62	=62	=62	=62	=62	=62	=62	=62	=62	=62
!	!	!	!LO:DY:rj	!	!LO:DY:rj	!	!LO:DY:a:t=f&colon;	!	!	!	!	!	!	!	!	!	!	!	!	!	!
4E-\	.	4E-/	f	4G/	f	8c/L	f	1ryy	1ryy	1ryy	.	.	.	4E-/	.	4e-\	.	4e-/	f	8cc\L	.
.	.	.	.	.	.	8g/J	.	.	.	.	.	.	.	.	.	.	.	.	.	8gg\J	.
.	.	.	.	.	.	8qqf/	.	.	.	.	.	.	.	.	.	.	.	.	.	8qqff/	.
*	*	*	*	*	*	*tuplet	*	*	*	*	*	*	*	*	*	*	*	*	*	*	*
!	!	!LO:TUP:b:problem:klamra łukowa	!	!	!	!LO:TUP:b:problem:klamra łukowa,kropka zamiast numeru	!	!	!	!	!	!	!	!	!	!	!	!LO:TUP:b:problem:klamra łukowa	!	!LO:TUP:a:problem:klamra łukowa	!
4G\	.	12G/L	.	4g/	.	12e-/L	.	.	.	.	.	.	.	4r	.	4r	.	12g/L	.	12ee-\L	.
.	.	12F/	.	.	.	12d/	.	.	.	.	.	.	.	.	.	.	.	12f/	.	12dd\	.
.	.	12E-/J	.	.	.	12c/J	.	.	.	.	.	.	.	.	.	.	.	12e-/J	.	12cc\J	.
!	!	!LO:LB:g=original	!	!	!	!	!	!	!	!	!	!	!	!	!	!	!	!LO:LB:g=original	!	!LO:LB:g=original	!
4F\	.	4D/	.	4f/	.	4B-/	.	.	.	.	.	.	.	4f\	.	4f\	.	4d/	.	4b-/	.
!	!	!	!	!	!	!LO:SIC:v:s=4An/	!	!	!	!	!	!	!	!	!	!	!	!	!	!LO:SIC:v:s=an/	!
4FF/	.	4C/	.	4f/	.	4A-/	.	.	.	.	.	.	.	4f\	.	4f\	.	4c/	.	4a-/	.
=63	=63	=63	=63	=63	=63	=63	=63	=63	=63	=63	=63	=63	=63	=63	=63	=63	=63	=63	=63	=63	=63
4.BB-/	.	4.D/	.	4.f/	.	4.B-/	.	1ryy	1ryy	1ryy	1r	.	.	4.B-/	.	4.f\	.	4.d/	.	4.b-/	.
8B-\	.	8f\	.	8d/	.	8b-\	.	.	.	.	.	.	.	8B-/	.	8f\	.	8dd\	.	8bb-\	.
*	*	*	*	*	*	*	*	*	*	*	*	*	*	*tremolo	*	*	*	*	*	*	*
4F\	.	4f\	.	4d/	.	4b-\	.	.	.	.	.	.	.	8B-/L	.	8f\L	.	4dd\	.	4bb-\	.
.	.	.	.	.	.	.	.	.	.	.	.	.	.	8B-/	.	8f\	.	.	.	.	.
4D\	.	4f\	.	4d/	.	4b-\	.	.	.	.	.	.	.	8B-/	.	8f\	.	4dd\	.	4bb-\	.
.	.	.	.	.	.	.	.	.	.	.	.	.	.	8B-/J	.	8f\J	.	.	.	.	.
*	*	*	*	*	*	*	*	*	*	*	*	*	*	*Xtremolo	*	*	*	*	*	*	*
=64	=64	=64	=64	=64	=64	=64	=64	=64	=64	=64	=64	=64	=64	=64	=64	=64	=64	=64	=64	=64	=64
2BB-/	.	2f\	.	2d/	.	2b-\	.	1ryy	1ryy	1ryy	2r	.	.	2B-/	.	2f\	.	2dd\	.	2bb-\	.
2r	.	2r	.	2r	.	4r	.	.	.	.	4r	.	.	2r	.	2r	.	2r	.	2r	.
!	!	!	!	!	!	!	!LO:DY:a:t=pp&colon;	!	!	!	!	!	!	!	!	!	!	!	!	!	!
.	.	.	.	.	.	4f/	pp	.	.	.	4f/	Be-	In	.	.	.	.	.	.	.	.
=65	=65	=65	=65	=65	=65	=65	=65	=65	=65	=65	=65	=65	=65	=65	=65	=65	=65	=65	=65	=65	=65
!	!	!	!	!	!LO:DY:rj	!	!	!	!	!	!	!	!	!LO:TX:a:t=32	!	!LO:TX:a:t=32	!	!LO:TX:a:t=32.	!	!LO:TX:a:t=32	!
4r	.	4r	.	4r	pp	4b-\	.	1ryy	1ryy	1ryy	4b-\	-ni-	te	00r	.	00r	.	00r	.	00r	.
4BB-/	pp	4f\	pp	4d-X/	.	2b-\	.	.	.	.	2b-\	-gne	in	.	.	.	.	.	.	.	.
2BB-/	.	2f\	.	2d-/	.	.	.	.	.	.	.	.	.	.	.	.	.	.	.	.	.
.	.	.	.	.	.	8cc\L	.	.	.	.	8cc\L	fac	te	.	.	.	.	.	.	.	.
.	.	.	.	.	.	8dd-X\J	.	.	.	.	8dd-X\J	.	.	.	.	.	.	.	.	.	.
=66	=66	=66	=66	=66	=66	=66	=66	=66	=66	=66	=66	=66	=66	=66	=66	=66	=66	=66	=66	=66	=66
!	!	!	!	!	!	!LO:SIC:v:s8=dd-\L	!	!	!	!	!LO:SIC:v:s=8.dd-\	!	!	!	!	!	!	!	!	!	!
4r	.	4r	.	4r	.	8dd\L	.	1ryy	1ryy	1ryy	8.dd\	Do-	Do-	.	.	.	.	.	.	.	.
.	.	.	.	.	.	8g\J	.	.	.	.	.	.	.	.	.	.	.	.	.	.	.
.	.	.	.	.	.	.	.	.	.	.	16g\	-mi-	-mi-	.	.	.	.	.	.	.	.
4C/	.	4g\	.	4en/	.	4g\	.	.	.	.	4g\	-ne	-ne	.	.	.	.	.	.	.	.
4C/	.	4g\	.	4e/	.	4.cc\	.	.	.	.	(4.cc\	be-	Spe-	.	.	.	.	.	.	.	.
4C/	.	4g\	.	4e/	.	.	.	.	.	.	.	.	.	.	.	.	.	.	.	.	.
.	.	.	.	.	.	8b-\	.	.	.	.	8b-\)	.	.	.	.	.	.	.	.	.	.
!	!	!	!	!LO:LB:g=original	!	!	!	!	!	!	!	!	!	!	!	!	!	!	!	!	!
=67	=67	=67	=67	=67	=67	=67	=67	=67	=67	=67	=67	=67	=67	=67	=67	=67	=67	=67	=67	=67	=67
2F\	.	4a-\	.	4f/	.	(8b-\L	.	1ryy	1ryy	1ryy	8b-\L	-ni-	-ra-	.	.	.	.	.	.	.	.
.	.	.	.	.	.	8a-X\)	.	.	.	.	8a-X\J	.	.	.	.	.	.	.	.	.	.
!	!	!LO:TX:t=P:problem:mixed beam	!	!	!	!	!	!	!	!	!	!	!	!	!	!	!	!	!	!	!
.	.	8b-\L	.	8f/L	.	(8cc\	.	.	.	.	8cc\	-gne	-vi	.	.	.	.	.	.	.	.
.	.	8B-/J	.	8A-X/J	.	8f\J)	.	.	.	.	8f/	fac	Spe-	.	.	.	.	.	.	.	.
4c\	.	4c/	.	8c/L	.	8a-/L	.	.	.	.	8a-\L	Do-	-ra-	.	.	.	.	.	.	.	.
.	.	.	.	8B-/	.	(8g/	.	.	.	.	8g\J	.	.	.	.	.	.	.	.	.	.
4C/	.	4c/	.	8A-/	.	8f/	.	.	.	.	8f/L	-mi-	.	.	.	.	.	.	.	.	.
.	.	.	.	8G/J	.	8en/J)	.	.	.	.	8en/J	.	.	.	.	.	.	.	.	.	.
=68	=68	=68	=68	=68	=68	=68	=68	=68	=68	=68	=68	=68	=68	=68	=68	=68	=68	=68	=68	=68	=68
!	!	!	!	!	!	!LO:SIC:v:s=2en/	!	!	!	!	!LO:SIC:v:s=(2en/	!	!	!	!	!	!	!	!	!	!
2C/	.	2c/	.	2G/	.	2e-/	.	1ryy	1ryy	1ryy	(2e-/	-ne	-vi	.	.	.	.	.	.	.	.
4F\	.	4c/	.	4A-/	.	4f/	.	.	.	.	4f/)	.	.	.	.	.	.	.	.	.	.
4r	.	4r	.	4r	.	8r	.	.	.	.	8r	.	.	.	.	.	.	.	.	.	.
.	.	.	.	.	.	16a-/LL	.	.	.	.	16a-\LL	in	in	.	.	.	.	.	.	.	.
.	.	.	.	.	.	16f/JJ	.	.	.	.	16f\JJ	.	te	.	.	.	.	.	.	.	.
!	!	!	!	!	!	!LO:LB:g=original	!	!	!	!	!	!	!	!	!	!	!	!	!	!	!
=69	=69	=69	=69	=69	=69	=69	=69	=69	=69	=69	=69	=69	=69	=69	=69	=69	=69	=69	=69	=69	=69
.	.	.	.	.	.	8qqen/	.	.	.	.	8qqen/	.	.	.	.	.	.	.	.	.	.
4r	.	4r	.	4r	.	4d/	.	1ryy	1ryy	1ryy	4d/	bo-	Do-	00r	.	00r	.	00r	.	00r	.
4BB-/	.	4d\	.	4f/	.	4d/	.	.	.	.	4d/	-na	-mi-	.	.	.	.	.	.	.	.
4BB-/	.	4d\	.	4f/	.	4.ff\	.	.	.	.	4.ff\	vo-	-ne	.	.	.	.	.	.	.	.
4BB-/	.	4d\	.	4f/	.	.	.	.	.	.	.	.	.	.	.	.	.	.	.	.	.
.	.	.	.	.	.	8a-/	.	.	.	.	8a-\	-lun-	Spe-	.	.	.	.	.	.	.	.
!	!	!	!	!	!	!	!	!	!	!	!LO:LB:g=original	!	!	!	!	!	!	!	!	!	!
=70	=70	=70	=70	=70	=70	=70	=70	=70	=70	=70	=70	=70	=70	=70	=70	=70	=70	=70	=70	=70	=70
4r	.	4r	.	4r	.	4a-/	.	1ryy	1ryy	1ryy	4a-\	-ta-	-ra-	.	.	.	.	.	.	.	.
4E-\	.	4g\	.	4b-\	.	4g/	.	.	.	.	4g\	-te	-vi	.	.	.	.	.	.	.	.
4E-\	.	4g\	.	4b-\	.	4.ee-X\	.	.	.	.	4.ee-X\	vo-	non	.	.	.	.	.	.	.	.
4E-\	.	4g\	.	4b-\	.	.	.	.	.	.	.	.	.	.	.	.	.	.	.	.	.
.	.	.	.	.	.	8b-\	.	.	.	.	8b-\	-lun-	Con-	.	.	.	.	.	.	.	.
=71	=71	=71	=71	=71	=71	=71	=71	=71	=71	=71	=71	=71	=71	=71	=71	=71	=71	=71	=71	=71	=71
.	.	.	.	.	.	8qqbn/	.	.	.	.	8qqbn/	.	.	.	.	.	.	.	.	.	.
2A-X\	.	2e-\	.	4.a-X/	.	4.cc\	.	1ryy	1ryy	1ryy	4.cc\	-ta-	-fun-	.	.	.	.	.	.	.	.
.	.	.	.	8g/	.	8b-X\	.	.	.	.	8b-X\	-te	-dar	.	.	.	.	.	.	.	.
4A-\	.	4f\	.	8f/L	.	8a-/L	.	.	.	.	8a-\	tu-	in	.	.	.	.	.	.	.	.
.	.	.	.	8e-/	.	8g/	.	.	.	.	8g\	-a	ae-	.	.	.	.	.	.	.	.
4An\	.	4f\	.	8a-/	.	8f/	.	.	.	.	8f/L	Si-	-ter-	.	.	.	.	.	.	.	.
.	.	.	.	8g/J	.	8e-/J	.	.	.	.	8e-/J	.	.	.	.	.	.	.	.	.	.
!LO:LB:g=original	!	!	!	!	!	!	!	!	!	!	!	!	!	!	!	!	!	!	!	!	!
=72	=72	=72	=72	=72	=72	=72	=72	=72	=72	=72	=72	=72	=72	=72	=72	=72	=72	=72	=72	=72	=72
4B-\	.	4f\	.	4g/	.	4e-/	.	1ryy	1ryy	1ryy	(4e-/	-on	-num	.	.	.	.	.	.	.	.
4F\	.	4b-\	.	4f/	.	4d/	.	.	.	.	4d/)	.	.	.	.	.	.	.	.	.	.
4BB-/	.	4B-/	.	2r	.	4r	.	.	.	.	4r	.	.	.	.	.	.	.	.	.	.
4r	.	4r	.	.	.	8d/L	.	.	.	.	8d/L	in	in	.	.	.	.	.	.	.	.
.	.	.	.	.	.	8e-/J	.	.	.	.	8e-/J	.	te	.	.	.	.	.	.	.	.
=73	=73	=73	=73	=73	=73	=73	=73	=73	=73	=73	=73	=73	=73	=73	=73	=73	=73	=73	=73	=73	=73
4r	.	4r	.	4r	.	4f/	.	1ryy	1ryy	1ryy	4f/	bo-	Do-	00r	.	00r	.	00r	.	00r	.
4BB-/	.	4f\	.	4dn/	.	16f/LL	.	.	.	.	16f/LL	.	.	.	.	.	.	.	.	.	.
.	.	.	.	.	.	16g/	.	.	.	.	16g/	.	.	.	.	.	.	.	.	.	.
.	.	.	.	.	.	16f/	.	.	.	.	16f/	.	.	.	.	.	.	.	.	.	.
.	.	.	.	.	.	16en/JJ	.	.	.	.	16en/JJ	.	-mi-	.	.	.	.	.	.	.	.
4BB-/	.	4f\	.	4d/	.	4f/	.	.	.	.	4f/	-na	-ne	.	.	.	.	.	.	.	.
4BB-/	.	4f\	.	4d/	.	8r	.	.	.	.	8r	.	.	.	.	.	.	.	.	.	.
.	.	.	.	.	.	8ff\|	.	.	.	.	8ff\	bo-	Spe-	.	.	.	.	.	.	.	.
=74	=74	=74	=74	=74	=74	=74	=74	=74	=74	=74	=74	=74	=74	=74	=74	=74	=74	=74	=74	=74	=74
4r	.	4r	.	4r	.	4ff\|	.	1ryy	1ryy	1ryy	12ff\L	.	-ra-	.	.	.	.	.	.	.	.
.	.	.	.	.	.	.	.	.	.	.	12gg\	.	.	.	.	.	.	.	.	.	.
.	.	.	.	.	.	.	.	.	.	.	12ff\J	.	.	.	.	.	.	.	.	.	.
4BB-/	.	4d\	.	4f/	.	4dd\|	.	.	.	.	12dd\L	.	.	.	.	.	.	.	.	.	.
.	.	.	.	.	.	.	.	.	.	.	12ee-X\	.	.	.	.	.	.	.	.	.	.
.	.	.	.	.	.	.	.	.	.	.	12dd\J	.	.	.	.	.	.	.	.	.	.
4BB-/	.	4d\	.	4f/	.	4b-\|	.	.	.	.	12b-\L	.	.	.	.	.	.	.	.	.	.
.	.	.	.	.	.	.	.	.	.	.	12cc\	.	.	.	.	.	.	.	.	.	.
.	.	.	.	.	.	.	.	.	.	.	12b-\J	.	.	.	.	.	.	.	.	.	.
4BB-/	.	4d\	.	4f/	.	4a-\|	.	.	.	.	12a-\L	.	.	.	.	.	.	.	.	.	.
.	.	.	.	.	.	.	.	.	.	.	12b-\	.	.	.	.	.	.	.	.	.	.
.	.	.	.	.	.	.	.	.	.	.	12a-\J	.	.	.	.	.	.	.	.	.	.
!	!	!LO:PB:g=original	!	!	!	!	!	!	!	!	!	!	!	!	!	!	!	!	!	!	!
=75	=75	=75	=75	=75	=75	=75	=75	=75	=75	=75	=75	=75	=75	=75	=75	=75	=75	=75	=75	=75	=75
4r	.	4r	.	4r	.	4g/	.	1ryy	1ryy	1ryy	4g\	.	.	.	.	.	.	.	.	.	.
4BB-/	.	4g\	.	4e-/	.	16g/LL	.	.	.	.	16g\LL	.	.	.	.	.	.	.	.	.	.
.	.	.	.	.	.	16a-/	.	.	.	.	16a-\	.	.	.	.	.	.	.	.	.	.
.	.	.	.	.	.	16g/	.	.	.	.	16g\	.	.	.	.	.	.	.	.	.	.
.	.	.	.	.	.	16f/JJ	.	.	.	.	16f\JJ	.	.	.	.	.	.	.	.	.	.
!	!	!	!	!	!	!	!	!	!	!	!LO:LB:g=original	!	!	!	!	!	!	!	!	!	!
4BB-/	.	4g\	.	4e-/	.	4g/	.	.	.	.	4g\	-na	-vi	.	.	.	.	.	.	.	.
4BB-/	.	4g\	.	4e-/	.	8r	.	.	.	.	8r	.	.	.	.	.	.	.	.	.	.
.	.	.	.	.	.	8gg\	.	.	.	.	8gg\	Vo-	Spe-	.	.	.	.	.	.	.	.
=76	=76	=76	=76	=76	=76	=76	=76	=76	=76	=76	=76	=76	=76	=76	=76	=76	=76	=76	=76	=76	=76
4r	.	4r	.	4r	.	4gg\|	.	1ryy	1ryy	1ryy	12gg\L	.	-ra-	.	.	.	.	.	.	.	.
.	.	.	.	.	.	.	.	.	.	.	12aa-\	.	.	.	.	.	.	.	.	.	.
.	.	.	.	.	.	.	.	.	.	.	12gg\J	.	.	.	.	.	.	.	.	.	.
4BB-/	.	4g\	.	4e-/	.	4ee-\|	.	.	.	.	12ee-\L	.	.	.	.	.	.	.	.	.	.
.	.	.	.	.	.	.	.	.	.	.	12ff\	.	.	.	.	.	.	.	.	.	.
.	.	.	.	.	.	.	.	.	.	.	12ee-\J	.	.	.	.	.	.	.	.	.	.
4BB-/	.	4g\	.	4e-/	.	4b-\|	.	.	.	.	12b-\L	.	.	.	.	.	.	.	.	.	.
.	.	.	.	.	.	.	.	.	.	.	12cc\	.	.	.	.	.	.	.	.	.	.
.	.	.	.	.	.	.	.	.	.	.	12b-\J	.	.	.	.	.	.	.	.	.	.
4BB-/	.	4g\	.	4e-/	.	4g\|	.	.	.	.	12g\L	lun-	.	.	.	.	.	.	.	.	.
.	.	.	.	.	.	.	.	.	.	.	12a-\	.	.	.	.	.	.	.	.	.	.
.	.	.	.	.	.	.	.	.	.	.	12g\J	.	.	.	.	.	.	.	.	.	.
!	!	!	!	!	!	!LO:PB:g=original	!	!	!	!	!	!	!	!	!	!	!	!	!	!	!
=77	=77	=77	=77	=77	=77	=77	=77	=77	=77	=77	=77	=77	=77	=77	=77	=77	=77	=77	=77	=77	=77
4r	.	4r	.	4r	.	4a-/	.	1ryy	1ryy	1ryy	4a-\	-ta-	.	00r	.	00r	.	00r	.	00r	.
4BB-/	.	4d\	.	4f/	.	16b-/LL	.	.	.	.	16b-\LL	.	.	.	.	.	.	.	.	.	.
.	.	.	.	.	.	16a-/	.	.	.	.	16a-\	.	.	.	.	.	.	.	.	.	.
.	.	.	.	.	.	16g/	.	.	.	.	16g\	.	.	.	.	.	.	.	.	.	.
.	.	.	.	.	.	16a-/JJ	.	.	.	.	16a-\JJ	.	.	.	.	.	.	.	.	.	.
4BB-/	.	4d\	.	4f/	.	4a-/	.	.	.	.	4a-\	-te	-vi	.	.	.	.	.	.	.	.
4BB-/	.	4d\	.	4f/	.	8r	.	.	.	.	8r	.	.	.	.	.	.	.	.	.	.
.	.	.	.	.	.	16ff\LL	.	.	.	.	16ff\LL	tu-	Spe-	.	.	.	.	.	.	.	.
.	.	.	.	.	.	16gg\JJ	.	.	.	.	16gg\JJ	.	.	.	.	.	.	.	.	.	.
!	!	!	!	!LO:LB:g=original	!	!	!	!	!	!	!	!	!	!	!	!	!	!	!	!	!
=78	=78	=78	=78	=78	=78	=78	=78	=78	=78	=78	=78	=78	=78	=78	=78	=78	=78	=78	=78	=78	=78
*	*	*	*	*	*	*Xtuplet	*	*	*	*	*	*	*	*	*	*	*	*	*	*	*
4r	.	4r	.	4r	.	12aa-\L	.	1ryy	1ryy	1ryy	12aa-\L	.	-ra-	.	.	.	.	.	.	.	.
.	.	.	.	.	.	12gg\	.	.	.	.	12gg\	.	.	.	.	.	.	.	.	.	.
.	.	.	.	.	.	12ff\J	.	.	.	.	12ff\J	.	.	.	.	.	.	.	.	.	.
4BB-/	.	4d\	.	4f/	.	12ee-\L	.	.	.	.	12ee-\L	.	.	.	.	.	.	.	.	.	.
.	.	.	.	.	.	12dd\	.	.	.	.	12dd\	.	.	.	.	.	.	.	.	.	.
.	.	.	.	.	.	12cc\J	.	.	.	.	12cc\J	.	.	.	.	.	.	.	.	.	.
4BB-/	.	4d\	.	4g/	.	12b-\L	.	.	.	.	12b-\L	.	.	.	.	.	.	.	.	.	.
.	.	.	.	.	.	12a-\	.	.	.	.	12a-\	.	.	.	.	.	.	.	.	.	.
.	.	.	.	.	.	12g\J	.	.	.	.	12g\J	.	.	.	.	.	.	.	.	.	.
4BB-/	.	4d\	.	4d/	.	12f\L	.	.	.	.	12f/L	-a	.	.	.	.	.	.	.	.	.
.	.	.	.	.	.	12g\	.	.	.	.	12g/	.	.	.	.	.	.	.	.	.	.
.	.	.	.	.	.	12a-\J	.	.	.	.	12a-/J	.	.	.	.	.	.	.	.	.	.
=79	=79	=79	=79	=79	=79	=79	=79	=79	=79	=79	=79	=79	=79	=79	=79	=79	=79	=79	=79	=79	=79
4BB-/	.	4d\	.	(4f/	.	(4a-/	.	1ryy	1ryy	1ryy	4a-\	Si-	.	.	.	.	.	.	.	.	.
!	!	!	!	!	!	!LO:TX:t=P:problem:mixed beam	!	!	!	!	!	!	!	!	!	!	!	!	!	!	!
4E-\	.	4B-/	.	4e-/)	.	8g/L)	.	.	.	.	8g\	-on	-vi	.	.	.	.	.	.	.	.
.	.	.	.	.	.	8dd-X\J|	.	.	.	.	8dd-X\	ut	non	.	.	.	.	.	.	.	.
*	*	*	*	*	*	*	*	*	*	*	*	*	*ij	*	*	*	*	*	*	*	*
[2En\	.	[2B-/	.	[2g/	.	(4dd-\	.	.	.	.	4dd-\	ae-	non	.	.	.	.	.	.	.	.
*	*	*	*	*	*	*	*	*	*	*	*	*	*Xij	*	*	*	*	*	*	*	*
.	.	.	.	.	.	8cc\L	.	.	.	.	8cc\	-di-	Con-	.	.	.	.	.	.	.	.
.	.	.	.	.	.	8b-\J)	.	.	.	.	8b-\	-fi-	.	.	.	.	.	.	.	.	.
!	!	!	!	!	!	!	!	!	!	!	!LO:PB:g=original	!	!	!	!	!	!	!	!	!	!
=80	=80	=80	=80	=80	=80	=80	=80	=80	=80	=80	=80	=80	=80	=80	=80	=80	=80	=80	=80	=80	=80
4E\]	.	4B-/]	.	4g/]	.	(4b-\	.	1ryy	1ryy	1ryy	4b-\	-cen-	-fun-	.	.	.	.	.	.	.	.
4F\	.	4An/	.	4f/	.	8an\L)	.	.	.	.	8an\	-tur	-dar	.	.	.	.	.	.	.	.
.	.	.	.	.	.	8ee-X\J|	.	.	.	.	8ee-X\	ut	non	.	.	.	.	.	.	.	.
[2F#X\	.	2c\	.	[2an/	.	4ee-\	.	.	.	.	4ee-\	ae-	non	.	.	.	.	.	.	.	.
.	.	.	.	.	.	8ddn\L	.	.	.	.	8ddn\	-di-	con-	.	.	.	.	.	.	.	.
.	.	.	.	.	.	8cc\J	.	.	.	.	8cc\	-fi-	.	.	.	.	.	.	.	.	.
=81	=81	=81	=81	=81	=81	=81	=81	=81	=81	=81	=81	=81	=81	=81	=81	=81	=81	=81	=81	=81	=81
4F#\]	.	4e-\	.	4a/]	.	4cc\	.	1ryy	1ryy	1ryy	4cc\	-cen-	-fun-	00r	.	00r	.	00r	.	00r	.
4G\	.	4d\	.	4bn/	.	8bn\L	.	.	.	.	8bn\L	-tur	-dar	.	.	.	.	.	.	.	.
.	.	.	.	.	.	8aa-X\J	.	.	.	.	8aa-X\J	.	.	.	.	.	.	.	.	.	.
2D/	.	2f\	.	[>2b/	.	(4aa-\	.	.	.	.	4aa-\	mu-	non	.	.	.	.	.	.	.	.
.	.	.	.	.	.	8gg\L	.	.	.	.	8gg\L	-ri	con-	.	.	.	.	.	.	.	.
.	.	.	.	.	.	8ff\J)	.	.	.	.	8ff\J	.	.	.	.	.	.	.	.	.	.
=82	=82	=82	=82	=82	=82	=82	=82	=82	=82	=82	=82	=82	=82	=82	=82	=82	=82	=82	=82	=82	=82
!	!	!	!	!LO:TX:t=P:problem:mixed beam	!	!	!	!	!	!	!	!	!	!	!	!	!	!	!	!	!
4C\	.	4g\	.	(8b\L]	.	(8ff\L	.	1ryy	1ryy	1ryy	8ff\L|	mu-	-fun-	.	.	.	.	.	.	.	.
.	.	.	.	8cc\	.	8ee-\)	.	.	.	.	8ee-\J|	.	-dar	.	.	.	.	.	.	.	.
4E-\	.	4g\	.	8ee-X\)	.	(8gg\	.	.	.	.	8gg\	-ri	in	.	.	.	.	.	.	.	.
.	.	.	.	8e-/J	.	8cc\J)	.	.	.	.	8cc\	Je-	ae-	.	.	.	.	.	.	.	.
4G\	.	8e-\L	.	(8g/L	.	(8ee-\L	.	.	.	.	8ee-\L	-ru-	-ter-	.	.	.	.	.	.	.	.
.	.	8d\	.	8f/	.	8dd\	.	.	.	.	8dd\J	.	.	.	.	.	.	.	.	.	.
4GG/	.	8c\	.	8e-/)	.	8cc\	.	.	.	.	8cc\L	-sa-	.	.	.	.	.	.	.	.	.
.	.	8Bn\J	.	8d/J	.	8bn\J)	.	.	.	.	8bn\J	.	.	.	.	.	.	.	.	.	.
=83	=83	=83	=83	=83	=83	=83	=83	=83	=83	=83	=83	=83	=83	=83	=83	=83	=83	=83	=83	=83	=83
!	!	!	!	!	!	!LO:SIC:v:s=2bn\	!	!	!	!	!	!	!	!	!	!	!	!	!	!	!
2GG/	.	2B-/	.	2d/	.	2b-\	.	1ryy	1ryy	1ryy	(2b-\	-lem	-num	.	.	.	.	.	.	.	.
4C/	.	4G/	.	4e-/	.	4cc\	.	.	.	.	4cc\)	.	.	.	.	.	.	.	.	.	.
4r	.	4r	.	4r	.	4ee-\	.	.	.	.	4ee-\	ut	non	.	.	.	.	.	.	.	.
=84	=84	=84	=84	=84	=84	=84	=84	=84	=84	=84	=84	=84	=84	=84	=84	=84	=84	=84	=84	=84	=84
4r	.	4r	.	4r	.	4.ee-\	.	1ryy	1ryy	1ryy	4.ee-\	ae-	non	.	.	.	.	.	.	.	.
4E-\	.	4b-\	.	4g/	.	.	.	.	.	.	.	.	.	.	.	.	.	.	.	.	.
.	.	.	.	.	.	16dd-X\LL	.	.	.	.	16dd-X\LL	.	.	.	.	.	.	.	.	.	.
.	.	.	.	.	.	16cc\JJ	.	.	.	.	16cc\JJ	.	.	.	.	.	.	.	.	.	.
!	!	!	!	!	!	!LO:LB:g=original	!	!	!	!	!	!	!	!	!	!	!	!	!	!	!
!	!	!	!	!	!	!LO:N:vis=16	!	!	!	!	!	!	!	!	!	!	!	!	!	!	!
4E-\	.	4b-\	.	4g/	.	12dd-\L	.	.	.	.	12dd-\L	-di-	con-	.	.	.	.	.	.	.	.
!	!	!	!	!	!	!LO:N:vis=16	!	!	!	!	!	!	!	!	!	!	!	!	!	!	!
.	.	.	.	.	.	12cc\	.	.	.	.	12cc\	.	.	.	.	.	.	.	.	.	.
!	!	!	!	!	!	!LO:N:vis=16	!	!	!	!	!	!	!	!	!	!	!	!	!	!	!
.	.	.	.	.	.	12dd-\J	.	.	.	.	12dd-\J	.	.	.	.	.	.	.	.	.	.
4E-\	.	4b-\	.	4g/	.	8ee-\L	.	.	.	.	8ee-\L	-fi-	-fun-	.	.	.	.	.	.	.	.
.	.	.	.	.	.	8dd-\J	.	.	.	.	8dd-\J	.	.	.	.	.	.	.	.	.	.
!LO:LB:g=original	!	!	!	!	!	!	!	!	!	!	!LO:LB:g=original	!	!	!	!	!	!	!	!	!	!
=85	=85	=85	=85	=85	=85	=85	=85	=85	=85	=85	=85	=85	=85	=85	=85	=85	=85	=85	=85	=85	=85
!	!	!	!	!	!	!LO:SIC:v:s=(2dd-\	!	!	!	!	!LO:SIC:v:s=2dd-\	!	!	!	!	!	!	!	!	!	!
2E-\	.	2b-\	.	2g/	.	(2dd\	.	1ryy	1ryy	1ryy	2dd\	-cen-	-dar	00r	.	00r	.	00r	.	00r	.
4E-\	.	4e-\	.	4a-/	.	4cc\)	.	.	.	.	4cc\	-tur	.	.	.	.	.	.	.	.	.
4r	.	4r	.	4r	.	4een\|	.	.	.	.	4een\	ut	non	.	.	.	.	.	.	.	.
!	!	!LO:LB:g=original	!	!	!	!	!	!	!	!	!	!	!	!	!	!	!	!	!	!	!
=86	=86	=86	=86	=86	=86	=86	=86	=86	=86	=86	=86	=86	=86	=86	=86	=86	=86	=86	=86	=86	=86
*	*	*	*	*	*	*	*	*	*	*	*	*	*ij	*	*	*	*	*	*	*	*
4r	.	4r	.	4r	.	4.ff\	.	1ryy	1ryy	1ryy	4.ff\	ae-	non	.	.	.	.	.	.	.	.
*	*	*	*	*	*	*	*	*	*	*	*	*	*Xij	*	*	*	*	*	*	*	*
4F\	.	4cc\	.	4an/	.	.	.	.	.	.	.	.	.	.	.	.	.	.	.	.	.
.	.	.	.	.	.	16ee-X\LL	.	.	.	.	16ee-X\LL	.	Con-	.	.	.	.	.	.	.	.
.	.	.	.	.	.	16dd\JJ	.	.	.	.	16ddn\JJ	.	.	.	.	.	.	.	.	.	.
!	!	!	!	!	!	!LO:N:vis=16	!	!	!	!	!	!	!	!	!	!	!	!	!	!	!
4F\	.	4cc\	.	4a/	.	12ee-\L	.	.	.	.	12ee-\L	-di-	-fun-	.	.	.	.	.	.	.	.
!	!	!	!	!	!	!LO:N:vis=16	!	!	!	!	!	!	!	!	!	!	!	!	!	!	!
.	.	.	.	.	.	12dd\	.	.	.	.	12dd\	.	.	.	.	.	.	.	.	.	.
!	!	!	!	!	!	!LO:N:vis=16	!	!	!	!	!	!	!	!	!	!	!	!	!	!	!
.	.	.	.	.	.	12ee-\J	.	.	.	.	12ee-\J	.	.	.	.	.	.	.	.	.	.
4F\	.	4cc\	.	4a/	.	(8ff\L	.	.	.	.	8ff\L	-fi-	.	.	.	.	.	.	.	.	.
.	.	.	.	.	.	8ee-\J)	.	.	.	.	8ee-\J	.	.	.	.	.	.	.	.	.	.
=87	=87	=87	=87	=87	=87	=87	=87	=87	=87	=87	=87	=87	=87	=87	=87	=87	=87	=87	=87	=87	=87
!	!	!	!	!LO:SIC:v:s=2an/	!	!	!	!	!	!	!	!	!	!	!	!	!	!	!	!	!
2F\	.	2cc\	.	2a-/	.	2ee-\	.	1ryy	1ryy	1ryy	2ee-\	-cen-	-dar	.	.	.	.	.	.	.	.
4BB-/	.	4b-\	.	4b-/	.	4dd\	.	.	.	.	4dd\	-tur	.	.	.	.	.	.	.	.	.
4A-X\	.	4b-\	.	4a-X/	.	4dd\	.	.	.	.	4dd\	mu-	in-	.	.	.	.	.	.	.	.
=88	=88	=88	=88	=88	=88	=88	=88	=88	=88	=88	=88	=88	=88	=88	=88	=88	=88	=88	=88	=88	=88
4G\	.	4b-\	.	4g/	.	(8ee-\L	.	1ryy	1ryy	1ryy	8ee-\L	-ri	.	.	.	.	.	.	.	.	.
.	.	.	.	.	.	8b-\J)	.	.	.	.	8b-\J	.	.	.	.	.	.	.	.	.	.
*	*	*	*	*	*	*tuplet	*	*	*	*	*	*	*	*	*	*	*	*	*	*	*
!	!	!	!	!LO:TUP:b:problem:klamra łukowa	!	!LO:TUP:a:problem:klamra łukowa	!	!	!	!	!	!	!	!	!	!	!	!	!	!	!
4A-\	.	8a-\L	.	12a-/L	.	12cc\L	.	.	.	.	12cc\L	Je-	-ae-	.	.	.	.	.	.	.	.
.	.	.	.	12g/	.	12b-\	.	.	.	.	12b-\	.	.	.	.	.	.	.	.	.	.
.	.	8cc\J	.	.	.	.	.	.	.	.	.	.	.	.	.	.	.	.	.	.	.
.	.	.	.	12f/J	.	12a-\J	.	.	.	.	12a-\J	.	.	.	.	.	.	.	.	.	.
4B-\	.	4b-\	.	4e-/	.	4g/	.	.	.	.	4g/	-ru-	-ter-	.	.	.	.	.	.	.	.
4BB-/	.	4b-\	.	4B-/	.	4f/	.	.	.	.	4f/	-sa-	.	.	.	.	.	.	.	.	.
=89	=89	=89	=89	=89	=89	=89	=89	=89	=89	=89	=89	=89	=89	=89	=89	=89	=89	=89	=89	=89	=89
.	.	.	.	.	.	8qqf/	.	.	.	.	8qqf/	.	.	.	.	.	.	.	.	.	.
2E-\	.	2b-\	.	2G/	.	2e-/	.	1ryy	1ryy	1ryy	2e-/	-lem	-num	00r	.	00r	.	00r	.	00r	.
2r	.	2r	.	2r	.	4b-\	.	.	.	.	8b-\	ut	non	.	.	.	.	.	.	.	.
.	.	.	.	.	.	.	.	.	.	.	8b-\	ae-	.	.	.	.	.	.	.	.	.
.	.	.	.	.	.	4b-\	.	.	.	.	8b-\	-di-	con-	.	.	.	.	.	.	.	.
.	.	.	.	.	.	.	.	.	.	.	8b-\	-fi-	.	.	.	.	.	.	.	.	.
!	!	!	!	!LO:PB:g=original	!	!	!	!	!	!	!	!	!	!	!	!	!	!	!	!	!
=90	=90	=90	=90	=90	=90	=90	=90	=90	=90	=90	=90	=90	=90	=90	=90	=90	=90	=90	=90	=90	=90
!	!	!	!	!	!LO:DY:rj	!	!LO:DY:a:t=f&colon;	!	!	!	!	!	!	!	!	!	!	!	!	!	!
4r	.	(8B-/L	.	(8d/L	p	4.b-\	f	1ryy	1ryy	1ryy	4b-\	-cen-	-fun-	.	.	.	.	.	.	.	.
.	.	8d/)	.	8f/)	.	.	.	.	.	.	.	.	.	.	.	.	.	.	.	.	.
4BB-/	.	(8B-/	.	(8d/	.	.	.	.	.	.	4bb-\	-tur	-dar	.	.	.	.	.	.	.	.
.	.	8d/J)	.	8f/J)	.	8dd\	.	.	.	.	.	.	.	.	.	.	.	.	.	.	.
!	!	!	!	!	!LO:DY:rj	!LO:TUP:a:problem:klamra łukowa	!	!	!	!	!	!	!	!	!	!	!	!	!	!	!
4D/	.	(8B-/L	f	(8d/L	f	12ff\L	.	.	.	.	2r	.	.	.	.	.	.	.	.	.	.
.	.	.	.	.	.	12dd\	.	.	.	.	.	.	.	.	.	.	.	.	.	.	.
.	.	8d/)	.	8f/)	.	.	.	.	.	.	.	.	.	.	.	.	.	.	.	.	.
.	.	.	.	.	.	12ff\J	.	.	.	.	.	.	.	.	.	.	.	.	.	.	.
!	!	!	!	!	!	!LO:TUP:a:problem:klamra łukowa	!	!	!	!	!	!	!	!	!	!	!	!	!	!	!
4BB-/	.	(8B-/	.	(8d/	.	12aa-\L	.	.	.	.	.	.	.	.	.	.	.	.	.	.	.
.	.	.	.	.	.	12ff\	.	.	.	.	.	.	.	.	.	.	.	.	.	.	.
.	.	8d/J)	.	8f/J)	.	.	.	.	.	.	.	.	.	.	.	.	.	.	.	.	.
.	.	.	.	.	.	12dd\J	.	.	.	.	.	.	.	.	.	.	.	.	.	.	.
!	!	!	!	!	!	!	!	!	!	!	!LO:LB:g=original	!	!	!	!	!	!	!	!	!	!
=91	=91	=91	=91	=91	=91	=91	=91	=91	=91	=91	=91	=91	=91	=91	=91	=91	=91	=91	=91	=91	=91
4r	.	(8B-/L	.	(8e-/L	.	2ee-\	.	1ryy	1ryy	1ryy	2r	.	.	.	.	.	.	.	.	.	.
.	.	8e-/)	.	8g/)	.	.	.	.	.	.	.	.	.	.	.	.	.	.	.	.	.
4E-\	.	(8B-/	.	(8e-/	.	.	.	.	.	.	.	.	.	.	.	.	.	.	.	.	.
.	.	8e-/J)	.	8g/J)	.	.	.	.	.	.	.	.	.	.	.	.	.	.	.	.	.
!	!	!	!	!	!	!	!LO:DY:a:t=p&colon;	!	!	!	!	!	!	!	!	!	!	!	!	!	!
4G\	.	(8B-/L	p	(8e-/L	p	4b-\	p	.	.	.	8b-\	ut	in	.	.	.	.	.	.	.	.
.	.	8e-/)	.	8g/)	.	.	.	.	.	.	8b-\	ae-	.	.	.	.	.	.	.	.	.
4E-\	.	(8B-/	.	(8e-/	.	4b-\	.	.	.	.	8b-\	-di-	ae-	.	.	.	.	.	.	.	.
.	.	8e-/J)	.	8g/J)	.	.	.	.	.	.	8b-\	-fi-	.	.	.	.	.	.	.	.	.
=92	=92	=92	=92	=92	=92	=92	=92	=92	=92	=92	=92	=92	=92	=92	=92	=92	=92	=92	=92	=92	=92
!	!	!	!	!	!	!	!LO:DY:a:t=f&colon;	!	!	!	!	!	!	!	!	!	!	!	!	!	!
4r	.	(8B-/L	.	(8d/L	.	4.b-\	f	1ryy	1ryy	1ryy	4b-\	-cen-	-ter-	.	.	.	.	.	.	.	.
.	.	8d/)	.	8f/)	.	.	.	.	.	.	.	.	.	.	.	.	.	.	.	.	.
4BB-/	.	(8B-/	.	(8d/	.	.	.	.	.	.	4bb-\	-tur	-num	.	.	.	.	.	.	.	.
.	.	8d/J)	.	8f/J)	.	8dd\	.	.	.	.	.	.	.	.	.	.	.	.	.	.	.
!	!	!	!	!	!LO:DY:rj	!LO:TUP:a:problem:klamra łukowa	!	!	!	!	!	!	!	!	!	!	!	!	!	!	!
4D/	.	(8B-/L	f	(8d/L	f	12ff\L	.	.	.	.	2r	.	.	.	.	.	.	.	.	.	.
.	.	.	.	.	.	12dd\	.	.	.	.	.	.	.	.	.	.	.	.	.	.	.
.	.	8d/)	.	8f/)	.	.	.	.	.	.	.	.	.	.	.	.	.	.	.	.	.
.	.	.	.	.	.	12ff\J	.	.	.	.	.	.	.	.	.	.	.	.	.	.	.
!	!	!	!	!	!	!LO:TUP:a:problem:klamra łukowa	!	!	!	!	!	!	!	!	!	!	!	!	!	!	!
4BB-/	.	(8B-/	.	(8d/	.	12aa-\L	.	.	.	.	.	.	.	.	.	.	.	.	.	.	.
.	.	.	.	.	.	12ff\	.	.	.	.	.	.	.	.	.	.	.	.	.	.	.
.	.	8d/J)	.	8f/J)	.	.	.	.	.	.	.	.	.	.	.	.	.	.	.	.	.
.	.	.	.	.	.	12dd\J	.	.	.	.	.	.	.	.	.	.	.	.	.	.	.
!	!	!	!	!	!	!LO:LB:g=original	!	!	!	!	!	!	!	!	!	!	!	!	!	!	!
=93	=93	=93	=93	=93	=93	=93	=93	=93	=93	=93	=93	=93	=93	=93	=93	=93	=93	=93	=93	=93	=93
!	!	!	!	!	!	!	!LO:DY:a:t=p&colon;	!	!	!	!	!	!	!	!	!	!	!	!	!	!
2E-\	.	2b-\	.	2g/	p	4ee-\	p	1ryy	1ryy	1ryy	4ee-\	ut	non	00r	.	00r	.	00r	.	00r	.
.	.	.	.	.	.	4dd-X\	.	.	.	.	4dd-X\	ae-	con-	.	.	.	.	.	.	.	.
4r	.	4r	.	4r	.	4cc\	.	.	.	.	4cc\	-di-	-fun-	.	.	.	.	.	.	.	.
!	!	!LO:SIC:v:s=4Bn/	!	!	!	!	!	!	!	!	!	!	!	!	!	!	!	!	!	!	!
4G\	.	4B-/	.	4g/	.	4bn\	.	.	.	.	4bn\	-fi-	-dar	.	.	.	.	.	.	.	.
=94	=94	=94	=94	=94	=94	=94	=94	=94	=94	=94	=94	=94	=94	=94	=94	=94	=94	=94	=94	=94	=94
2A-\	.	2c/	.	4.a-/	.	4.cc\	.	1ryy	1ryy	1ryy	4.cc\	-cen-	in	.	.	.	.	.	.	.	.
.	.	.	.	8g/	.	8een\	.	.	.	.	8een\	.	ae-	.	.	.	.	.	.	.	.
2r	.	2r	.	8f/L	.	8ff\L	.	.	.	.	(8ff\L	.	-ter-	.	.	.	.	.	.	.	.
.	.	.	.	8en/	.	(8gg\	.	.	.	.	8gg\	.	.	.	.	.	.	.	.	.	.
.	.	.	.	8f/	.	8aa-\	.	.	.	.	8aa-\	.	.	.	.	.	.	.	.	.	.
.	.	.	.	8g/J	.	8bb-X\J)	.	.	.	.	8bb-X\J)	.	.	.	.	.	.	.	.	.	.
=95	=95	=95	=95	=95	=95	=95	=95	=95	=95	=95	=95	=95	=95	=95	=95	=95	=95	=95	=95	=95	=95
2r	.	4r	.	4a-/	.	4ccc\	.	1ryy	1ryy	1ryy	4ccc\	-tur	.	.	.	.	.	.	.	.	.
.	.	4a-X\	.	(4cc\	.	(4aa-X\	.	.	.	.	4aa-X\	mu-	.	.	.	.	.	.	.	.	.
4r	.	4g\	.	4b-\	.	4gg\)	.	.	.	.	4gg\	-ri	.	.	.	.	.	.	.	.	.
4A-\	.	4f\	.	4a-\)	.	4ff\	.	.	.	.	4ff\	Je-	.	.	.	.	.	.	.	.	.
=96	=96	=96	=96	=96	=96	=96	=96	=96	=96	=96	=96	=96	=96	=96	=96	=96	=96	=96	=96	=96	=96
*tremolo	*	*tremolo	*	*	*	*	*	*	*	*	*	*	*	*	*	*	*	*	*	*	*
8B-\L	.	8e-\L	.	8g/L	.	4.ee-\	.	1ryy	1ryy	1ryy	4.ee-X\	-ru-	.	.	.	.	.	.	.	.	.
8B-\	.	8e-\	.	8g/	.	.	.	.	.	.	.	.	.	.	.	.	.	.	.	.	.
8B-\	.	8e-\	.	8g/	.	.	.	.	.	.	.	.	.	.	.	.	.	.	.	.	.
8B-\J	.	8e-\J	.	8g/J	.	8ff\	.	.	.	.	8ff\	.	.	.	.	.	.	.	.	.	.
*	*	*	*	*tremolo	*	*	*	*	*	*	*	*	*	*	*	*	*	*	*	*	*
!	!	!LO:LB:g=original	!	!	!	!LO:TX:t=t&colon;	!	!	!	!	!	!	!	!	!	!	!	!	!	!	!
8BB-/L	.	8d\L	.	8a-/L	.	2ff\	.	.	.	.	2ffT\	-sa-	.	.	.	.	.	.	.	.	.
8BB-/	.	8d\	.	8a-/	.	.	.	.	.	.	.	.	.	.	.	.	.	.	.	.	.
8BB-/	.	8d\	.	8a-/	.	.	.	.	.	.	.	.	.	.	.	.	.	.	.	.	.
8BB-/J	.	8d\J	.	8a-/J	.	.	.	.	.	.	.	.	.	.	.	.	.	.	.	.	.
*Xtremolo	*	*Xtremolo	*	*Xtremolo	*	*	*	*	*	*	*	*	*	*	*	*	*	*	*	*	*
!	!	!	!	!	!	!	!	!	!	!	!	!	!	!	!	!LO:LB:g=original	!	!	!	!	!
=97	=97	=97	=97	=97	=97	=97	=97	=97	=97	=97	=97	=97	=97	=97	=97	=97	=97	=97	=97	=97	=97
*	*	*	*	*	*	*	*	*	*	*	*	*	*	*2\right	*	*	*	*	*	*	*
.	.	.	.	.	.	.	.	.	.	.	16qqee-/LL	.	.	.	.	.	.	.	.	.	.
.	.	.	.	.	.	.	.	.	.	.	16qqff/JJ	.	.	.	.	.	.	.	.	.	.
!	!	!LO:TX:t=P:problem:mixed beam	!	!	!	!LO:TX:t=P:problem:mixed beam	!LO:DY:a:t=for&colon;	!	!	!	!	!	!	!	!	!	!	!	!	!	!
4E-\|	.	8e-\L	.	8g/L	.	8ee-\L	f	1ryy	1ryy	1ryy	4ee-\	-lem	-num	2e-\	f	2g\	f	8g/	f	8ee-\	f
!	!	!	!	!	!	!	!	!	!	!	!	!	!	!	!	!	!	!LO:TX:b:t=un Poco	!	!LO:TX:b:t=un Poco	!
.	.	16G/L|	.	16G/L|	.	16G/L|	.	.	.	.	.	.	.	.	.	.	.	4g/	.	4ee-\	.
.	.	16B-/JJ|	.	16B-/JJ|	.	16B-/JJ|	.	.	.	.	.	.	.	.	.	.	.	.	.	.	.
!	!	!	!	!LO:LB:g=original	!	!	!	!	!	!	!	!	!	!	!	!	!	!	!	!	!
8E-\L|	.	8e-\L|	.	8e-/L|	.	8e-/L|	.	.	.	.	4r	.	.	.	.	.	.	.	.	.	.
8D\J|	.	8d\J|	.	8g/J|	.	8g/J|	.	.	.	.	.	.	.	.	.	.	.	4g/	.	4ee-\	.
8E-\L|	.	8e-\L|	.	8e-/L|	.	8e-/L|	.	.	.	.	2r	.	.	4e-\	.	4g\	.	.	.	.	.
8D\|	.	8d\|	.	8d/|	.	8d/|	.	.	.	.	.	.	.	.	.	.	.	4g/	.	4ee-\	.
8C\|	.	8c\|	.	8c/|	.	8c/|	.	.	.	.	.	.	.	4e-\	.	4g\	.	.	.	.	.
8BBn\J|	.	8Bn\J|	.	8Bn/J|	.	8Bn/J|	.	.	.	.	.	.	.	.	.	.	.	8g/	.	8ee-\	.
!LO:LB:g=original	!	!	!	!	!	!	!	!	!	!	!LO:LB:g=original	!	!	!LO:LB:g=original	!	!	!	!	!	!	!
=98	=98	=98	=98	=98	=98	=98	=98	=98	=98	=98	=98	=98	=98	=98	=98	=98	=98	=98	=98	=98	=98
!	!	!LO:TX:t=P:problem:mixed beam	!	!	!	!	!	!	!	!	!	!	!	!	!	!	!	!	!	!	!
4C/	.	8c\L	.	8c/L|	.	8c/L|	.	1ryy	1ryy	1ryy	1r	.	.	2e-\	.	2g\	.	8g/	.	8ee-\	.
.	.	16E-/L|	.	16e-/L|	.	16e-/L|	.	.	.	.	.	.	.	.	.	.	.	4g/	.	4ee-\	.
.	.	16G/JJ|	.	16g/JJ|	.	16g/JJ|	.	.	.	.	.	.	.	.	.	.	.	.	.	.	.
!	!	!	!	!LO:TX:t=P:problem:mixed beam	!	!LO:TX:t=P:problem:mixed beam	!	!	!	!	!	!	!	!	!	!	!	!	!	!	!
8c\L|	.	8c/L|	.	8cc\L|>	.	8cc\L|>	.	.	.	.	.	.	.	.	.	.	.	.	.	.	.
8Bn\J|	.	8Bn/J|	.	8c/J|	.	8c/J|>	.	.	.	.	.	.	.	.	.	.	.	4g/	.	4ee-\	.
8c\L|	.	8c/L|	.	8cc\L|	.	8cc\L|	.	.	.	.	.	.	.	4e-\	.	4g\	.	.	.	.	.
8B-X\|	.	8B-X/|	.	8b-X\|	.	8b-X\|	.	.	.	.	.	.	.	.	.	.	.	4g/	.	4ee-\	.
8A-\|	.	8A-/|	.	8a-\|	.	8a-\|	.	.	.	.	.	.	.	4e-\	.	4g\	.	.	.	.	.
8G\J|	.	8G/J|	.	8g\J|	.	8g\J|	.	.	.	.	.	.	.	.	.	.	.	8g/	.	8ee-\	.
=99	=99	=99	=99	=99	=99	=99	=99	=99	=99	=99	=99	=99	=99	=99	=99	=99	=99	=99	=99	=99	=99
!	!	!	!	!	!	!	!	!	!	!	!	!	!	!LO:TX:t=P:problem:brak taktu	!	!	!	!	!	!	!
2G\	.	(8A-/L	.	(8a-/L	.	(8a-/L	.	1ryy	1ryy	1ryy	1r	.	.	1ryy	.	2f\	.	8f/	.	8ee-\	.
.	.	8G/)	.	8g/)	.	8g/)	.	.	.	.	.	.	.	.	.	.	.	4f/	.	4ee-\	.
.	.	(8c/	.	(8cc/	.	(8cc/	.	.	.	.	.	.	.	.	.	.	.	.	.	.	.
.	.	8B-/J)	.	8b-/J)	.	8b-/J)	.	.	.	.	.	.	.	.	.	.	.	4f/	.	4ee-\	.
4A-\	.	8A-/L	.	(8a-/L	.	(8a-/L	.	.	.	.	.	.	.	.	.	4f\	.	.	.	.	.
.	.	8G/	.	8g/	.	8g/)	.	.	.	.	.	.	.	.	.	.	.	4f/	.	4ee-\	.
4An\	.	8A-/	.	8a-/)	.	8a-/|	.	.	.	.	.	.	.	.	.	4f\	.	.	.	.	.
.	.	8An/J	.	8an/J|	.	8an/J|	.	.	.	.	.	.	.	.	.	.	.	8f/	.	8ee-\	.
=100	=100	=100	=100	=100	=100	=100	=100	=100	=100	=100	=100	=100	=100	=100	=100	=100	=100	=100	=100	=100	=100
!	!	!	!	!	!	!	!LO:DY:b:rj:t=p&colon;	!	!	!	!	!	!	!	!	!	!	!	!	!	!
2B-;\	p	2B-;/	p	2b-;\	.	2b-;\	p	1.ryy	1.ryy	1.ryy	2b-\	Je-	ae-	2B-;/	.	2f;\	p	2f;/	.	2dd;\	.
*	*	*	*	*	*	*	*	*	*	*	*rscale:1/2	*	*	*	*	*	*	*	*	*	*
2r	.	2r	.	2r	.	2r	.	.	.	.	28b-;\LL	-ru-	-ter-	2r	.	2r	.	2r	.	2r	.
.	.	.	.	.	.	.	.	.	.	.	28cc\	.	.	.	.	.	.	.	.	.	.
.	.	.	.	.	.	.	.	.	.	.	28dd\	.	.	.	.	.	.	.	.	.	.
.	.	.	.	.	.	.	.	.	.	.	28ee-\	.	.	.	.	.	.	.	.	.	.
.	.	.	.	.	.	.	.	.	.	.	28ff\	.	.	.	.	.	.	.	.	.	.
.	.	.	.	.	.	.	.	.	.	.	28gg\	.	.	.	.	.	.	.	.	.	.
.	.	.	.	.	.	.	.	.	.	.	28aa-\JJ	.	.	.	.	.	.	.	.	.	.
*	*	*	*	*	*	*	*	*	*	*	*rscale:1	*	*	*	*	*	*	*	*	*	*
.	.	.	.	.	.	.	.	.	.	.	4ff\	.	.	.	.	.	.	.	.	.	.
2ryy	.	2ryy	.	2ryy	.	2ryy	.	.	.	.	4dd\	.	.	2ryy	.	2ryy	.	2ryy	.	2ryy	.
.	.	.	.	.	.	.	.	.	.	.	4b-\	.	.	.	.	.	.	.	.	.	.
!	!	!	!	!	!	!LO:LB:g=original	!	!	!	!	!	!	!	!	!	!	!	!	!	!	!
=101	=101	=101	=101	=101	=101	=101	=101	=101	=101	=101	=101	=101	=101	=101	=101	=101	=101	=101	=101	=101	=101
1ryy	.	1ryy	.	1ryy	.	1ryy	.	1ryy	1ryy	1ryy	4a-/	.	.	1ryy	.	1ryy	.	1ryy	.	1ryy	.
.	.	.	.	.	.	.	.	.	.	.	4f/	.	.	.	.	.	.	.	.	.	.
.	.	.	.	.	.	.	.	.	.	.	4d/	.	.	.	.	.	.	.	.	.	.
.	.	.	.	.	.	.	.	.	.	.	4B-/	.	.	.	.	.	.	.	.	.	.
=	=	=	=	=	=	=	=	=	=	=	=	=	=	=	=	=	=	=	=	=	=
1ryy	.	1ryy	.	1ryy	.	1ryy	.	1ryy	1ryy	1ryy	4.aa-T\	-sa-	.	1ryy	.	1ryy	.	1ryy	.	1ryy	.
.	.	.	.	.	.	.	.	.	.	.	24gg\L	.	.	.	.	.	.	.	.	.	.
.	.	.	.	.	.	.	.	.	.	.	24ff\	.	.	.	.	.	.	.	.	.	.
.	.	.	.	.	.	.	.	.	.	.	24gg\J	.	.	.	.	.	.	.	.	.	.
.	.	.	.	.	.	.	.	.	.	.	12aa-\L	.	.	.	.	.	.	.	.	.	.
.	.	.	.	.	.	.	.	.	.	.	12gg\	.	.	.	.	.	.	.	.	.	.
.	.	.	.	.	.	.	.	.	.	.	12ff\J	.	.	.	.	.	.	.	.	.	.
.	.	.	.	.	.	.	.	.	.	.	12ee-\L	.	.	.	.	.	.	.	.	.	.
.	.	.	.	.	.	.	.	.	.	.	12ff\	.	.	.	.	.	.	.	.	.	.
.	.	.	.	.	.	.	.	.	.	.	12ee-\J	.	.	.	.	.	.	.	.	.	.
=	=	=	=	=	=	=	=	=	=	=	=	=	=	=	=	=	=	=	=	=	=
4E-\	f	4e-\	f	2g/	.	2ee-\	.	1ryy	1ryy	1ryy	4ee-\	-lem	-num	2G/	.	2e-\	.	2r	.	2r	.
4BB-/	.	4B-\	.	.	.	.	.	.	.	.	4r	.	.	.	.	.	.	.	.	.	.
!	!	!	!	!or	!LO:DY:t=for	!or	!	!	!	!	!	!	!	!	!	!	!	!	!	!	!
4EE-/	.	4e-\	.	4r	f	4r	.	.	.	.	2r	.	.	2r	.	2r	.	4r	.	4r	.
!	!	!	!	!	!	!	!LO:DY:a:t=for	!	!	!	!	!	!	!	!	!	!	!	!	!	!
4r	.	4r	.	8d/L	.	8f/L	f	.	.	.	.	.	.	.	.	.	.	8dd\L	f	8ff\L	.
.	.	.	.	8e-/J	.	8g/J	.	.	.	.	.	.	.	.	.	.	.	8ee-\J	.	8gg\J	f
=102	=102	=102	=102	=102	=102	=102	=102	=102	=102	=102	=102	=102	=102	=102	=102	=102	=102	=102	=102	=102	=102
8BB-/L	f	8d\L	f	8f/L	p	8a-/L	.	1ryy	1ryy	1ryy	00r	.	.	1B-	f	1f	.	8ff\L	.	8aa-\L	p
8BB-/	.	8d\	.	8f/	.	8a-/J	.	.	.	.	.	.	.	.	.	.	.	8ff\J	.	8aa-\J	.
8BB-/	p	8d\	p	8f/	.	8r	.	.	.	.	.	.	.	.	.	.	.	4r	.	4r	.
!	!	!	!	!	!	!	!LO:DY:a:t=p&colon;	!	!	!	!	!	!	!	!	!	!	!	!	!	!
8BB-/J	.	8d\J	.	8f/J	.	8f/	p	.	.	.	.	.	.	.	p	.	.	.	.	.	.
*	*	*	*	*tremolo	*	*	*	*	*	*	*	*	*	*	*	*	*	*	*	*	*
8D/L	.	8B-\L	.	8f/L	.	8r	.	.	.	.	.	.	.	.	.	.	.	2r	.	2r	.
8D/	.	8B-\	.	8f/	.	8ff\	.	.	.	.	.	.	.	.	.	.	.	.	.	.	.
8BB-/	.	8d\	.	8f/	.	8r	.	.	.	.	.	.	.	.	.	.	.	.	.	.	.
!	!	!	!	!	!	!	!LO:DY:a:t=f&colon;	!	!	!	!	!	!	!	!	!	!	!	!	!	!
8BB-/J	.	8d\J	.	8f/J	.	8a-/	f	.	.	.	.	.	.	.	.	.	.	.	.	.	.
*	*	*	*	*Xtremolo	*	*	*	*	*	*	*	*	*	*	*	*	*	*	*	*	*
=103	=103	=103	=103	=103	=103	=103	=103	=103	=103	=103	=103	=103	=103	=103	=103	=103	=103	=103	=103	=103	=103
*tremolo	*	*tremolo	*	*	*	*	*	*	*	*	*	*	*	*	*	*	*	*	*	*	*
8BB-/L	f	8e-\L	f	8g/L	f	8b-/L	.	1ryy	1ryy	1ryy	.	.	.	1e-	f	1g	.	8gg\L	.	8bb-\L	.
8BB-/	.	8e-\	.	8g/	.	8b-/J	.	.	.	.	.	.	.	.	.	.	.	8gg\J	.	8bb-\J	.
8BB-/	.	8e-\	.	8g/	p	8r	.	.	.	.	.	.	.	.	.	.	.	4r	.	4r	.
!	!	!	!	!	!	!	!LO:DY:a:t=p&colon;	!	!	!	!	!	!	!	!	!	!	!	!	!	!
8BB-/J	p	8e-\J	p	8g/J	.	8g/	p	.	.	.	.	.	.	.	p	.	.	.	.	.	.
*	*	*	*	*tremolo	*	*	*	*	*	*	*	*	*	*	*	*	*	*	*	*	*
8BB-/L	.	8e-\L	.	8g/L	.	8r	.	.	.	.	.	.	.	.	.	.	.	2r	.	2r	.
8BB-/	.	8e-\	.	8g/	.	8gg\	.	.	.	.	.	.	.	.	.	.	.	.	.	.	.
8BB-/	.	8e-\	.	8g/	.	8r	.	.	.	.	.	.	.	.	.	.	.	.	.	.	.
!	!	!	!	!	!	!	!LO:DY:a:t=f&colon;	!	!	!	!	!	!	!	!	!	!	!	!	!	!
8BB-/J	.	8e-\J	.	8g/J	.	8b-\	f	.	.	.	.	.	.	.	.	.	.	.	.	.	.
*	*	*	*	*Xtremolo	*	*	*	*	*	*	*	*	*	*	*	*	*	*	*	*	*
=104	=104	=104	=104	=104	=104	=104	=104	=104	=104	=104	=104	=104	=104	=104	=104	=104	=104	=104	=104	=104	=104
8BB-/L	f	8d\L	f	8f/L	f	8a-/L	.	1ryy	1ryy	1ryy	.	.	.	1B-	f	1f	.	8ff\L	.	8aa-\L	.
8BB-/	.	8d\	.	8f/	.	8a-/J	.	.	.	.	.	.	.	.	.	.	.	8ff\J	.	8aa-\J	.
8BB-/	.	8d\	.	8f/	p	8r	.	.	.	.	.	.	.	.	.	.	.	4r	.	4r	.
!	!	!	!	!	!	!.	!LO:DY:a:t=p&colon;	!	!	!	!	!	!	!	!	!	!	!	!	!	!
8BB-/J	p	8d\J	p	8f/J	.	8f/	p	.	.	.	.	.	.	.	p	.	.	.	.	.	.
*Xtremolo	*	*Xtremolo	*	*tremolo	*	*	*	*	*	*	*	*	*	*	*	*	*	*	*	*	*
!	!	!	!	!	!	!	!	!	!	!	!	!	!	!	!	!	!	!	!	!LO:LB:g=original	!
8D/L	.	8B-\L	.	8f/L	.	8r	.	.	.	.	.	.	.	.	.	.	.	2r	.	2r	.
8D/	.	8B-\	.	8f/	.	8ff\	.	.	.	.	.	.	.	.	.	.	.	.	.	.	.
8BB-/	.	8d\	.	8f/	.	8r	.	.	.	.	.	.	.	.	.	.	.	.	.	.	.
8BB-/J	.	8d\J	.	8f/J	.	8a-/	.	.	.	.	.	.	.	.	.	.	.	.	.	.	.
!	!	!	!	!	!	!	!	!	!	!	!	!	!	!	!	!	!	!LO:LB:g=original	!	!	!
=105	=105	=105	=105	=105	=105	=105	=105	=105	=105	=105	=105	=105	=105	=105	=105	=105	=105	=105	=105	=105	=105
*tremolo	*	*tremolo	*	*	*	*	*	*	*	*	*	*	*	*	*	*	*	*	*	*	*
!	!	!	!	!	!	!	!LO:DY:a:rj:t=f&colon;	!	!	!	!	!	!	!	!	!	!	!	!	!	!
8BB-/L	f	8e-\L	f	8g/L	f	8b-\L	f	1ryy	1ryy	1ryy	.	.	.	1e-	f	1g	.	8gg\L	.	8bb-\L	.
8BB-/	.	8e-\	.	8g/	.	8b-\J	.	.	.	.	.	.	.	.	.	.	.	8gg\J	.	8bb-\J	.
8BB-/	.	8e-\	.	8g/	.	8r	.	.	.	.	.	.	.	.	.	.	.	4r	.	4r	.
!	!	!	!	!	!	!	!LO:DY:a:t=p&colon;	!	!	!	!	!	!	!	!	!	!	!	!	!	!
8BB-/J	p	8e-\J	p	8g/J	p	8g/	p	.	.	.	.	.	.	.	p	.	.	.	.	.	.
!	!	!LO:LB:g=original	!	!LO:LB:g=original	!	!	!	!	!	!	!	!	!	!	!	!	!	!	!	!	!
8BB-/L	.	8e-\L	.	8g/L	.	8r	.	.	.	.	.	.	.	.	.	.	.	2r	.	2r	.
8BB-/	.	8e-\	.	8g/	.	8gg\	.	.	.	.	.	.	.	.	.	.	.	.	.	.	.
8BB-/	.	8e-\	.	8g/	.	8r	.	.	.	.	.	.	.	.	.	.	.	.	.	.	.
!	!	!	!	!	!	!	!LO:DY:b:t=f&colon;	!	!	!	!	!	!	!	!	!	!	!	!	!	!
8BB-/J	.	8e-\J	.	8g/J	.	8b-\	f	.	.	.	.	.	.	.	.	.	.	.	.	.	.
*Xtremolo	*	*Xtremolo	*	*Xtremolo	*	*	*	*	*	*	*	*	*	*	*	*	*	*	*	*	*
=106	=106	=106	=106	=106	=106	=106	=106	=106	=106	=106	=106	=106	=106	=106	=106	=106	=106	=106	=106	=106	=106
!	!	!	!	!	!	!LO:TX:a:t=dolce	!	!	!	!	!	!	!	!	!LO:DY:rj	!	!	!	!	!LO:TX:b:i:t=Dolce	!
4E-\	.	4e-\	f	(8a-/L	f	8cc\L	.	1ryy	1ryy	1ryy	00r	.	.	4E-/	f	4e-\	.	8aa-\L	f	(8ccc\L	.
.	.	.	.	8g/J)	.	[8b-\J	.	.	.	.	.	.	.	.	.	.	.	8gg\J	.	8bb-\J)	.
!	!	!	!	!LO:TX:b:i:t=Dolce	!	!	!	!	!	!	!	!	!	!	!	!	!	!LO:TX:b:i:t=Dolce	!	!	!
4r	.	4r	.	4g/	.	4b-\]	.	.	.	.	.	.	.	4r	.	4r	.	4gg\	.	4bb-\	.
4A-\	p	4e-\	.	(8f/L	.	(8a-/L	.	.	.	.	.	.	.	4e-\	.	4b-\	.	8ff\L	.	(8aa-\L	.
.	.	.	.	8e-/J)	.	8g/J	.	.	.	.	.	.	.	.	.	.	.	8ee-\J	.	8gg\J)	.
4E-\	.	4B-/	.	4e-/	.	4g/)	.	.	.	.	.	.	.	4e-\	.	4b-\	.	4ee-\	.	4gg\	.
=107	=107	=107	=107	=107	=107	=107	=107	=107	=107	=107	=107	=107	=107	=107	=107	=107	=107	=107	=107	=107	=107
!	!	!	!	!	!	!	!LO:DY:a	!	!	!	!	!	!	!	!	!	!	!	!	!	!
4A-\	.	4c/	p	4A-/	.	(8g/L	p	1ryy	1ryy	1ryy	.	.	.	4B-/	p	4a-\	p	4a-/	p	8gg\L	p
.	.	.	.	.	.	8f/	.	.	.	.	.	.	.	.	.	.	.	.	.	8ff\	.
4F\	.	8A-/L	.	(8c/L	.	8a-/	.	.	.	.	.	.	.	4r	.	4r	.	8cc/L	.	8aa-\	.
.	.	8c/J	.	8A-/J)	f	8f/J)	.	.	.	.	.	.	.	.	.	.	.	8a-/J	.	8ff\J	.
!	!	!	!	!	!	!	!LO:DY:a	!	!	!	!	!	!	!	!	!	!	!	!	!	!
4B-\	.	4B-/	.	4G/	.	4e-/	f	.	.	.	.	.	.	4e-\	f	4g\	.	4g/	f	4ee-\	f
4BB-/	f	4f\	.	4A-/	.	4d/	.	.	.	.	.	.	.	4B-/	.	4f\	f	4f/	.	4dd\	.
!	!	!	!	!	!	!LO:LB:g=original	!	!	!	!	!	!	!	!	!	!	!	!	!	!	!
=108	=108	=108	=108	=108	=108	=108	=108	=108	=108	=108	=108	=108	=108	=108	=108	=108	=108	=108	=108	=108	=108
4E-\	.	4B-/	.	4G/	.	4e-/	.	1ryy	1ryy	1ryy	.	.	.	4G/	.	4e-\	.	4g/	.	4ee-\	.
4r	.	4r	p	8r	p	8r	.	.	.	.	.	.	.	4r	.	4r	.	4r	.	4r	.
!	!	!	!	!	!	!	!LO:DY:a:t=p&colon;	!	!	!	!	!	!	!	!	!	!	!	!	!	!
.	.	.	.	8G/	.	8B-/	p	.	.	.	.	.	.	.	p	.	.	.	.	.	.
4E-\	p	8.C/L	.	8.A-/L	.	8.c/L	.	.	.	.	.	.	.	8.E-/L	.	8.E-/L	.	2r	.	2r	.
.	.	16C/K	.	16A-/K	.	16c/K	.	.	.	.	.	.	.	16E-/K	.	16E-/K	.	.	.	.	.
4E-\	.	8.D/	.	8A-/	.	8.d/	.	.	.	.	.	.	.	8E-/	.	8E-/	.	.	.	.	.
.	.	.	.	8A-/J	.	.	.	.	.	.	.	.	.	8E-/J	.	8E-/J	.	.	.	.	.
.	.	16D/Jk	.	.	.	16d/Jk	.	.	.	.	.	.	.	.	.	.	.	.	.	.	.
!LO:LB:g=original	!	!	!	!	!	!	!	!	!	!	!	!	!	!	!	!	!	!	!	!	!
=109	=109	=109	=109	=109	=109	=109	=109	=109	=109	=109	=109	=109	=109	=109	=109	=109	=109	=109	=109	=109	=109
4E-\	.	4E-/	.	4G/	.	4e-/	.	1ryy	1ryy	1ryy	.	.	.	4E-/	.	4E-/	.	4r	.	4r	.
!	!	!	!	!	!	!	!LO:DY:a:t=f&colon;	!	!	!	!	!	!	!	!	!	!	!	!	!	!
8r	.	4r	.	8r	f	8r	f	.	.	.	.	.	.	8r	.	8r	.	8r	.	8r	.
8A-\	f	.	.	8f/	.	8a-/	.	.	.	.	.	.	.	8f\	f	8a-\	.	8ff\	f	8aa-\	f
4B-\	.	4b-\	f	8.e-/L	.	8.g/L	.	.	.	.	.	.	.	4e-\	.	4g\	.	8.ee-\L	.	8.gg\L	.
.	.	.	.	16e-/K	.	16b-/K	.	.	.	.	.	.	.	.	.	.	.	16ee-\Jk	.	16gg\K	.
4BB-/	.	4b-\	.	8.B-/	.	8.d/	.	.	.	.	.	.	.	4B-/	.	4f\	.	8.b-\L	.	8.ff\	.
.	.	.	.	16B-/Jk	.	16f/Jk	.	.	.	.	.	.	.	.	.	.	.	16b-\Jk	.	16ff\Jk	.
=110	=110	=110	=110	=110	=110	=110	=110	=110	=110	=110	=110	=110	=110	=110	=110	=110	=110	=110	=110	=110	=110
!	!	!	!	!	!	!	!	!	!	!	!	!	!	!	!	!LO:TX:t=P:problem:tt. 111-112 zapisane repetycją dopisaną ołówkiem	!	!	!	!	!
4E-\	.	4b-\	.	4G/	.	4e-/	.	1ryy	1ryy	1ryy	00r	.	.	4G/	.	4e-\yy	.	4g/	.	4ee-\	.
4r	.	4r	p	8r	p	8r	.	.	.	.	.	.	.	4r	.	4ryy	.	4r	.	4r	.
!	!	!	!	!	!	!	!LO:DY:a:t=p&colon;	!	!	!	!	!	!	!	!	!	!	!	!	!	!
.	.	.	.	8G/	.	8B-/	p	.	.	.	.	.	.	.	p	.	.	.	.	.	.
4E-\	p	8.C/L	.	8.A-/L	.	8.c/L	.	.	.	.	.	.	.	8.E-/L	.	8.E-/Lyy	.	2r	.	2r	.
.	.	16C/K	.	16A-/K	.	16c/K	.	.	.	.	.	.	.	16E-/K	.	16E-/Kyy	.	.	.	.	.
4E-\	.	8.D/	.	8A-/	.	8.d/	.	.	.	.	.	.	.	8E-/	.	8E-/yy	.	.	.	.	.
.	.	.	.	8A-/J	.	.	.	.	.	.	.	.	.	8E-/J	.	8E-/Jyy	.	.	.	.	.
.	.	16D/Jk	.	.	.	16d/Jk	.	.	.	.	.	.	.	.	.	.	.	.	.	.	.
!	!	!	!	!	!	!	!	!	!	!	!	!	!	!LO:LB:g=original	!	!	!	!	!	!	!
=111	=111	=111	=111	=111	=111	=111	=111	=111	=111	=111	=111	=111	=111	=111	=111	=111	=111	=111	=111	=111	=111
4E-\	.	4E-/	.	4G/	.	4e-/	.	1ryy	1ryy	1ryy	.	.	.	4E-/	.	4E-/yy	.	4r	.	4r	.
!	!	!	!	!	!	!	!LO:DY:a:t=f&colon;	!	!	!	!	!	!	!	!	!	!	!	!	!	!
8r	.	4r	.	8r	.	8r	f	.	.	.	.	.	.	8r	.	8ryy	.	8r	.	8r	.
8A-\	f	.	.	8f/	.	8a-/	.	.	.	.	.	.	.	8f\	.	8a-\yy	.	8ff\	.	8aa-\	.
4B-\	.	4b-\	.	8.e-/L	.	8.g/L	.	.	.	.	.	.	.	4e-\	.	4g\yy	.	8.ee-\L	.	8.gg\L	.
.	.	.	.	16e-/K	.	16b-/K	.	.	.	.	.	.	.	.	.	.	.	16ee-\K	.	16gg\K	.
4BB-/	.	4b-\	.	8.B-/	.	8.d/	.	.	.	.	.	.	.	4B-/	.	4f\yy	.	8.b-\	.	8.ff\	.
.	.	.	.	16B-/Jk	.	16f/Jk	.	.	.	.	.	.	.	.	.	.	.	16b-\Jk	.	16ff\Jk	.
!	!	!	!	!	!	!	!	!	!	!	!	!	!	!	!	!LO:PB:g=original	!	!	!	!	!
=112	=112	=112	=112	=112	=112	=112	=112	=112	=112	=112	=112	=112	=112	=112	=112	=112	=112	=112	=112	=112	=112
4.E-\	.	4.b-\	.	4.G/	.	4.e-/	.	1ryy	1ryy	1ryy	.	.	.	4.G/	.	4.e-\	.	4.g/	.	4.ee-\	.
8E-\	.	8b-\	.	8G/	.	8e-/	.	.	.	.	.	.	.	8G/	.	8e-\	.	8g/	.	8ee-\	.
4E-\	.	4B-/	.	4G/	.	4e-/	.	.	.	.	.	.	.	4G/	.	4e-\	.	4g/	.	4ee-\	.
4E-\	.	4B-/	.	4G/	.	4e-/	.	.	.	.	.	.	.	4G/	.	4e-\	.	4g/	.	4ee-\	.
!	!	!	!	!LO:LB:g=original	!	!	!	!	!	!	!	!	!	!	!	!	!	!	!	!	!
=113	=113	=113	=113	=113	=113	=113	=113	=113	=113	=113	=113	=113	=113	=113	=113	=113	=113	=113	=113	=113	=113
!LO:TX:t=P:problem:zbędny takt w Canto	!	!LO:TX:t=P:problem:zbędny takt w Canto	!	!LO:TX:t=P:problem:zbędny takt w Canto	!	!LO:TX:t=P:problem:zbędny takt w Canto	!	!LO:TX:t=P:problem:zbędny takt w Canto	!LO:TX:t=P:problem:zbędny takt w Canto	!LO:TX:t=P:problem:zbędny takt w Canto	!LO:TX:t=P:problem:zbędny takt	!	!	!LO:TX:t=P:problem:zbędny takt w Canto	!	!LO:TX:t=P:problem:zbędny takt w Canto	!	!LO:TX:t=P:problem:zbędny takt w Canto	!	!LO:TX:t=P:problem:zbędny takt w Canto	!
1ryy	.	1ryy	.	1ryy	.	1ryy	.	1ryy	1ryy	1ryy	.	.	.	1ryy	.	1ryy	.	1ryy	.	1ryy	.
=114	=114	=114	=114	=114	=114	=114	=114	=114	=114	=114	=114	=114	=114	=114	=114	=114	=114	=114	=114	=114	=114
!	!	!	!	!	!	!	!	!	!	!	!	!	!	!LO:TX:a:t=finis	!	!	!	!LO:TX:b:t=finis	!	!	!
2E-\	.	2B-/	.	2G/	.	2e-/	.	1ryy	1ryy	1ryy	2r	.	.	2G/	.	2e-\	.	2g;/	.	2ee-\	.
!	!	!LO:TX:a:t=finis	!	!LO:TX:a:t=finis	!	!	!	!	!	!	!LO:TX:b:t=finis	!	!	!	!	!	!	!	!	!LO:TX:a:t=finis	!
2r	.	2r	.	2r	.	4r;	.	.	.	.	4r;	.	.	2r	.	2r	.	2r	.	2r	.
*>B	*>B	*>B	*>B	*>B	*>B	*>B	*>B	*>B	*>B	*>B	*>B	*>B	*>B	*>B	*>B	*>B	*>B	*>B	*>B	*>B	*>B
.	.	.	.	.	.	4g/	.	.	.	.	(4g\	tunc	in	.	.	.	.	.	.	.	.
!LO:TX:t=P:problem:pojedyncza kreskta taktowa	!	!	!	!	!	!	!	!	!	!	!	!	!	!	!	!LO:TX:a:t=finis	!	!	!	!LO:LB:g=original	!
=115||	=115||	=115||	=115||	=115||	=115||	=115||	=115||	=115||	=115||	=115||	=115||	=115||	=115||	=115||	=115||	=115||	=115||	=115||	=115||	=115||	=115||
!	!	!	!	!	!	!	!LO:DY:a:rj:t=pp&colon;	!	!	!	!	!	!	!	!	!	!	!LO:TX:a:t=18	!	!LO:TX:a:t=18	!
4r	.	4r	.	4r	pp	4cc\	pp	1ryy	1ryy	1ryy	4cc\)	.	.	00r	.	00r	.	00r	.	00r	.
4C/	pp	4g\	.	4e-/	.	4cc\	.	.	.	.	4cc\	tunc	ju-	.	.	.	.	.	.	.	.
4E-\	.	4g\	.	4e-/	.	4cc\	.	.	.	.	4cc\	ac-	-sti-	.	.	.	.	.	.	.	.
4C/	.	4g\	.	4e-/	.	8dd\L	.	.	.	.	8dd\L	-cep-	-ti-	.	.	.	.	.	.	.	.
.	.	.	.	.	.	8ee-\J	.	.	.	.	8ee-\J	.	-a	.	.	.	.	.	.	.	.
=116	=116	=116	=116	=116	=116	=116	=116	=116	=116	=116	=116	=116	=116	=116	=116	=116	=116	=116	=116	=116	=116
4r	.	4r	.	4r	.	8ee-\L	.	1ryy	1ryy	1ryy	8ee-\L	-ta-	tu-	.	.	.	.	.	.	.	.
.	.	.	.	.	.	8dd\J	.	.	.	.	8dd\J	.	.	.	.	.	.	.	.	.	.
4GG/	.	4Bn/	.	4d/	.	4dd\	.	.	.	.	4dd\	-bis	-a	.	.	.	.	.	.	.	.
4BBn/	.	4B/	.	4d/	.	4r	.	.	.	.	4r	.	.	.	.	.	.	.	.	.	.
4GG/	.	4B/	.	4d/	.	4ff\	.	.	.	.	8ff\	Sa-	li-	.	.	.	.	.	.	.	.
.	.	.	.	.	.	.	.	.	.	.	8ff\	-cri-	.	.	.	.	.	.	.	.	.
!	!	!LO:LB:g=original	!	!	!	!LO:LB:g=original	!	!	!	!	!	!	!	!	!	!	!	!	!	!	!
=117	=117	=117	=117	=117	=117	=117	=117	=117	=117	=117	=117	=117	=117	=117	=117	=117	=117	=117	=117	=117	=117
.	.	.	.	.	.	8qqff/	.	.	.	.	16qqff/	.	.	.	.	.	.	.	.	.	.
4C/	.	2g\	.	4c/	.	(4ee-\	.	1ryy	1ryy	1ryy	4ee-\	-fi-	-be-	.	.	.	.	.	.	.	.
4E-\	.	.	.	4e-/	.	8dd\L	.	.	.	.	8dd\L	-ci-	-ra	.	.	.	.	.	.	.	.
.	.	.	.	.	.	8cc\J)	.	.	.	.	8cc\J	.	.	.	.	.	.	.	.	.	.
.	.	.	.	.	.	8qqee-/	.	.	.	.	8qqee-/	.	.	.	.	.	.	.	.	.	.
4G\	.	4g\	.	8g/L	.	4dd\	.	.	.	.	4dd\	-um	li-	.	.	.	.	.	.	.	.
.	.	.	.	8f/	.	.	.	.	.	.	.	.	.	.	.	.	.	.	.	.	.
4GG/	.	4g\	.	8e-/	.	(8cc\L	.	.	.	.	8cc\L	ju-	-be-	.	.	.	.	.	.	.	.
.	.	.	.	8d/J	.	8bn\J)	.	.	.	.	8bn\J	.	-ra	.	.	.	.	.	.	.	.
!	!	!	!	!	!	!	!	!	!	!	!LO:LB:g=original	!	!	!	!	!	!	!	!	!	!
=118	=118	=118	=118	=118	=118	=118	=118	=118	=118	=118	=118	=118	=118	=118	=118	=118	=118	=118	=118	=118	=118
!	!	!	!	!	!	!LO:SIC:v:s=bn	!	!	!	!	!	!	!	!	!	!	!	!	!	!	!
4C/	.	4g\	.	4d/	.	4b-\	.	1ryy	1ryy	1ryy	8.bn\	-sti-	me	.	.	.	.	.	.	.	.
.	.	.	.	.	.	.	.	.	.	.	16b\	-ti-	.	.	.	.	.	.	.	.	.
4GG/	.	4g\	.	4e-/	.	4cc\	.	.	.	.	4cc\	-ae	.	.	.	.	.	.	.	.	.
4CC/	.	2r	.	2r	.	4r	.	.	.	.	4r	.	.	.	.	.	.	.	.	.	.
4r	.	.	.	.	.	(8g\L	.	.	.	.	8g\	Sa-	in	.	.	.	.	.	.	.	.
.	.	.	.	.	.	8cc\J)	.	.	.	.	8cc\	-cri-	ju-	.	.	.	.	.	.	.	.
=119	=119	=119	=119	=119	=119	=119	=119	=119	=119	=119	=119	=119	=119	=119	=119	=119	=119	=119	=119	=119	=119
.	.	.	.	.	.	8qqb-/	.	.	.	.	16qqb-/	.	.	.	.	.	.	.	.	.	.
4r	.	4r	.	4r	.	4a-/	.	1ryy	1ryy	1ryy	8.a-\	-fi-	-sti-	00r	.	00r	.	00r	.	00r	.
.	.	.	.	.	.	.	.	.	.	.	16a-\	-ci-	-ti-	.	.	.	.	.	.	.	.
4C/	.	4g\	.	4e-/	.	4g/	.	.	.	.	4g\	-um	-a	.	.	.	.	.	.	.	.
4C/	.	4g\	.	4e-/	.	8r	.	.	.	.	8r	.	.	.	.	.	.	.	.	.	.
.	.	.	.	.	.	8ee-\L|	.	.	.	.	8ee-\L	Ju-	in	.	.	.	.	.	.	.	.
4C/	.	4g\	.	4e-/	.	(8cc\	.	.	.	.	8cc\	.	.	.	.	.	.	.	.	.	.
.	.	.	.	.	.	8g\J)	.	.	.	.	8g\J	.	jus-	.	.	.	.	.	.	.	.
=120	=120	=120	=120	=120	=120	=120	=120	=120	=120	=120	=120	=120	=120	=120	=120	=120	=120	=120	=120	=120	=120
.	.	.	.	.	.	8qqg/	.	.	.	.	8qqg/	.	.	.	.	.	.	.	.	.	.
4BBn/	.	4g\	.	4d/	.	4f/	.	1ryy	1ryy	1ryy	8.f/	-si-	-ti-	.	.	.	.	.	.	.	.
.	.	.	.	.	.	.	.	.	.	.	16f/	-ti-	-ti-	.	.	.	.	.	.	.	.
4C/	.	4g\	.	4c/	.	4e-/	.	.	.	.	4e-/	-ae	-a	.	.	.	.	.	.	.	.
4CC/	.	2r	.	2r	.	4r	.	.	.	.	4r	.	.	.	.	.	.	.	.	.	.
4r	.	.	.	.	.	(8cc\L	.	.	.	.	8cc\L	o-	tu-	.	.	.	.	.	.	.	.
.	.	.	.	.	.	8ee-\J)	.	.	.	.	8ee-\J	.	.	.	.	.	.	.	.	.	.
=121	=121	=121	=121	=121	=121	=121	=121	=121	=121	=121	=121	=121	=121	=121	=121	=121	=121	=121	=121	=121	=121
2C/	.	2e-\	.	4g/	.	(4ee-\	.	1ryy	1ryy	1ryy	4ee-\	-bla-	.	.	.	.	.	.	.	.	.
.	.	.	.	8f/L	.	8dd\L	.	.	.	.	8dd\L	.	-a	.	.	.	.	.	.	.	.
.	.	.	.	8g/J	.	8ee-\J)	.	.	.	.	8ee-\J	.	.	.	.	.	.	.	.	.	.
4F\	.	4f\	.	8a-/L	.	8ff\L	.	.	.	.	8ff\L	.	li-	.	.	.	.	.	.	.	.
.	.	.	.	8g/	.	(8ee-\	.	.	.	.	8ee-\J	.	.	.	.	.	.	.	.	.	.
4F#X\	.	4a-X\	.	8f/	.	8dd\)	.	.	.	.	8dd\L	-ti-	-be-	.	.	.	.	.	.	.	.
.	.	.	.	8e-/J	.	8cc\J	.	.	.	.	8cc\J	.	-ra	.	.	.	.	.	.	.	.
!LO:PB:g=original	!	!	!	!	!	!	!	!	!	!	!	!	!	!	!	!	!	!	!	!	!
=122	=122	=122	=122	=122	=122	=122	=122	=122	=122	=122	=122	=122	=122	=122	=122	=122	=122	=122	=122	=122	=122
4G\	.	4g\	.	4e-/	.	4cc\	.	1ryy	1ryy	1ryy	4cc\|	-o-	me	.	.	.	.	.	.	.	.
!	!	!	!	!	!	!LO:SIC:v:s=4bn\	!	!	!	!	!	!	!	!	!	!	!	!	!	!	!
4GG/	.	4g\	.	4d/	.	4b-\	.	.	.	.	4bn\|	-nes	.	.	.	.	.	.	.	.	.
4r	.	4r	.	4r	.	8r	.	.	.	.	8r	.	.	.	.	.	.	.	.	.	.
.	.	.	.	.	.	8gg\L|	.	.	.	.	8gg\	et	li-	.	.	.	.	.	.	.	.
4C/	.	4g\	.	4e-/	.	(8ee-\	.	.	.	.	8ee-\	ho-	-be-	.	.	.	.	.	.	.	.
.	.	.	.	.	.	8cc\J)	.	.	.	.	8cc\	-lo-	-ra	.	.	.	.	.	.	.	.
!	!	!	!	!	!	!	!	!	!	!	!LO:LB:g=original	!	!	!	!	!	!	!	!	!	!
=123	=123	=123	=123	=123	=123	=123	=123	=123	=123	=123	=123	=123	=123	=123	=123	=123	=123	=123	=123	=123	=123
4G\	.	4g\	.	4e-/	.	16dd\LL	.	1ryy	1ryy	1ryy	16dd\LL	-cau-	li-	00r	.	00r	.	00r	.	00r	.
.	.	.	.	.	.	(16cc\	.	.	.	.	16cc\	.	.	.	.	.	.	.	.	.	.
.	.	.	.	.	.	16b-\)	.	.	.	.	16bn\	.	-be-	.	.	.	.	.	.	.	.
.	.	.	.	.	.	16cc\JJ	.	.	.	.	16cc\JJ	.	-ra	.	.	.	.	.	.	.	.
!	!	!	!	!	!	!LO:SIC:v:s=4bn\	!	!	!	!	!	!	!	!	!	!	!	!	!	!	!
4D\	.	4g\	.	4d/	.	4b-\	.	.	.	.	4b\	-sta	me	.	.	.	.	.	.	.	.
4GG/	.	2r	.	2r	.	4r	.	.	.	.	4r	.	.	.	.	.	.	.	.	.	.
4r	.	.	.	.	.	4b-X\	.	.	.	.	4b-X\	tunc	in	.	.	.	.	.	.	.	.
=124	=124	=124	=124	=124	=124	=124	=124	=124	=124	=124	=124	=124	=124	=124	=124	=124	=124	=124	=124	=124	=124
4r	.	4r	.	4r	.	2ee-\	.	1ryy	1ryy	1ryy	2ee-\	tunc	.	.	.	.	.	.	.	.	.
4E-\	.	4b-\	.	4g/	.	.	.	.	.	.	.	.	.	.	.	.	.	.	.	.	.
*	*	*	*	*	*	*Xtuplet	*	*	*	*	*	*	*	*	*	*	*	*	*	*	*
4E-\	.	4b-\	.	4g/	.	12ee-\L	.	.	.	.	12ee-\L	im-	Ju-	.	.	.	.	.	.	.	.
.	.	.	.	.	.	12dd\	.	.	.	.	12dd\	.	.	.	.	.	.	.	.	.	.
.	.	.	.	.	.	12cc\J	.	.	.	.	12cc\J	.	.	.	.	.	.	.	.	.	.
4E-\	.	4b-\	.	4g/	.	12b-\L	.	.	.	.	12b-\L	.	.	.	.	.	.	.	.	.	.
.	.	.	.	.	.	12a-\	.	.	.	.	12a-\	.	.	.	.	.	.	.	.	.	.
.	.	.	.	.	.	12g\J	.	.	.	.	12g\J	.	.	.	.	.	.	.	.	.	.
!	!	!	!	!	!	!LO:LB:g=original	!	!	!	!	!	!	!	!	!	!	!	!	!	!	!
=125	=125	=125	=125	=125	=125	=125	=125	=125	=125	=125	=125	=125	=125	=125	=125	=125	=125	=125	=125	=125	=125
4r	.	4r	.	4r	.	8b-/L	.	1ryy	1ryy	1ryy	8b-\L	-po-	-sti-	.	.	.	.	.	.	.	.
.	.	.	.	.	.	8a-/J	.	.	.	.	8a-\J	.	-ti-	.	.	.	.	.	.	.	.
4E-\	.	4b-\	.	4f/	.	4a-/	.	.	.	.	4a-\	-nent	-a	.	.	.	.	.	.	.	.
4E-\	.	4b-\	.	4f/	.	4r	.	.	.	.	4r	.	.	.	.	.	.	.	.	.	.
!	!	!	!	!LO:LB:g=original	!	!	!	!	!	!	!	!	!	!	!	!	!	!	!	!	!
4E-\	.	4b-\	.	4f/	.	4a-/	.	.	.	.	(4a-\	Su-	in	.	.	.	.	.	.	.	.
=126	=126	=126	=126	=126	=126	=126	=126	=126	=126	=126	=126	=126	=126	=126	=126	=126	=126	=126	=126	=126	=126
4r	.	4r	.	4r	.	4.dd\	.	1ryy	1ryy	1ryy	4dd\)	.	.	.	.	.	.	.	.	.	.
4D\	.	4b-\	.	4f/	.	.	.	.	.	.	8dd\	-per	Ju-	.	.	.	.	.	.	.	.
.	.	.	.	.	.	8ee-\	.	.	.	.	8ee-\	al-	.	.	.	.	.	.	.	.	.
!	!	!	!	!	!	!	!	!	!	!	!LO:TUP:a:problem:klamra łukowa	!	!	!	!	!	!	!	!	!	!
4D\	.	4b-\	.	4f/	.	12ff\L	.	.	.	.	12ff\L	-ta-	-sti-	.	.	.	.	.	.	.	.
.	.	.	.	.	.	12ee-\	.	.	.	.	12ee-\	.	.	.	.	.	.	.	.	.	.
.	.	.	.	.	.	12dd\J	.	.	.	.	12dd\J	.	.	.	.	.	.	.	.	.	.
!	!	!	!	!	!	!LO:TX:t=P:problem:mixed beam	!	!	!	!	!	!	!	!	!	!	!	!	!	!	!
4D\	.	4b-\	.	4f/	.	8aa-\L	.	.	.	.	8aa-\	.	-ti-	.	.	.	.	.	.	.	.
.	.	.	.	.	.	8a-/J	.	.	.	.	8a-\	-re	-a	.	.	.	.	.	.	.	.
=127	=127	=127	=127	=127	=127	=127	=127	=127	=127	=127	=127	=127	=127	=127	=127	=127	=127	=127	=127	=127	=127
!	!	!	!	!	!	!LO:TX:t=t&colon;	!	!	!	!	!	!	!	!	!	!	!	!	!	!	!
4r	.	4r	.	4r	.	4a-/	.	1ryy	1ryy	1ryy	4a-\	tu-	tu-	00r	.	00r	.	00r	.	00r	.
4D\	.	4b-\	.	4g/	.	4g/	.	.	.	.	4g\	-um	-a	.	.	.	.	.	.	.	.
4E-\	.	4b-\	.	4g/	.	4r	.	.	.	.	4r	.	.	.	.	.	.	.	.	.	.
!	!	!	!	!	!	!	!	!	!	!	!LO:TX:t=P:problem:brak początku ligatury	!	!	!	!	!	!	!	!	!	!
4r	.	4r	.	4r	.	4cc\	.	.	.	.	[4cc\	Su-	li-	.	.	.	.	.	.	.	.
!	!	!	!	!	!	!	!	!	!	!	!LO:LB:g=original	!	!	!	!	!	!	!	!	!	!
=128	=128	=128	=128	=128	=128	=128	=128	=128	=128	=128	=128	=128	=128	=128	=128	=128	=128	=128	=128	=128	=128
4r	.	4r	.	4r	.	(8cc\L	.	1ryy	1ryy	1ryy	8cc\]	.	.	.	.	.	.	.	.	.	.
.	.	.	.	.	.	8bn\J)	.	.	.	.	8bn\	-per	.	.	.	.	.	.	.	.	.
8GG/	.	8f\	.	8d/	.	8r	.	.	.	.	8r	.	.	.	.	.	.	.	.	.	.
8r	.	8r	.	8r	.	8dd\|	.	.	.	.	8dd\	al-	-be-	.	.	.	.	.	.	.	.
4r	.	4r	.	4r	.	(8dd\L	.	.	.	.	8dd\	-ta-	-ra	.	.	.	.	.	.	.	.
.	.	.	.	.	.	8cc\J)	.	.	.	.	8cc\	-re	.	.	.	.	.	.	.	.	.
8GG/	.	8g\	.	8e-/	.	8r	.	.	.	.	8r	.	.	.	.	.	.	.	.	.	.
8r	.	8r	.	8r	.	8ee-\|	.	.	.	.	8ee-\L	Su-	li-	.	.	.	.	.	.	.	.
!	!	!LO:LB:g=original	!	!	!	!	!	!	!	!	!	!	!	!	!	!	!	!	!	!	!
=129	=129	=129	=129	=129	=129	=129	=129	=129	=129	=129	=129	=129	=129	=129	=129	=129	=129	=129	=129	=129	=129
4r	.	4r	.	4r	.	(8ee-\L	.	1ryy	1ryy	1ryy	8ee-\J	.	.	.	.	.	.	.	.	.	.
.	.	.	.	.	.	8dd\J)	.	.	.	.	8dd\	-per	.	.	.	.	.	.	.	.	.
8GG/	.	8d\	.	8Bn/	.	8r	.	.	.	.	8r	.	.	.	.	.	.	.	.	.	.
8r	.	8r	.	8r	.	8ff\	.	.	.	.	8ff\	al-	-be-	.	.	.	.	.	.	.	.
4r	.	4r	.	4r	.	8ff\L	.	.	.	.	8ff\	-ta-	-ra	.	.	.	.	.	.	.	.
.	.	.	.	.	.	8ee-\J	.	.	.	.	8ee-\	-re	.	.	.	.	.	.	.	.	.
8GG/	.	8e-\	.	8c/L	.	8r	.	.	.	.	8r	.	.	.	.	.	.	.	.	.	.
8r	.	8r	.	8e-X/J	.	8gg\	.	.	.	.	8gg\	tu-	li-	.	.	.	.	.	.	.	.
=130	=130	=130	=130	=130	=130	=130	=130	=130	=130	=130	=130	=130	=130	=130	=130	=130	=130	=130	=130	=130	=130
!	!	!	!	!	!	!LO:TX:t=t&colon;	!	!	!	!	!	!	!	!	!	!	!	!	!	!	!
2C/	.	2e-\	.	2e-/	.	4.gg\	.	1ryy	1ryy	1ryy	4.gg\	.	.	.	.	.	.	.	.	.	.
.	.	.	.	.	.	16ff\LL	.	.	.	.	16ff\LL	.	.	.	.	.	.	.	.	.	.
.	.	.	.	.	.	16gg\JJ	.	.	.	.	16gg\JJ	.	.	.	.	.	.	.	.	.	.
4F\	.	4a-\	.	4f/	.	4aa-\	.	.	.	.	4aa-\	.	.	.	.	.	.	.	.	.	.
4A-\	.	4a-\	.	4d/	.	4ff\	.	.	.	.	4ff\	-um	.	.	.	.	.	.	.	.	.
!LO:LB:g=original	!	!	!	!	!	!	!	!	!	!	!	!	!	!	!	!	!	!	!	!	!
=131	=131	=131	=131	=131	=131	=131	=131	=131	=131	=131	=131	=131	=131	=131	=131	=131	=131	=131	=131	=131	=131
2G\	.	2g\	.	2c/	.	2ee-\	.	1ryy	1ryy	1ryy	2ee-\	Vi-	-be-	0r	.	0r	.	0r	.	0r	.
!	!	!LO:SIC:v:s=2Bn/	!	!	!	!LO:TX:t=t&colon;	!	!	!	!	!	!	!	!	!	!	!	!	!	!	!
2GG/	.	2B-/	.	2g/	.	2dd\	.	.	.	.	2ddt\	-tu-	-ra	.	.	.	.	.	.	.	.
=132	=132	=132	=132	=132	=132	=132	=132	=132	=132	=132	=132	=132	=132	=132	=132	=132	=132	=132	=132	=132	=132
4C/	.	4c/	.	4cc\|	.	4cc\|	.	1ryy	1ryy	1ryy	2cc\	-los.	me	.	.	.	.	.	.	.	.
4A-\	.	4A-/	.	4g/|	.	4a-/|	.	.	.	.	.	.	.	.	.	.	.	.	.	.	.
4F\	.	4F/	.	4f/|	.	4f/|	.	.	.	.	2r	.	.	.	.	.	.	.	.	.	.
4G\	.	4G/	.	4g/|	.	4g/|	.	.	.	.	.	.	.	.	.	.	.	.	.	.	.
=133	=133	=133	=133	=133	=133	=133	=133	=133	=133	=133	=133	=133	=133	=133	=133	=133	=133	=133	=133	=133	=133
2C/	.	2C/	.	2c/	.	2c/	.	2ryy	2ryy	2ryy	2r	.	.	2r	.	2r	.	2r	.	2r	.
!LO:TX:b:t=Da Capo	!	!LO:TX:b:t=Da Capo	!	!LO:TX:b:t=Da Capo	!	!LO:TX:b:t=DaCapo&colon;\nusque adFin	!	!	!	!	!LO:TX:b:t=Da\nCapo	!	!	!LO:TX:b:t=Da Capo	!	!LO:TX:b:t=Da Capo	!	!LO:TX:b:t=Da Capo	!	!LO:TX:b:t=Da Capo	!
4r	.	4r	.	4r	.	4r	.	4ryy	4ryy	4ryy	4r	.	.	4r	.	4r	.	4r	.	4r	.
==	==	==	==	==	==	==	==	==	==	==	==	==	==	==	==	==	==	==	==	==	==
*-	*-	*-	*-	*-	*-	*-	*-	*-	*-	*-	*-	*-	*-	*-	*-	*-	*-	*-	*-	*-	*-
!!!system-decoration: [(g1)][(g2)][(g3)][(g4)]s12
!!!RDF**kern: > = above
!!!RDF**kern: | = vertical stroke
!!!ENC: Marcin Jachim
!!!END: 2020-11-02
!!!ENC: Marta Lawrence
!!!END: 2022-04-14
!!!YEC: Copyright 2022 Narodowy Instytut Fryderyka Chopina (https://polishscores.org)
!!!YEM: License CC-BY-4.0 (https://creativecommons.org/licenses/by/4.0)
